
(Header)
(Generated by gcodetools from Inkscape.)
(Using default header. To add your own header create file "header" in the output dir.)
M3
(Header end.)
(G21 (All units in mm)
G0 Z2.0
G28

(Start cutting path id: text6)
(Change tool to Cone cutter)

G00 Z2.000000

G01 X50.0 Y150.0 Z-1.000000 F600.000000
G01 Z-1.000000 F600.0(Penetrate)
G01 X50.0 Y200.0 Z-1.000000
G01 X100.0 Y200.0 Z-1.000000
G01 X100.0 Y150.0 Z-1.0
G01 X50.0 Y150.0 Z-1.0
G02 X100.0 Y150.0 I25.0 J0.0 Z-1.0
G02 X50.0 Y150.0 I-25.0 J0.0 Z-1.0
G03 X100.0 Y150.0 I25.0 J0.0 Z1.0
G03 X50.0 Y150.0 I-25.0 J0.0 Z1.0

G00 Z2.000000

