%
(Header)
(Generated by gcodetools from Inkscape.)
(Using default header. To add your own header create file "header" in the output dir.)
M3
(Header end.)
G21 (All units in mm)

(Start cutting path id: text6)
(Change tool to Cone cutter)

G00 Z2.000000
G00 X32.715273 Y263.471685

G01 Z-1.000000 F9998.0(Penetrate)
G01 X34.107090 Y263.471685 Z-1.000000 F9999.000000
G01 X34.107090 Y259.254896 Z-1.000000
G01 X39.164481 Y259.254896 Z-1.000000
G01 X39.164481 Y263.471685 Z-1.000000
G01 X40.556296 Y263.471685 Z-1.000000
G01 X40.556296 Y253.184650 Z-1.000000
G01 X39.164481 Y253.184650 Z-1.000000
G01 X39.164481 Y258.083566 Z-1.000000
G01 X34.107090 Y258.083566 Z-1.000000
G01 X34.107090 Y253.184650 Z-1.000000
G01 X32.715273 Y253.184650 Z-1.000000
G01 X32.715273 Y263.471685 Z-1.000000
G00 Z2.000000

(Change tool to Cone cutter)

G00 Z2.000000
G00 X43.271026 Y260.901647

G01 Z-1.000000 F9998.0(Penetrate)
G01 X44.538820 Y260.901647 Z-1.000000 F9999.000000
G01 X44.538820 Y253.184650 Z-1.000000
G01 X43.271026 Y253.184650 Z-1.000000
G01 X43.271026 Y260.901647 Z-1.000000
G00 Z2.000000

(Change tool to Cone cutter)

G00 Z2.000000
G00 X43.271026 Y263.905765

G01 Z-1.000000 F9998.0(Penetrate)
G01 X44.538820 Y263.905765 Z-1.000000 F9999.000000
G01 X44.538820 Y262.300355 Z-1.000000
G01 X43.271026 Y262.300355 Z-1.000000
G01 X43.271026 Y263.905765 Z-1.000000
G00 Z2.000000

(Change tool to Cone cutter)

G00 Z2.000000
G00 X51.732165 Y263.471685

G01 Z-1.000000 F9998.0(Penetrate)
G01 X53.606294 Y263.471685 Z-1.000000 F9999.000000
G01 X58.167591 Y254.865853 Z-1.000000
G01 X58.167591 Y263.471685 Z-1.000000
G01 X59.518065 Y263.471685 Z-1.000000
G01 X59.518065 Y253.184650 Z-1.000000
G01 X57.643939 Y253.184650 Z-1.000000
G01 X53.082639 Y261.790482 Z-1.000000
G01 X53.082639 Y253.184650 Z-1.000000
G01 X51.732165 Y253.184650 Z-1.000000
G01 X51.732165 Y263.471685 Z-1.000000
G00 Z2.000000

(Change tool to Cone cutter)

G00 Z2.000000
G00 X65.739898 Y257.063821

G01 Z-1.000000 F9998.0(Penetrate)
G03 X64.237166 Y256.940642 Z-1.000000 I-0.000000 J-9.227930 F9999.000000
G03 X63.610833 Y256.712420 Z-1.000000 I0.293739 J-1.779707
G03 X63.193028 Y256.261486 Z-1.000000 I0.551528 J-0.930029
G03 X63.018278 Y255.513528 Z-1.000000 I1.513311 J-0.747957
G03 X63.140705 Y254.892563 Z-1.000000 I1.636031 J0.000000
G03 X63.459248 Y254.438663 Z-1.000000 I1.161866 J0.476662
G03 X63.950010 Y254.159907 Z-1.000000 I0.921291 J1.050593
G03 X64.671920 Y254.045921 Z-1.000000 I0.721909 J2.229045
G03 X65.632670 Y254.248284 Z-1.000000 I-0.000000 J2.381843
G03 X66.360015 Y254.790061 Z-1.000000 I-0.819787 J1.859702
G03 X66.816807 Y255.608916 Z-1.000000 I-1.817521 J1.550727
G03 X67.000800 Y256.781323 Z-1.000000 I-3.643292 J1.172407
G01 X67.000800 Y257.063821 Z-1.000000
G01 X65.739898 Y257.063821 Z-1.000000
G00 Z2.000000

(Change tool to Cone cutter)

G00 Z2.000000
G00 X68.268592 Y257.587473

G01 Z-1.000000 F9998.0(Penetrate)
G01 X68.268592 Y253.184650 Z-1.000000 F9999.000000
G01 X67.000800 Y253.184650 Z-1.000000
G01 X67.000800 Y254.355980 Z-1.000000
G02 X66.495428 Y253.729860 Z-1.000000 I-2.728266 J1.685100
G02 X65.919042 Y253.315563 Z-1.000000 I-1.729974 J1.798715
G02 X65.248660 Y253.079229 Z-1.000000 I-1.217144 J2.383567
G02 X64.334301 Y252.984835 Z-1.000000 I-0.914359 J4.381303
G02 X63.224090 Y253.173696 Z-1.000000 I-0.000000 J3.357587
G02 X62.446393 Y253.646292 Z-1.000000 I0.724968 J2.069177
G02 X61.944848 Y254.397457 Z-1.000000 I1.453682 J1.513630
G02 X61.750484 Y255.430846 Z-1.000000 I2.649972 J1.033389
G02 X61.999466 Y256.609777 Z-1.000000 I2.915610 J-0.000000
G02 X62.618647 Y257.394547 Z-1.000000 I1.835303 J-0.811398
G02 X63.563294 Y257.848524 Z-1.000000 I1.596250 J-2.111705
G02 X65.223133 Y258.056004 Z-1.000000 I1.659839 J-6.535609
G01 X67.000800 Y258.056004 Z-1.000000
G01 X67.000800 Y258.180028 Z-1.000000
G03 X66.837074 Y258.977689 Z-1.000000 I-2.024936 J-0.000000
G03 X66.422025 Y259.530504 Z-1.000000 I-1.341365 J-0.574871
G03 X65.797324 Y259.868262 Z-1.000000 I-1.124654 J-1.333518
G03 X64.809725 Y260.012815 Z-1.000000 I-0.987599 J-3.301410
G03 X64.153271 Y259.972597 Z-1.000000 I-0.000000 J-5.377455
G03 X63.521261 Y259.854341 Z-1.000000 I0.627425 J-5.101220
G03 X62.909408 Y259.657291 Z-1.000000 I1.231296 J-4.871713
G03 X62.315480 Y259.378919 Z-1.000000 I1.919204 J-4.867557
G01 X62.315480 Y260.550250 Z-1.000000
G02 X63.019806 Y260.790009 Z-1.000000 I3.318095 J-8.592945
G02 X63.665954 Y260.949881 Z-1.000000 I2.092046 J-7.069649
G02 X64.323982 Y261.054448 Z-1.000000 I1.375851 J-6.535339
G02 X64.940638 Y261.087684 Z-1.000000 I0.616656 J-5.704105
G02 X66.502110 Y260.824389 Z-1.000000 I0.000000 J-4.761820
G02 X67.441773 Y260.219521 Z-1.000000 I-0.777667 J-2.240420
G02 X68.013697 Y259.249400 Z-1.000000 I-1.801482 J-1.715691
G02 X68.268592 Y257.587473 Z-1.000000 I-5.290482 J-1.661927
G01 X68.268592 Y257.587473 Z-1.000000
G00 Z2.000000

(Change tool to Cone cutter)

G00 Z2.000000
G00 X75.799556 Y260.674273

G01 Z-1.000000 F9998.0(Penetrate)
G01 X75.799556 Y259.475381 Z-1.000000 F9999.000000
G03 X75.249640 Y259.717195 Z-1.000000 I-2.302111 J-4.489102
G03 X74.683349 Y259.888792 Z-1.000000 I-1.700000 J-4.589989
G03 X74.100431 Y259.991312 Z-1.000000 I-1.149758 J-4.828920
G03 X73.484457 Y260.026597 Z-1.000000 I-0.615974 J-5.358902
G03 X72.566476 Y259.933970 Z-1.000000 I-0.000000 J-4.595103
G03 X72.065080 Y259.737210 Z-1.000000 I0.312847 J-1.534441
G03 X71.724703 Y259.376348 Z-1.000000 I0.504517 J-0.816836
G03 X71.596549 Y258.869047 Z-1.000000 I0.940001 J-0.507301
G03 X71.687467 Y258.473349 Z-1.000000 I0.906543 J-0.000000
G03 X71.934167 Y258.173138 Z-1.000000 I0.747067 J0.362438
G03 X72.297450 Y257.981570 Z-1.000000 I0.822486 J1.119494
G03 X73.291531 Y257.697717 Z-1.000000 I2.909683 J8.307365
G01 X73.725614 Y257.601252 Z-1.000000
G02 X75.013267 Y257.191938 Z-1.000000 I-1.466390 J-6.843144
G02 X75.641084 Y256.781323 Z-1.000000 I-0.848965 J-1.983301
G02 X76.049106 Y256.185533 Z-1.000000 I-1.074535 J-1.173499
G02 X76.212966 Y255.313715 Z-1.000000 I-2.237321 J-0.871817
G02 X75.985593 Y254.354016 Z-1.000000 I-2.139037 J0.000000
G02 X75.358586 Y253.611841 Z-1.000000 I-1.855141 J0.931324
G02 X74.449074 Y253.172935 Z-1.000000 I-1.612339 J2.179320
G02 X73.022815 Y252.984835 Z-1.000000 I-1.426259 J5.313207
G02 X72.405385 Y253.014325 Z-1.000000 I-0.000000 J6.478205
G02 X71.727462 Y253.108858 Z-1.000000 I0.757088 J7.907361
G02 X71.065243 Y253.250668 Z-1.000000 I1.560784 J8.905608
G02 X70.314975 Y253.467146 Z-1.000000 I2.955478 J11.651458
G01 X70.314975 Y254.776281 Z-1.000000
G03 X71.032272 Y254.448181 Z-1.000000 I3.623187 J6.972917
G03 X71.699900 Y254.225065 Z-1.000000 I2.314325 J5.814717
G03 X72.387678 Y254.089683 Z-1.000000 I1.426023 J5.429872
G03 X73.050374 Y254.045921 Z-1.000000 I0.662696 J4.995730
G03 X73.918892 Y254.140329 Z-1.000000 I0.000000 J4.042225
G03 X74.428410 Y254.349088 Z-1.000000 I-0.345011 J1.568236
G03 X74.784028 Y254.728317 Z-1.000000 I-0.576798 J0.897239
G03 X74.910723 Y255.217251 Z-1.000000 I-0.880079 J0.488934
G03 X74.811502 Y255.685738 Z-1.000000 I-1.155616 J-0.000000
G03 X74.559325 Y256.009622 Z-1.000000 I-0.776174 J-0.344215
G03 X74.182747 Y256.217800 Z-1.000000 I-0.795622 J-0.994529
G03 X73.036595 Y256.540166 Z-1.000000 I-3.208372 J-9.208439
G01 X72.595625 Y256.643517 Z-1.000000
G02 X71.478129 Y257.005474 Z-1.000000 I1.146405 J5.445431
G02 X70.893750 Y257.401439 Z-1.000000 I0.817556 J1.835780
G02 X70.519576 Y257.980700 Z-1.000000 I1.117295 J1.132197
G02 X70.370095 Y258.813924 Z-1.000000 I2.247504 J0.833224
G02 X70.584878 Y259.796700 Z-1.000000 I2.355829 J0.000000
G02 X71.141797 Y260.495129 Z-1.000000 I1.688249 J-0.774934
G02 X71.974767 Y260.907281 Z-1.000000 I1.457911 J-1.898673
G02 X73.332872 Y261.087684 Z-1.000000 I1.358105 J-5.021830
G02 X74.033409 Y261.060360 Z-1.000000 I0.000000 J-8.994085
G02 X74.655787 Y260.984330 Z-1.000000 I-0.560338 J-7.172234
G02 X75.267529 Y260.850783 Z-1.000000 I-1.034191 J-6.205226
G02 X75.799556 Y260.674273 Z-1.000000 I-1.319091 J-4.865992
G01 X75.799556 Y260.674273 Z-1.000000
G00 Z2.000000

(Change tool to Cone cutter)

G00 Z2.000000
G00 X84.646550 Y257.842409

G01 Z-1.000000 F9998.0(Penetrate)
G01 X84.646550 Y253.184650 Z-1.000000 F9999.000000
G01 X83.378755 Y253.184650 Z-1.000000
G01 X83.378755 Y257.801068 Z-1.000000
G03 X83.244351 Y258.850163 Z-1.000000 I-4.161577 J-0.000000
G03 X82.951565 Y259.440930 Z-1.000000 I-1.565021 J-0.407694
G03 X82.447402 Y259.827002 Z-1.000000 I-1.002209 J-0.786539
G03 X81.669991 Y259.985256 Z-1.000000 I-0.777411 J-1.830353
G03 X80.724896 Y259.801452 Z-1.000000 I0.000000 J-2.521668
G03 X80.050798 Y259.330689 Z-1.000000 I0.689230 J-1.704937
G03 X79.630227 Y258.609839 Z-1.000000 I1.501180 J-1.358960
G03 X79.458244 Y257.546132 Z-1.000000 I3.203493 J-1.063707
G01 X79.458244 Y253.184650 Z-1.000000
G01 X78.183562 Y253.184650 Z-1.000000
G01 X78.183562 Y263.905765 Z-1.000000
G01 X79.458244 Y263.905765 Z-1.000000
G01 X79.458244 Y259.702758 Z-1.000000
G02 X79.975766 Y260.331544 Z-1.000000 I3.109772 J-2.032135
G02 X80.526222 Y260.743176 Z-1.000000 I1.846631 J-1.895550
G02 X81.170465 Y260.994575 Z-1.000000 I1.247251 J-2.245058
G02 X81.952489 Y261.087684 Z-1.000000 I0.782023 J-3.237582
G02 X83.169051 Y260.847452 Z-1.000000 I-0.000000 J-3.200530
G02 X83.964420 Y260.260862 Z-1.000000 I-0.772706 J-1.880251
G02 X84.435963 Y259.364785 Z-1.000000 I-1.871449 J-1.556922
G02 X84.646550 Y257.842409 Z-1.000000 I-5.397502 J-1.522376
G01 X84.646550 Y257.842409 Z-1.000000
G00 Z2.000000

(End cutting path id: text6)


(Footer)
M5
G00 X0.0000 Y0.0000
M2
(Using default footer. To add your own footer create file "footer" in the output dir.)
(end)
%