
(Header)
(Generated by gcodetools from Inkscape.)
(Using default header. To add your own header create file "header" in the output dir.)
M3
(Header end.)
(G21 (All units in mm)
G28

(Start cutting path id: text6)
(Change tool to Cone cutter)

G00 Z2.000000
G00 X32.715273 Y263.471685

G01 Z-1.000000 F9998.0(Penetrate)
G01 X34.107090 Y263.471685 Z-1.000000 F9999.000000
G01 X34.107090 Y259.254896 Z-1.000000
G01 X39.164481 Y259.254896 Z-1.000000

G01 X51.732165 Y263.471685 Z-1.000000
G00 Z2.000000

G01 Z-1.000000 F9998.0(Penetrate)
G01 X34.107090 Y263.471685 Z-1.000000 F9999.000000
G01 X34.107090 Y259.254896 Z-1.000000
G01 X39.164481 Y259.254896 Z-1.000000

G01 X51.732165 Y263.471685 Z-1.000000
G00 Z2.000000

G01 Z-1.000000 F9998.0(Penetrate)
G01 X34.107090 Y263.471685 Z-1.000000 F9999.000000
G01 X34.107090 Y259.254896 Z-1.000000
G01 X39.164481 Y259.254896 Z-1.000000

G01 X51.732165 Y263.471685 Z-1.000000
G00 Z2.000000

G01 Z-1.000000 F9998.0(Penetrate)
G01 X34.107090 Y263.471685 Z-1.000000 F9999.000000
G01 X34.107090 Y259.254896 Z-1.000000
G01 X39.164481 Y259.254896 Z-1.000000

G01 X51.732165 Y263.471685 Z-1.000000
G00 Z2.000000

G01 Z-1.000000 F9998.0(Penetrate)
G01 X34.107090 Y263.471685 Z-1.000000 F9999.000000
G01 X34.107090 Y259.254896 Z-1.000000
G01 X39.164481 Y259.254896 Z-1.000000

G01 X51.732165 Y263.471685 Z-1.000000
G00 Z2.000000
