%
(Header)
(Generated by gcodetools from Inkscape.)
(Using default header. To add your own header create file "header" in the output dir.)
M3
(Header end.)
G21 (All units in mm)
G28
(Pass at depth -1.0)
(Start cutting path id: path399)
(Change tool to Default tool)

G00 Z1.000000
G00 X325.064679 Y639.711672

G01 Z-2.000000 F100.0(Penetrate)
G01 X326.306606 Y641.574562 Z-2.000000 F1000.000000
G01 X328.169496 Y638.469746 Z-2.000000
G01 X326.306606 Y637.227819 Z-2.000000
G01 X325.064679 Y639.711672 Z-2.000000
G01 X325.064679 Y639.711672 Z-2.000000
G00 Z1.000000

(End cutting path id: path399)

(Start cutting path id: path381)
(Change tool to Default tool)

G00 Z1.000000
G00 X324.443716 Y635.985892

G01 Z-2.000000 F100.0(Penetrate)
G01 X326.306606 Y635.985892 Z-2.000000 F1000.000000
G01 X327.548533 Y632.260112 Z-2.000000
G01 X326.306606 Y631.018186 Z-2.000000
G02 X324.804394 Y633.996874 Z-2.000000 I12.943670 J8.395894
G02 X324.443716 Y635.985892 Z-2.000000 I5.304049 J1.989018
G01 X324.443716 Y635.985892 Z-2.000000
G00 Z1.000000

(End cutting path id: path381)

(Start cutting path id: path359)
(Change tool to Default tool)

G00 Z1.000000
G00 X326.927569 Y647.784195

G01 Z-2.000000 F100.0(Penetrate)
G01 X328.169496 Y647.784195 Z-2.000000 F1000.000000
G01 X331.274312 Y641.574562 Z-2.000000
G01 X330.032386 Y640.953599 Z-2.000000
G02 X329.254056 Y642.310740 Z-2.000000 I343.510917 J197.907513
G02 X328.479978 Y643.670313 Z-2.000000 I587.183560 J335.215650
G01 X327.606748 Y645.198465 Z-2.000000
G02 X327.083165 Y646.579355 Z-2.000000 I6.255036 J3.161390
G02 X326.927569 Y647.784195 Z-2.000000 I4.586999 J1.204840
G01 X326.927569 Y647.784195 Z-2.000000
G00 Z1.000000

(End cutting path id: path359)

(Start cutting path id: path338)
(Change tool to Default tool)

G00 Z1.000000
G00 X330.653349 Y653.372865

G01 Z-2.000000 F100.0(Penetrate)
G02 X332.687806 Y650.499051 Z-2.000000 I-12.132809 J-10.746203 F1000.000000
G02 X333.758166 Y647.163232 Z-2.000000 I-7.834694 J-4.353540
G01 X332.516239 Y646.542268 Z-2.000000
G02 X330.995142 Y649.795164 Z-2.000000 I8.318699 J5.872023
G02 X330.653349 Y653.372865 Z-2.000000 I10.578698 J2.815806
G01 X330.653349 Y653.372865 Z-2.000000
G00 Z1.000000

(End cutting path id: path338)

(Start cutting path id: path390)
(Change tool to Default tool)

G00 Z1.000000
G00 X326.927569 Y655.235755

G01 Z-2.000000 F100.0(Penetrate)
G01 X327.548533 Y658.340571 Z-2.000000 F1000.000000
G02 X329.324798 Y656.328270 Z-2.000000 I-8.238097 J-9.061907
G02 X330.653349 Y653.993828 Z-2.000000 I-11.459919 J-8.067204
G01 X326.927569 Y655.235755 Z-2.000000
G01 X326.927569 Y655.235755 Z-2.000000
G00 Z1.000000

(End cutting path id: path390)

(Start cutting path id: path177)
(Change tool to Default tool)

G00 Z1.000000
G00 X329.449922 Y661.755869

G01 Z-2.000000 F100.0(Penetrate)
G02 X330.769080 Y663.166980 Z-2.000000 I8.271894 J-6.410718 F1000.000000
G02 X331.894965 Y663.929241 Z-2.000000 I3.444607 J-3.875183
G02 X333.221020 Y660.225359 Z-2.000000 I-7.220705 J-4.674456
G02 X333.524994 Y656.322440 Z-2.000000 I-55.030041 J-6.249237
G01 X333.597763 Y654.920421 Z-2.000000
G02 X333.680827 Y653.215343 Z-2.000000 I-332.984310 J-17.076130
G02 X333.757855 Y651.509975 Z-2.000000 I-870.068643 J-40.153640
G02 X329.609710 Y658.664476 Z-2.000000 I25.849159 J19.767004
G02 X329.449922 Y661.755869 Z-2.000000 I4.202731 J1.767057
G01 X329.449922 Y661.755869 Z-2.000000
G00 Z1.000000

(End cutting path id: path177)

(Start cutting path id: path101)
(Change tool to Default tool)

G00 Z1.000000
G00 X334.379129 Y662.687314

G01 Z-2.000000 F100.0(Penetrate)
G02 X334.633567 Y669.375956 Z-2.000000 I36.018141 J1.979019 F1000.000000
G02 X335.621056 Y672.118195 Z-2.000000 I6.781131 J-0.892988
G02 X338.917622 Y673.411499 Z-2.000000 I5.424225 J-8.978028
G02 X342.451652 Y673.864654 Z-2.000000 I4.714276 J-22.758301
G02 X343.509484 Y671.171238 Z-2.000000 I-5.674803 J-3.783201
G02 X343.676599 Y668.297815 Z-2.000000 I-13.900409 J-2.250004
G03 X343.786511 Y666.830338 Z-2.000000 I7.850062 J-0.149897
G03 X344.314542 Y664.550204 Z-2.000000 I19.578786 J3.332830
G01 X334.379129 Y662.687314 Z-2.000000
G01 X334.379129 Y662.687314 Z-2.000000
G00 Z1.000000

(End cutting path id: path101)

(Start cutting path id: path79)
(Change tool to Default tool)

G00 Z1.000000
G00 X335.000092 Y662.066351

G01 Z-2.000000 F100.0(Penetrate)
G01 X344.935505 Y663.929241 Z-2.000000 F1000.000000
G02 X348.067215 Y659.365433 Z-2.000000 I-29.495247 J-23.596199
G02 X349.282248 Y656.477681 Z-2.000000 I-10.453317 J-6.097768
G02 X347.254980 Y651.282659 Z-2.000000 I-16.802483 J3.563814
G02 X344.314542 Y646.542268 Z-2.000000 I-119.401040 J70.781660
G02 X341.061080 Y650.976633 Z-2.000000 I25.438658 J22.074868
G02 X338.260150 Y655.701477 Z-2.000000 I145.043469 J89.175700
G01 X337.306874 Y657.348485 Z-2.000000
G02 X335.154252 Y661.400101 Z-2.000000 I59.179856 J34.039887
G02 X335.000092 Y662.066351 Z-2.000000 I1.362625 J0.666250
G01 X335.000092 Y662.066351 Z-2.000000
G00 Z1.000000

(End cutting path id: path79)

(Start cutting path id: path111)
(Change tool to Default tool)

G00 Z1.000000
G00 X335.000092 Y657.098645

G01 Z-2.000000 F100.0(Penetrate)
G02 X338.036458 Y653.075001 Z-2.000000 I-35.259292 J-29.765241 F1000.000000
G02 X340.744003 Y648.832071 Z-2.000000 I-87.676212 J-58.934244
G01 X341.607530 Y647.474926 Z-2.000000
G02 X343.362184 Y643.142699 Z-2.000000 I-12.756059 J-7.687956
G02 X343.693579 Y638.469746 Z-2.000000 I-14.645195 J-3.386829
G02 X342.627655 Y638.639733 Z-2.000000 I0.443368 J6.207157
G02 X341.209725 Y639.090709 Z-2.000000 I2.867955 J11.471822
G02 X340.079479 Y640.665830 Z-2.000000 I36.779537 J27.584653
G02 X339.439010 Y641.671588 Z-2.000000 I14.340496 J9.838874
G03 X338.680619 Y642.822935 Z-2.000000 I-12.472130 J-7.389921
G03 X337.741063 Y644.000200 Z-2.000000 I-13.981358 J-10.194740
G02 X335.136645 Y650.263340 Z-2.000000 I9.692926 J7.703706
G02 X335.000092 Y657.098645 Z-2.000000 I35.187057 J4.121969
G01 X335.000092 Y657.098645 Z-2.000000
G00 Z1.000000

(End cutting path id: path111)

(Start cutting path id: path201)
(Change tool to Default tool)

G00 Z1.000000
G00 X326.073745 Y665.792131

G01 Z-2.000000 F100.0(Penetrate)
G01 X326.927569 Y667.034057 Z-2.000000 F1000.000000
G01 X327.936635 Y668.741707 Z-2.000000
G01 X328.790459 Y670.138874 Z-2.000000
G02 X329.692794 Y669.077633 Z-2.000000 I-8.215961 J-7.899962
G02 X330.653349 Y667.655021 Z-2.000000 I-13.845826 J-10.384370
G02 X330.158181 Y664.887410 Z-2.000000 I-9.033922 J0.188207
G02 X328.751649 Y662.454453 Z-2.000000 I-6.997369 J2.422244
G01 X327.548533 Y661.445388 Z-2.000000
G02 X326.092195 Y664.268261 Z-2.000000 I8.661978 J6.255873
G02 X326.073745 Y665.792131 Z-2.000000 I2.329147 J0.790246
G01 X326.073745 Y665.792131 Z-2.000000
G00 Z1.000000

(End cutting path id: path201)

(Start cutting path id: path360)
(Change tool to Default tool)

G00 Z1.000000
G00 X323.822753 Y663.929241

G01 Z-2.000000 F100.0(Penetrate)
G01 X325.064679 Y663.929241 Z-2.000000 F1000.000000
G02 X326.532194 Y661.229189 Z-2.000000 I-8.469479 J-6.352109
G02 X326.733518 Y659.388447 Z-2.000000 I-3.607904 J-1.325982
G01 X326.306606 Y658.340571 Z-2.000000
G02 X324.287742 Y661.738114 Z-2.000000 I13.328740 J10.218701
G02 X323.822753 Y663.929241 Z-2.000000 I4.930035 J2.191127
G01 X323.822753 Y663.929241 Z-2.000000
G00 Z1.000000

(End cutting path id: path360)

(Start cutting path id: path389)
(Change tool to Default tool)

G00 Z1.000000
G00 X331.274312 Y672.001764

G01 Z-2.000000 F100.0(Penetrate)
G01 X333.137202 Y672.001764 Z-2.000000 F1000.000000
G01 X332.516239 Y668.275984 Z-2.000000
G01 X331.274312 Y668.275984 Z-2.000000
G02 X330.972007 Y670.138874 Z-2.000000 I5.588670 J1.862890
G02 X331.274312 Y672.001764 Z-2.000000 I5.890975 J0.000000
G01 X331.274312 Y672.001764 Z-2.000000
G00 Z1.000000

(End cutting path id: path389)

(Start cutting path id: path379)
(Change tool to Default tool)

G00 Z1.000000
G00 X337.483946 Y674.485617

G01 Z-2.000000 F100.0(Penetrate)
G01 X338.725872 Y677.590434 Z-2.000000 F1000.000000
G01 X339.346835 Y676.348507 Z-2.000000
G03 X340.614648 Y675.986285 Z-2.000000 I6.068424 J18.840222
G03 X341.830689 Y675.727544 Z-2.000000 I4.268090 J17.072359
G02 X340.461070 Y674.774271 Z-2.000000 I-3.344076 J3.344076
G02 X338.958733 Y674.407997 Z-2.000000 I-1.695503 J3.690212
G01 X337.483946 Y674.485617 Z-2.000000
G01 X337.483946 Y674.485617 Z-2.000000
G00 Z1.000000

(End cutting path id: path379)

(Start cutting path id: path192)
(Change tool to Default tool)

G00 Z1.000000
G00 X333.758166 Y681.316213

G01 Z-2.000000 F100.0(Penetrate)
G02 X335.242016 Y681.659517 Z-2.000000 I6.468798 J-24.581432 F1000.000000
G02 X336.862982 Y681.937177 Z-2.000000 I5.812210 J-29.061050
G01 X338.104909 Y680.695250 Z-2.000000
G02 X337.350499 Y677.101843 Z-2.000000 I-13.092864 J0.872857
G02 X335.621056 Y673.864654 Z-2.000000 I-12.077845 J4.371929
G01 X334.379129 Y673.864654 Z-2.000000
G02 X333.870962 Y677.574067 Z-2.000000 I35.329678 J6.729462
G02 X333.758166 Y681.316213 Z-2.000000 I34.599213 J2.915670
G01 X333.758166 Y681.316213 Z-2.000000
G00 Z1.000000

(End cutting path id: path192)

(Start cutting path id: path146)
(Change tool to Default tool)

G00 Z1.000000
G00 X328.169496 Y681.937177

G01 Z-2.000000 F100.0(Penetrate)
G02 X330.032377 Y681.956588 Z-2.000000 I1.825639 J-85.805064 F1000.000000
G02 X331.895276 Y681.937177 Z-2.000000 I-0.040479 J-93.284913
G02 X332.310081 Y681.226784 Z-2.000000 I-1.144707 J-1.144707
G02 X332.576880 Y679.489708 Z-2.000000 I-7.117747 J-1.982247
G01 X332.555049 Y677.241142 Z-2.000000
G01 X332.538070 Y674.987724 Z-2.000000
G01 X332.516239 Y673.243690 Z-2.000000
G01 X328.790459 Y672.622727 Z-2.000000
G02 X328.220434 Y677.269128 Z-2.000000 I28.602156 J5.867109
G02 X328.169496 Y681.937177 Z-2.000000 I75.463411 J3.157762
G01 X328.169496 Y681.937177 Z-2.000000
G00 Z1.000000

(End cutting path id: path146)

(Start cutting path id: path372)
(Change tool to Default tool)

G00 Z1.000000
G00 X321.959863 Y678.211397

G01 Z-2.000000 F100.0(Penetrate)
G01 X323.201790 Y678.832360 Z-2.000000 F1000.000000
G02 X324.463116 Y677.609872 Z-2.000000 I-36.162461 J-38.573291
G02 X325.685643 Y676.348507 Z-2.000000 I-42.409688 J-42.326979
G01 X325.685643 Y675.106580 Z-2.000000
G01 X323.201790 Y675.106580 Z-2.000000
G01 X321.959863 Y678.211397 Z-2.000000
G01 X321.959863 Y678.211397 Z-2.000000
G00 Z1.000000

(End cutting path id: path372)

(Start cutting path id: path304)
(Change tool to Default tool)

G00 Z1.000000
G00 X317.613120 Y678.211397

G01 Z-2.000000 F100.0(Penetrate)
G01 X320.096973 Y678.832360 Z-2.000000 F1000.000000
G02 X321.019574 Y676.901705 Z-2.000000 I-6.280637 J-4.187091
G02 X321.106038 Y675.611113 Z-2.000000 I-2.632180 J-0.824538
G01 X320.717936 Y674.485617 Z-2.000000
G01 X318.234083 Y675.106580 Z-2.000000
G01 X317.613120 Y678.211397 Z-2.000000
G01 X317.613120 Y678.211397 Z-2.000000
G00 Z1.000000

(End cutting path id: path304)

(Start cutting path id: path343)
(Change tool to Default tool)

G00 Z1.000000
G00 X310.782523 Y673.243690

G01 Z-2.000000 F100.0(Penetrate)
G02 X311.302863 Y674.419944 Z-2.000000 I12.722606 J-4.924880 F1000.000000
G02 X312.024450 Y675.727544 Z-2.000000 I16.452152 J-8.226076
G02 X313.359440 Y676.129029 Z-2.000000 I4.921237 J-13.943506
G02 X314.508303 Y676.348507 Z-2.000000 I2.524559 J-10.098234
G01 X315.750230 Y673.864654 Z-2.000000
G01 X310.782523 Y673.243690 Z-2.000000
G01 X310.782523 Y673.243690 Z-2.000000
G00 Z1.000000

(End cutting path id: path343)

(Start cutting path id: path218)
(Change tool to Default tool)

G00 Z1.000000
G00 X306.435780 Y662.687314

G01 Z-2.000000 F100.0(Penetrate)
G02 X307.752639 Y665.613810 Z-2.000000 I19.799552 J-7.149838 F1000.000000
G02 X309.540597 Y668.275984 Z-2.000000 I15.276138 J-8.328195
G01 X312.024450 Y667.034057 Z-2.000000
G02 X310.700408 Y663.483211 Z-2.000000 I-37.636625 J12.011689
G02 X310.161560 Y662.687314 Z-2.000000 I-2.335803 J1.001058
G02 X308.298662 Y662.667903 Z-2.000000 I-1.903378 J93.265502
G02 X306.435780 Y662.687314 Z-2.000000 I-0.037242 J85.824475
G01 X306.435780 Y662.687314 Z-2.000000
G00 Z1.000000

(End cutting path id: path218)

(Start cutting path id: path332)
(Change tool to Default tool)

G00 Z1.000000
G00 X311.403487 Y650.889012

G01 Z-2.000000 F100.0(Penetrate)
G01 X312.645413 Y652.130938 Z-2.000000 F1000.000000
G02 X313.423743 Y650.773797 Z-2.000000 I-343.509757 J-197.906845
G02 X314.197822 Y649.414224 Z-2.000000 I-587.187671 J-335.217998
G01 X315.071051 Y647.886072 Z-2.000000
G02 X315.594635 Y646.505182 Z-2.000000 I-6.255036 J-3.161390
G02 X315.750230 Y645.300342 Z-2.000000 I-4.586999 J-1.204840
G02 X314.058418 Y646.139737 Z-2.000000 I2.158110 J6.474330
G02 X313.162074 Y647.068632 Z-2.000000 I1.798533 J2.632421
G01 X312.528983 Y648.443969 Z-2.000000
G01 X311.881337 Y649.824157 Z-2.000000
G01 X311.403487 Y650.889012 Z-2.000000
G01 X311.403487 Y650.889012 Z-2.000000
G00 Z1.000000

(End cutting path id: path332)

(Start cutting path id: path352)
(Change tool to Default tool)

G00 Z1.000000
G00 X310.782523 Y648.405158

G01 Z-2.000000 F100.0(Penetrate)
G01 X314.508303 Y641.574562 Z-2.000000 F1000.000000
G01 X312.645413 Y641.574562 Z-2.000000
G02 X310.810997 Y645.728344 Z-2.000000 I12.860542 J8.161498
G02 X310.782523 Y648.405158 Z-2.000000 I5.107244 J1.392885
G01 X310.782523 Y648.405158 Z-2.000000
G00 Z1.000000

(End cutting path id: path352)

(Start cutting path id: path373)
(Change tool to Default tool)

G00 Z1.000000
G00 X317.613120 Y652.130938

G01 Z-2.000000 F100.0(Penetrate)
G02 X318.821964 Y652.457397 Z-2.000000 I9.291305 J-32.003384 F1000.000000
G02 X320.096973 Y652.751901 Z-2.000000 I8.827365 J-35.309460
G02 X320.494621 Y652.036135 Z-2.000000 I-1.053768 J-1.053768
G02 X320.756747 Y649.918756 Z-2.000000 I-9.854405 J-2.294861
G01 X320.717936 Y647.784195 Z-2.000000
G02 X319.133041 Y649.932975 Z-2.000000 I78.837897 J59.808061
G02 X317.613120 Y652.130938 Z-2.000000 I63.860485 J45.784902
G01 X317.613120 Y652.130938 Z-2.000000
G00 Z1.000000

(End cutting path id: path373)

(Start cutting path id: path187)
(Change tool to Default tool)

G00 Z1.000000
G00 X305.814817 Y640.332635

G01 Z-2.000000 F100.0(Penetrate)
G01 X309.540597 Y640.332635 Z-2.000000 F1000.000000
G02 X311.285725 Y637.537707 Z-2.000000 I-34.927652 J-23.750803
G02 X312.024450 Y635.985892 Z-2.000000 I-9.977405 J-5.701375
G02 X311.448192 Y633.889728 Z-2.000000 I-19.871650 J4.335633
G02 X310.782523 Y632.260112 Z-2.000000 I-12.651726 J4.217242
G02 X307.431682 Y635.773247 Z-2.000000 I20.184522 J22.606665
G02 X305.814817 Y640.332635 Z-2.000000 I5.620064 J4.559388
G01 X305.814817 Y640.332635 Z-2.000000
G00 Z1.000000

(End cutting path id: path187)

(Start cutting path id: path345)
(Change tool to Default tool)

G00 Z1.000000
G00 X292.153624 Y645.921305

G01 Z-2.000000 F100.0(Penetrate)
G01 X293.395551 Y645.921305 Z-2.000000 F1000.000000
G01 X294.637478 Y642.195525 Z-2.000000
G01 X292.774588 Y640.953599 Z-2.000000
G02 X291.902446 Y643.371817 Z-2.000000 I5.543394 J3.365632
G02 X292.153624 Y645.921305 Z-2.000000 I5.228015 J0.772047
G01 X292.153624 Y645.921305 Z-2.000000
G00 Z1.000000

(End cutting path id: path345)

(Start cutting path id: path346)
(Change tool to Default tool)

G00 Z1.000000
G00 X286.137732 Y647.279973

G01 Z-2.000000 F100.0(Penetrate)
G01 X286.564644 Y649.026432 Z-2.000000 F1000.000000
G01 X289.048497 Y646.542579 Z-2.000000
G01 X287.806571 Y643.437762 Z-2.000000
G02 X286.476471 Y645.095735 Z-2.000000 I2.322563 J3.225782
G02 X286.137732 Y647.279973 Z-2.000000 I4.079611 J1.751066
G01 X286.137732 Y647.279973 Z-2.000000
G00 Z1.000000

(End cutting path id: path346)

(Start cutting path id: path214)
(Change tool to Default tool)

G00 Z1.000000
G00 X283.460138 Y653.993828

G01 Z-2.000000 F100.0(Penetrate)
G01 X284.702065 Y653.993828 Z-2.000000 F1000.000000
G01 X284.702065 Y652.751901 Z-2.000000
G01 X290.911698 Y652.751901 Z-2.000000
G01 X291.532661 Y649.647085 Z-2.000000
G02 X290.039019 Y649.559229 Z-2.000000 I-5.803282 J85.920831
G02 X288.544275 Y649.491844 Z-2.000000 I-7.466081 J149.002673
G01 X286.863308 Y649.404521 Z-2.000000
G02 X285.437101 Y649.870915 Z-2.000000 I0.733229 J4.656002
G02 X284.190255 Y650.782284 Z-2.000000 I2.287597 J4.438259
G02 X283.663446 Y652.182439 Z-2.000000 I4.840119 J2.620280
G02 X283.460138 Y653.993828 Z-2.000000 I7.967705 J1.811389
G01 X283.460138 Y653.993828 Z-2.000000
G00 Z1.000000

(End cutting path id: path214)

(Start cutting path id: path333)
(Change tool to Default tool)

G00 Z1.000000
G00 X285.323028 Y656.477681

G01 Z-2.000000 F100.0(Penetrate)
G01 X288.427845 Y657.098645 Z-2.000000 F1000.000000
G01 X289.669771 Y653.993828 Z-2.000000
G01 X285.943991 Y653.993828 Z-2.000000
G02 X285.471599 Y655.270827 Z-2.000000 I5.580390 J2.790195
G02 X285.323028 Y656.477681 Z-2.000000 I4.827415 J1.206854
G01 X285.323028 Y656.477681 Z-2.000000
G00 Z1.000000

(End cutting path id: path333)

(Start cutting path id: path140)
(Change tool to Default tool)

G00 Z1.000000
G00 X291.532661 Y659.582498

G01 Z-2.000000 F100.0(Penetrate)
G01 X292.774588 Y660.785614 Z-2.000000 F1000.000000
G03 X295.691825 Y663.866288 Z-2.000000 I-52.240238 J52.390353
G03 X298.506370 Y667.041335 Z-2.000000 I-376.892301 J336.934177
G02 X299.658723 Y668.296621 Z-2.000000 I41.276861 J-36.735595
G02 X300.847111 Y669.517911 Z-2.000000 I45.315858 J-42.906181
G02 X300.087800 Y664.605571 Z-2.000000 I-8.906313 J-1.138187
G02 X297.742294 Y660.281082 Z-2.000000 I-35.367552 J16.384250
G01 X296.844808 Y658.806294 Z-2.000000
G02 X295.746530 Y657.017679 Z-2.000000 I-287.571958 J175.348757
G02 X294.637478 Y655.235755 Z-2.000000 I-304.993621 J188.588941
G02 X292.816622 Y657.211091 Z-2.000000 I12.413518 J13.269622
G02 X291.532661 Y659.582498 Z-2.000000 I6.084075 J4.827419
G01 X291.532661 Y659.582498 Z-2.000000
G00 Z1.000000

(End cutting path id: path140)

(Start cutting path id: path133)
(Change tool to Default tool)

G00 Z1.000000
G00 X289.048808 Y663.308278

G01 Z-2.000000 F100.0(Penetrate)
G02 X290.210307 Y665.541343 Z-2.000000 I747.510013 J-387.388853 F1000.000000
G02 X291.377420 Y667.771451 Z-2.000000 I1087.533758 J-567.733369
G01 X292.032342 Y669.038847 Z-2.000000
G02 X294.071003 Y672.501396 Z-2.000000 I37.637032 J-19.828292
G02 X296.500367 Y675.727544 Z-2.000000 I25.595888 J-16.746545
G01 X298.984221 Y672.001764 Z-2.000000
G02 X295.089512 Y666.638043 Z-2.000000 I-32.129266 J19.233847
G02 X290.290734 Y662.066351 Z-2.000000 I-26.917671 J23.450315
G01 X289.048808 Y663.308278 Z-2.000000
G01 X289.048808 Y663.308278 Z-2.000000
G00 Z1.000000

(End cutting path id: path133)

(Start cutting path id: path164)
(Change tool to Default tool)

G00 Z1.000000
G00 X280.355322 Y663.929241

G01 Z-2.000000 F100.0(Penetrate)
G02 X281.646811 Y664.789835 Z-2.000000 I18.225110 J-25.950972 F1000.000000
G02 X283.304897 Y665.792131 Z-2.000000 I26.391716 J-41.786884
G01 X284.964034 Y666.762386 Z-2.000000
G02 X286.991692 Y667.858550 Z-2.000000 I43.046576 J-77.203097
G02 X289.048808 Y668.896947 Z-2.000000 I35.417139 J-67.606264
G02 X287.881852 Y666.068975 Z-2.000000 I-69.648796 J27.085643
G02 X286.564955 Y663.308278 Z-2.000000 I-42.144626 J18.409233
G01 X285.323028 Y663.308278 Z-2.000000
G01 X285.128977 Y661.872300 Z-2.000000
G02 X284.255075 Y659.910170 Z-2.000000 I-6.201800 J1.586507
G02 X282.839175 Y658.340571 Z-2.000000 I-6.030699 J4.016736
G02 X280.635525 Y662.608862 Z-2.000000 I35.421910 J20.990761
G02 X280.355322 Y663.929241 Z-2.000000 I2.970853 J1.320379
G01 X280.355322 Y663.929241 Z-2.000000
G00 Z1.000000

(End cutting path id: path164)

(Start cutting path id: path316)
(Change tool to Default tool)

G00 Z1.000000
G00 X275.387615 Y659.582498

G01 Z-2.000000 F100.0(Penetrate)
G01 X279.113395 Y659.582498 Z-2.000000 F1000.000000
G01 X280.355322 Y657.098645 Z-2.000000
G02 X278.905550 Y656.738963 Z-2.000000 I-4.649664 J15.639777
G02 X277.250505 Y656.477681 Z-2.000000 I-4.026296 J20.131482
G02 X275.937697 Y657.819500 Z-2.000000 I3.261819 J4.504416
G02 X275.387615 Y659.582498 Z-2.000000 I2.550136 J1.762997
G01 X275.387615 Y659.582498 Z-2.000000
G00 Z1.000000

(End cutting path id: path316)

(Start cutting path id: path217)
(Change tool to Default tool)

G00 Z1.000000
G00 X266.694129 Y659.582498

G01 Z-2.000000 F100.0(Penetrate)
G02 X268.402619 Y659.679260 Z-2.000000 I1.708490 J-15.034714 F1000.000000
G02 X270.419909 Y659.582498 Z-2.000000 I-0.000000 J-21.076573
G02 X271.804117 Y658.035970 Z-2.000000 I-13.269474 J-13.269474
G02 X272.903762 Y656.477681 Z-2.000000 I-12.373537 J-9.898830
G01 X272.903762 Y655.235755 Z-2.000000
G01 X269.177982 Y654.614791 Z-2.000000
G02 X267.001220 Y658.281639 Z-2.000000 I24.304502 J16.907480
G02 X266.694129 Y659.582498 Z-2.000000 I2.601718 J1.300859
G01 X266.694129 Y659.582498 Z-2.000000
G00 Z1.000000

(End cutting path id: path217)

(Start cutting path id: path84)
(Change tool to Default tool)

G00 Z1.000000
G00 X262.347386 Y661.445388

G01 Z-2.000000 F100.0(Penetrate)
G02 X265.816023 Y668.418393 Z-2.000000 I250.684421 J-120.350708 F1000.000000
G02 X269.798945 Y675.106580 Z-2.000000 I56.284049 J-28.988012
G01 X271.040872 Y675.106580 Z-2.000000
G02 X271.720115 Y674.136170 Z-2.000000 I-14.751357 J-11.048208
G02 X272.520511 Y672.841034 Z-2.000000 I-25.492946 J-16.649563
G01 X273.357356 Y671.414759 Z-2.000000
G01 X274.223309 Y669.906013 Z-2.000000
G01 X275.103816 Y668.411820 Z-2.000000
G02 X276.980517 Y664.646486 Z-2.000000 I-28.338000 J-16.474463
G02 X277.250505 Y663.308278 Z-2.000000 I-3.181459 J-1.338209
G02 X269.891878 Y661.563932 Z-2.000000 I-8.892350 J21.119331
G02 X262.347386 Y661.445388 Z-2.000000 I-4.927320 J73.453069
G01 X262.347386 Y661.445388 Z-2.000000
G00 Z1.000000

(End cutting path id: path84)

(Start cutting path id: path159)
(Change tool to Default tool)

G00 Z1.000000
G00 X258.621606 Y654.614791

G01 Z-2.000000 F100.0(Penetrate)
G02 X259.986764 Y657.654785 Z-2.000000 I37.225721 J-14.890288 F1000.000000
G02 X261.105459 Y659.582498 Z-2.000000 I16.041061 J-8.020531
G02 X263.356340 Y659.640671 Z-2.000000 I2.250881 J-43.517027
G02 X265.452202 Y659.582498 Z-2.000000 I-0.000000 J-37.783697
G01 X267.936056 Y654.614791 Z-2.000000
G01 X258.621606 Y654.614791 Z-2.000000
G01 X258.621606 Y654.614791 Z-2.000000
G00 Z1.000000

(End cutting path id: path159)

(Start cutting path id: path93)
(Change tool to Default tool)

G00 Z1.000000
G00 X261.726422 Y650.889012

G01 Z-2.000000 F100.0(Penetrate)
G01 X261.726422 Y651.509975 Z-2.000000 F1000.000000
G01 X274.766652 Y652.130938 Z-2.000000
G01 X275.387615 Y649.647085 Z-2.000000
G01 X274.494980 Y648.793260 Z-2.000000
G01 X273.524725 Y647.784195 Z-2.000000
G01 X273.599920 Y646.125059 Z-2.000000
G02 X272.865529 Y642.836851 Z-2.000000 I-9.232735 J0.335934
G02 X271.351354 Y639.789293 Z-2.000000 I-26.989344 J11.509678
G01 X270.723113 Y638.673499 Z-2.000000
G02 X269.954872 Y637.327218 Z-2.000000 I-145.736799 J82.270777
G02 X269.177982 Y635.985892 Z-2.000000 I-372.931029 J215.104543
G01 X267.315092 Y643.437452 Z-2.000000
G01 X266.073166 Y643.437452 Z-2.000000
G02 X265.450336 Y644.794955 Z-2.000000 I391.168142 J180.291554
G02 X264.831239 Y646.154166 Z-2.000000 I669.763685 J305.886400
G01 X264.132655 Y647.682318 Z-2.000000
G02 X263.715829 Y649.050731 Z-2.000000 I7.497401 J3.031440
G02 X263.589312 Y650.268048 Z-2.000000 I5.793125 J1.217317
G01 X261.726422 Y650.889012 Z-2.000000
G01 X261.726422 Y650.889012 Z-2.000000
G00 Z1.000000

(End cutting path id: path93)

(Start cutting path id: path340)
(Change tool to Default tool)

G00 Z1.000000
G00 X259.863533 Y649.026122

G01 Z-2.000000 F100.0(Penetrate)
G01 X263.589312 Y647.784195 Z-2.000000 F1000.000000
G01 X263.589312 Y644.679379 Z-2.000000
G02 X262.440449 Y644.898857 Z-2.000000 I1.375695 J10.317713
G02 X261.105459 Y645.300342 Z-2.000000 I3.586248 J14.344991
G02 X260.213459 Y647.080744 Z-2.000000 I7.725604 J4.984261
G02 X259.863533 Y649.026122 Z-2.000000 I5.232595 J1.945377
G01 X259.863533 Y649.026122 Z-2.000000
G00 Z1.000000

(End cutting path id: path340)

(Start cutting path id: path198)
(Change tool to Default tool)

G00 Z1.000000
G00 X253.653900 Y645.921305

G01 Z-2.000000 F100.0(Penetrate)
G02 X254.266159 Y647.539244 Z-2.000000 I43.466341 J-15.523693 F1000.000000
G02 X254.895826 Y649.026122 Z-2.000000 I37.336484 J-14.934594
G01 X258.621606 Y649.026122 Z-2.000000
G01 X259.863533 Y645.300342 Z-2.000000
G02 X257.091874 Y644.322977 Z-2.000000 I-6.152423 J13.028661
G02 X255.361549 Y644.213656 Z-2.000000 I-1.176579 J4.874398
G02 X254.430251 Y644.844175 Z-2.000000 I1.171363 J2.733180
G02 X253.653900 Y645.921305 Z-2.000000 I2.930611 J2.930611
G01 X253.653900 Y645.921305 Z-2.000000
G00 Z1.000000

(End cutting path id: path198)

(Start cutting path id: path190)
(Change tool to Default tool)

G00 Z1.000000
G00 X256.137753 Y641.574562

G01 Z-2.000000 F100.0(Penetrate)
G01 X256.758716 Y643.437452 Z-2.000000 F1000.000000
G01 X262.968349 Y644.058415 Z-2.000000
G02 X261.835702 Y641.018403 Z-2.000000 I-20.683341 J5.975187
G02 X259.863533 Y638.469746 Z-2.000000 I-6.515657 J3.004495
G02 X257.821963 Y639.715310 Z-2.000000 I3.433822 J7.924206
G02 X256.137753 Y641.574562 Z-2.000000 I5.391643 J6.576487
G01 X256.137753 Y641.574562 Z-2.000000
G00 Z1.000000

(End cutting path id: path190)

(Start cutting path id: path347)
(Change tool to Default tool)

G00 Z1.000000
G00 X250.549083 Y638.469746

G01 Z-2.000000 F100.0(Penetrate)
G01 X251.170046 Y640.953599 Z-2.000000 F1000.000000
G01 X253.653900 Y641.574562 Z-2.000000
G01 X254.895826 Y639.711672 Z-2.000000
G02 X252.931893 Y638.803470 Z-2.000000 I-3.890985 J5.836477
G02 X250.549083 Y638.469746 Z-2.000000 I-2.382810 J8.339834
G01 X250.549083 Y638.469746 Z-2.000000
G00 Z1.000000

(End cutting path id: path347)

(Start cutting path id: path250)
(Change tool to Default tool)

G00 Z1.000000
G00 X248.065230 Y643.437452

G01 Z-2.000000 F100.0(Penetrate)
G01 X253.032936 Y645.921305 Z-2.000000 F1000.000000
G01 X254.274863 Y643.437452 Z-2.000000
G01 X248.686193 Y640.332635 Z-2.000000
G02 X248.245479 Y641.617113 Z-2.000000 I4.575402 J2.287701
G02 X248.065230 Y643.437452 Z-2.000000 I9.101694 J1.820339
G01 X248.065230 Y643.437452 Z-2.000000
G00 Z1.000000

(End cutting path id: path250)

(Start cutting path id: path199)
(Change tool to Default tool)

G00 Z1.000000
G00 X244.339450 Y632.881076

G01 Z-2.000000 F100.0(Penetrate)
G02 X246.582975 Y636.870261 Z-2.000000 I27.424345 J-12.798028 F1000.000000
G02 X248.065230 Y638.469746 Z-2.000000 I5.716598 J-3.811065
G01 X249.307156 Y638.469746 Z-2.000000
G02 X250.286490 Y636.992462 Z-2.000000 I-15.916809 J-11.614969
G02 X251.170046 Y635.364929 Z-2.000000 I-18.445545 J-11.067327
G01 X250.549083 Y633.502039 Z-2.000000
G02 X247.515514 Y632.820785 Z-2.000000 I-2.892370 J5.784739
G03 X244.339450 Y632.881076 Z-2.000000 I-12.154146 J-556.580750
G01 X244.339450 Y632.881076 Z-2.000000
G00 Z1.000000

(End cutting path id: path199)

(Start cutting path id: path141)
(Change tool to Default tool)

G00 Z1.000000
G00 X240.613670 Y634.743966

G01 Z-2.000000 F100.0(Penetrate)
G02 X241.254106 Y638.682851 Z-2.000000 I23.596397 J-1.815107 F1000.000000
G02 X243.097523 Y642.195525 Z-2.000000 I8.171257 J-2.048154
G02 X245.076215 Y642.292288 Z-2.000000 I1.978692 J-20.182654
G02 X246.823303 Y642.195525 Z-2.000000 I-0.000000 J-15.820557
G01 X248.065230 Y639.090709 Z-2.000000
G01 X247.272046 Y638.183520 Z-2.000000
G01 X246.241150 Y636.994958 Z-2.000000
G01 X245.215105 Y635.816098 Z-2.000000
G03 X244.382364 Y634.715368 Z-2.000000 I7.049621 J-6.198652
G03 X243.718487 Y633.502039 Z-2.000000 I7.914782 J-5.118889
G02 X241.408441 Y634.219897 Z-2.000000 I3.366726 J14.909787
G02 X240.613670 Y634.743966 Z-2.000000 I0.879226 J2.198066
G01 X240.613670 Y634.743966 Z-2.000000
G00 Z1.000000

(End cutting path id: path141)

(Start cutting path id: path310)
(Change tool to Default tool)

G00 Z1.000000
G00 X243.718487 Y628.534333

G01 Z-2.000000 F100.0(Penetrate)
G01 X244.339450 Y630.397223 Z-2.000000 F1000.000000
G02 X245.786625 Y629.899686 Z-2.000000 I-4.311449 J-14.894096
G02 X247.444266 Y629.155296 Z-2.000000 I-8.119347 J-20.298367
G02 X248.188657 Y627.497655 Z-2.000000 I-19.553977 J-9.776988
G02 X248.686193 Y626.050479 Z-2.000000 I-14.396559 J-5.758624
G02 X245.960645 Y626.827379 Z-2.000000 I1.328289 J9.829336
G02 X243.718487 Y628.534333 Z-2.000000 I2.529676 J5.648904
G01 X243.718487 Y628.534333 Z-2.000000
G00 Z1.000000

(End cutting path id: path310)

(Start cutting path id: path188)
(Change tool to Default tool)

G00 Z1.000000
G00 X248.065230 Y629.155296

G01 Z-2.000000 F100.0(Penetrate)
G02 X250.476585 Y630.363282 Z-2.000000 I6.067861 J-9.101791 F1000.000000
G02 X253.032936 Y631.018186 Z-2.000000 I4.905467 J-13.831314
G02 X254.273472 Y629.549933 Z-2.000000 I-26.778006 J-23.883087
G02 X255.516789 Y627.913369 Z-2.000000 I-32.033844 J-25.627075
G01 X254.895826 Y626.050479 Z-2.000000
G01 X250.549083 Y625.429516 Z-2.000000
G01 X248.065230 Y629.155296 Z-2.000000
G01 X248.065230 Y629.155296 Z-2.000000
G00 Z1.000000

(End cutting path id: path188)

(Start cutting path id: path138)
(Change tool to Default tool)

G00 Z1.000000
G00 X260.678236 Y635.558670

G01 Z-2.000000 F100.0(Penetrate)
G01 X261.105149 Y636.606545 Z-2.000000 F1000.000000
G01 X262.347075 Y636.606545 Z-2.000000
G01 X262.851608 Y637.615610 Z-2.000000
G01 X265.451892 Y642.816178 Z-2.000000
G02 X267.106506 Y641.405257 Z-2.000000 I-5.119941 J-7.679912
G02 X267.858125 Y640.215894 Z-2.000000 I-2.836100 J-2.624451
G02 X266.983902 Y636.011359 Z-2.000000 I-8.690298 J-0.386235
G02 X264.792118 Y632.298612 Z-2.000000 I-24.585401 J12.010431
G01 X263.589002 Y631.017875 Z-2.000000
G01 X262.347075 Y631.017875 Z-2.000000
G02 X260.879561 Y633.717927 Z-2.000000 I8.469478 J6.352109
G02 X260.678236 Y635.558670 Z-2.000000 I3.607904 J1.325982
G01 X260.678236 Y635.558670 Z-2.000000
G00 Z1.000000

(End cutting path id: path138)

(Start cutting path id: path193)
(Change tool to Default tool)

G00 Z1.000000
G00 X264.831239 Y626.050479

G01 Z-2.000000 F100.0(Penetrate)
G02 X265.592057 Y628.575352 Z-2.000000 I15.260073 J-3.221241 F1000.000000
G02 X266.735365 Y630.950268 Z-2.000000 I17.186354 J-6.811022
G01 X267.493377 Y632.284369 Z-2.000000
G01 X268.285347 Y633.657280 Z-2.000000
G01 X269.084595 Y635.059299 Z-2.000000
G02 X270.061107 Y636.765455 Z-2.000000 I617.783038 J-352.453145
G02 X271.040872 Y638.469746 Z-2.000000 I1620.953796 J-930.722794
G01 X271.661835 Y638.469746 Z-2.000000
G02 X270.997684 Y633.884135 Z-2.000000 I-9.109154 J-1.021588
G02 X268.867500 Y629.853880 Z-2.000000 I-24.202638 J10.214177
G01 X268.059763 Y628.558589 Z-2.000000
G02 X267.070997 Y626.991183 Z-2.000000 I-187.943176 J117.464481
G02 X266.073166 Y625.429516 Z-2.000000 I-485.764482 J309.281085
G01 X264.831239 Y626.050479 Z-2.000000
G01 X264.831239 Y626.050479 Z-2.000000
G00 Z1.000000

(End cutting path id: path193)

(Start cutting path id: path122)
(Change tool to Default tool)

G00 Z1.000000
G00 X268.557019 Y627.292406

G01 Z-2.000000 F100.0(Penetrate)
G02 X270.250332 Y631.105357 Z-2.000000 I28.368163 J-10.315696 F1000.000000
G02 X272.282799 Y634.743966 Z-2.000000 I82.531695 J-43.713877
G01 X273.679966 Y633.851331 Z-2.000000
G03 X275.329641 Y632.996639 Z-2.000000 I5.398947 J8.401323
G03 X276.745972 Y632.609404 Z-2.000000 I2.341654 J5.780957
G02 X277.782182 Y632.118690 Z-2.000000 I-1.206035 J-3.886114
G02 X278.802913 Y631.251047 Z-2.000000 I-3.061281 J-4.635655
G02 X278.725419 Y629.272393 Z-2.000000 I-3.968278 J-0.835427
G02 X277.949089 Y627.447647 Z-2.000000 I-8.186811 J2.405527
G01 X276.629542 Y625.429516 Z-2.000000
G01 X274.145689 Y625.429516 Z-2.000000
G01 X274.145689 Y626.671443 Z-2.000000
G01 X268.557019 Y627.292406 Z-2.000000
G01 X268.557019 Y627.292406 Z-2.000000
G00 Z1.000000

(End cutting path id: path122)

(Start cutting path id: path155)
(Change tool to Default tool)

G00 Z1.000000
G00 X272.903762 Y635.364929

G01 Z-2.000000 F100.0(Penetrate)
G01 X275.387615 Y640.332635 Z-2.000000 F1000.000000
G01 X277.871468 Y640.332635 Z-2.000000
G02 X278.649798 Y638.975494 Z-2.000000 I-343.510918 J-197.907511
G02 X279.423877 Y637.615921 Z-2.000000 I-587.183558 J-335.215654
G01 X280.297106 Y636.087769 Z-2.000000
G02 X280.820690 Y634.706879 Z-2.000000 I-6.255036 J-3.161390
G02 X280.976285 Y633.502039 Z-2.000000 I-4.586999 J-1.204840
G02 X276.002286 Y633.679638 Z-2.000000 I-1.538190 J26.661961
G02 X273.796397 Y634.433484 Z-2.000000 I0.753707 J5.809821
G01 X272.903762 Y635.364929 Z-2.000000
G01 X272.903762 Y635.364929 Z-2.000000
G00 Z1.000000

(End cutting path id: path155)

(Start cutting path id: path384)
(Change tool to Default tool)

G00 Z1.000000
G00 X279.113395 Y640.332635

G01 Z-2.000000 F100.0(Penetrate)
G01 X280.355322 Y640.332635 Z-2.000000 F1000.000000
G02 X282.558971 Y636.064345 Z-2.000000 I-35.421910 J-20.990761
G02 X282.839175 Y634.743966 Z-2.000000 I-2.970853 J-1.320379
G01 X281.597248 Y634.743966 Z-2.000000
G02 X279.393599 Y639.012256 Z-2.000000 I35.421910 J20.990761
G02 X279.113395 Y640.332635 Z-2.000000 I2.970853 J1.320379
G01 X279.113395 Y640.332635 Z-2.000000
G00 Z1.000000

(End cutting path id: path384)

(Start cutting path id: path339)
(Change tool to Default tool)

G00 Z1.000000
G00 X286.564955 Y635.985892

G01 Z-2.000000 F100.0(Penetrate)
G01 X287.185918 Y637.848782 Z-2.000000 F1000.000000
G01 X288.427845 Y637.848782 Z-2.000000
G01 X290.911698 Y632.881076 Z-2.000000
G01 X289.048808 Y632.260112 Z-2.000000
G02 X287.808354 Y634.033512 Z-2.000000 I39.005529 J28.604054
G02 X286.564955 Y635.985892 Z-2.000000 I46.038928 J30.692619
G01 X286.564955 Y635.985892 Z-2.000000
G00 Z1.000000

(End cutting path id: path339)

(Start cutting path id: path223)
(Change tool to Default tool)

G00 Z1.000000
G00 X284.702065 Y632.260112

G01 Z-2.000000 F100.0(Penetrate)
G01 X285.943991 Y629.155296 Z-2.000000 F1000.000000
G01 X288.427845 Y629.776259 Z-2.000000
G01 X290.911698 Y624.808553 Z-2.000000
G01 X287.185918 Y624.808553 Z-2.000000
G02 X286.385236 Y626.144484 Z-2.000000 I139.122679 J84.290247
G02 X285.594699 Y627.486457 Z-2.000000 I239.717791 J142.117980
G01 X284.699639 Y628.992778 Z-2.000000
G02 X284.401477 Y630.412147 Z-2.000000 I3.216878 J1.416760
G02 X284.702065 Y632.260112 Z-2.000000 I5.857528 J-0.004349
G01 X284.702065 Y632.260112 Z-2.000000
G00 Z1.000000

(End cutting path id: path223)

(Start cutting path id: path263)
(Change tool to Default tool)

G00 Z1.000000
G00 X290.911698 Y631.639149

G01 Z-2.000000 F100.0(Penetrate)
G01 X292.153624 Y631.639149 Z-2.000000 F1000.000000
G01 X295.879404 Y624.808553 Z-2.000000
G02 X292.916473 Y625.681529 Z-2.000000 I3.402779 J17.013896
G02 X291.906209 Y626.375515 Z-2.000000 I1.002288 J2.541404
G02 X290.774822 Y629.614614 Z-2.000000 I10.200903 J5.380223
G02 X290.911698 Y631.639149 Z-2.000000 I3.963749 J0.748911
G01 X290.911698 Y631.639149 Z-2.000000
G00 Z1.000000

(End cutting path id: path263)

(Start cutting path id: path82)
(Change tool to Default tool)

G00 Z1.000000
G00 X290.290734 Y637.848782

G01 Z-2.000000 F100.0(Penetrate)
G02 X291.062610 Y638.932781 Z-2.000000 I3.851743 J-1.925871 F1000.000000
G02 X291.959573 Y639.556431 Z-2.000000 I2.075714 J-2.028539
G02 X294.597933 Y639.359994 Z-2.000000 I0.785510 J-7.265963
G02 X297.121331 Y638.469746 Z-2.000000 I-4.099287 J-15.640772
G02 X300.509001 Y634.758771 Z-2.000000 I-15.413339 J-17.472262
G02 X303.253343 Y630.591274 Z-2.000000 I-40.681116 J-29.776302
G01 X304.034398 Y629.319027 Z-2.000000
G02 X304.950547 Y627.699138 Z-2.000000 I-33.988682 J-20.291744
G02 X305.814817 Y626.050479 Z-2.000000 I-98.120252 J-52.488070
G01 X305.193854 Y624.808553 Z-2.000000
G01 X297.742294 Y624.808553 Z-2.000000
G02 X295.855839 Y628.027393 Z-2.000000 I1072.469463 J630.700886
G02 X293.977704 Y631.251047 Z-2.000000 I1495.532658 J873.472038
G01 X292.884954 Y633.104234 Z-2.000000
G01 X291.860122 Y634.874950 Z-2.000000
G01 X290.904269 Y636.510740 Z-2.000000
G01 X290.290734 Y637.848782 Z-2.000000
G01 X290.290734 Y637.848782 Z-2.000000
G00 Z1.000000

(End cutting path id: path82)

(Start cutting path id: path326)
(Change tool to Default tool)

G00 Z1.000000
G00 X289.669771 Y621.703736

G01 Z-2.000000 F100.0(Penetrate)
G02 X291.106653 Y621.800384 Z-2.000000 I1.436882 J-10.632924 F1000.000000
G02 X292.774588 Y621.703736 Z-2.000000 I0.000000 J-14.440887
G02 X293.828375 Y620.108793 Z-2.000000 I-17.817725 J-12.917851
G02 X294.637478 Y618.598920 Z-2.000000 I-15.153575 J-9.092145
G02 X292.852057 Y618.540761 Z-2.000000 I-1.785421 J27.376454
G02 X290.911698 Y618.598920 Z-2.000000 I0.000000 J32.397474
G02 X289.895767 Y620.530236 Z-2.000000 I8.766331 J5.844221
G02 X289.669771 Y621.703736 Z-2.000000 I2.933752 J1.173501
G01 X289.669771 Y621.703736 Z-2.000000
G00 Z1.000000

(End cutting path id: path326)

(Start cutting path id: path383)
(Change tool to Default tool)

G00 Z1.000000
G00 X292.153624 Y611.768323

G01 Z-2.000000 F100.0(Penetrate)
G01 X294.016514 Y611.768323 Z-2.000000 F1000.000000
G01 X293.977704 Y610.293536 Z-2.000000
G03 X294.117448 Y608.728740 Z-2.000000 I5.755830 J-0.274613
G03 X294.637478 Y607.421580 Z-2.000000 I4.503353 J1.034554
G01 X292.774588 Y607.421580 Z-2.000000
G02 X291.969503 Y609.726391 Z-2.000000 I5.458045 J3.199544
G02 X292.153624 Y611.768323 Z-2.000000 I4.416942 J0.630992
G01 X292.153624 Y611.768323 Z-2.000000
G00 Z1.000000

(End cutting path id: path383)

(Start cutting path id: path60)
(Change tool to Default tool)

G00 Z1.000000
G00 X285.323028 Y605.558690

G01 Z-2.000000 F100.0(Penetrate)
G02 X286.022607 Y606.021654 Z-2.000000 I1.487108 J-1.487108 F1000.000000
G02 X287.341159 Y606.373705 Z-2.000000 I2.084254 J-5.161011
G02 X289.920198 Y605.396030 Z-2.000000 I-0.631363 J-5.555992
G02 X292.153624 Y603.695801 Z-2.000000 I-20.598543 J-29.375344
G03 X295.677406 Y603.322194 Z-2.000000 I2.673739 J8.413558
G03 X299.178272 Y603.967472 Z-2.000000 I-1.999075 J20.665062
G01 X301.189125 Y604.508389 Z-2.000000
G01 X302.710001 Y604.937727 Z-2.000000
G02 X304.133082 Y602.690747 Z-2.000000 I-332.883414 J-212.399429
G02 X305.543146 Y600.435743 Z-2.000000 I-472.706279 J-297.153610
G01 X306.366650 Y599.152581 Z-2.000000
G01 X307.136790 Y597.903377 Z-2.000000
G01 X307.856143 Y596.760296 Z-2.000000
G02 X308.090321 Y594.939673 Z-2.000000 I-3.551274 J-1.382155
G02 X307.677707 Y593.139424 Z-2.000000 I-8.356875 J0.967974
G01 X306.428503 Y592.955076 Z-2.000000
G03 X303.016627 Y592.082073 Z-2.000000 I2.667887 J-17.530311
G03 X299.915666 Y590.577951 Z-2.000000 I5.822571 J-15.952655
G02 X297.635891 Y589.557107 Z-2.000000 I-3.396014 J4.528019
G02 X295.161415 Y589.340876 Z-2.000000 I-2.204154 J10.956930
G01 X293.457404 Y589.372712 Z-2.000000
G01 X292.153624 Y589.413646 Z-2.000000
G02 X290.262387 Y592.571352 Z-2.000000 I381.968557 J230.916704
G02 X288.389034 Y595.739710 Z-2.000000 I1033.033411 J612.939040
G01 X287.296284 Y597.545597 Z-2.000000
G01 X286.271452 Y599.298121 Z-2.000000
G01 X285.315599 Y600.904348 Z-2.000000
G02 X284.915308 Y603.231906 Z-2.000000 I5.349801 J2.118253
G02 X285.323028 Y605.558690 Z-2.000000 I8.637375 J-0.314402
G01 X285.323028 Y605.558690 Z-2.000000
G00 Z1.000000

(End cutting path id: path60)

(Start cutting path id: path205)
(Change tool to Default tool)

G00 Z1.000000
G00 X280.976285 Y601.832911

G01 Z-2.000000 F100.0(Penetrate)
G02 X283.056313 Y600.524862 Z-2.000000 I-1.636965 J-4.910896 F1000.000000
G02 X284.515291 Y598.570428 Z-2.000000 I-6.830391 J-6.620635
G01 X285.430969 Y596.963442 Z-2.000000
G01 X286.370904 Y595.273986 Z-2.000000
G01 X287.332669 Y593.577252 Z-2.000000
G02 X288.504950 Y591.497537 Z-2.000000 I-556.174821 J-314.871461
G02 X289.669771 Y589.413645 Z-2.000000 I-607.466245 J-340.919365
G01 X287.806881 Y588.792681 Z-2.000000
G02 X286.096577 Y591.701888 Z-2.000000 I1097.048540 J646.905311
G02 X284.391583 Y594.614212 Z-2.000000 I2912.661987 J1707.146416
G01 X283.404348 Y596.287902 Z-2.000000
G01 X282.470478 Y597.888823 Z-2.000000
G01 X281.603312 Y599.366946 Z-2.000000
G02 X281.127152 Y600.627377 Z-2.000000 I5.354903 J2.743111
G02 X280.976285 Y601.832911 Z-2.000000 I4.741105 J1.205534
G01 X280.976285 Y601.832911 Z-2.000000
G00 Z1.000000

(End cutting path id: path205)

(Start cutting path id: path137)
(Change tool to Default tool)

G00 Z1.000000
G00 X280.976285 Y601.832911

G01 Z-2.000000 F100.0(Penetrate)
G01 X283.460138 Y601.211947 Z-2.000000 F1000.000000
G01 X284.081101 Y602.453874 Z-2.000000
G02 X285.661935 Y599.917389 Z-2.000000 I-243.823919 J-153.721188
G02 X287.224728 Y597.369737 Z-2.000000 I-664.612279 J-409.442804
G01 X288.137981 Y595.922844 Z-2.000000
G02 X289.873702 Y592.212571 Z-2.000000 I-16.464333 J-9.963396
G02 X290.171878 Y590.003075 Z-2.000000 I-5.391817 J-1.852505
G01 X289.669771 Y588.792681 Z-2.000000
G02 X287.836857 Y589.318884 Z-2.000000 I0.907380 J6.616052
G02 X286.333913 Y590.490476 Z-2.000000 I1.649580 J3.665917
G01 X285.584997 Y591.875667 Z-2.000000
G01 X284.760280 Y593.380775 Z-2.000000
G01 X283.925861 Y594.963504 Z-2.000000
G01 X283.062333 Y596.538956 Z-2.000000
G02 X281.236389 Y600.463334 Z-2.000000 I31.680674 J17.127444
G02 X280.976285 Y601.832911 Z-2.000000 I3.475699 J1.369577
G01 X280.976285 Y601.832911 Z-2.000000
G00 Z1.000000

(End cutting path id: path137)

(Start cutting path id: path149)
(Change tool to Default tool)

G00 Z1.000000
G00 X274.766652 Y603.695801

G01 Z-2.000000 F100.0(Penetrate)
G01 X276.629542 Y603.695801 Z-2.000000 F1000.000000
G01 X276.629542 Y602.453874 Z-2.000000
G01 X277.871468 Y602.453874 Z-2.000000
G02 X279.758679 Y599.235500 Z-2.000000 I-726.250826 J-428.026025
G02 X281.636058 Y596.011380 Z-2.000000 I-1919.973032 J-1120.143742
G01 X282.728809 Y594.158192 Z-2.000000
G01 X283.753640 Y592.387477 Z-2.000000
G01 X284.709493 Y590.751687 Z-2.000000
G01 X285.323028 Y589.413645 Z-2.000000
G01 X284.702065 Y588.171718 Z-2.000000
G02 X282.167875 Y589.874026 Z-2.000000 I2.533330 J6.508765
G02 X280.345619 Y592.343815 Z-2.000000 I9.052979 J8.586597
G01 X279.351107 Y594.097551 Z-2.000000
G01 X278.337191 Y595.933759 Z-2.000000
G01 X277.294167 Y597.769967 Z-2.000000
G02 X275.043057 Y602.343233 Z-2.000000 I40.980909 J23.012793
G02 X274.766652 Y603.695801 Z-2.000000 I3.171134 J1.352567
G01 X274.766652 Y603.695801 Z-2.000000
G00 Z1.000000

(End cutting path id: path149)

(Start cutting path id: path151)
(Change tool to Default tool)

G00 Z1.000000
G00 X271.661835 Y601.211947

G01 Z-2.000000 F100.0(Penetrate)
G01 X274.145689 Y602.453874 Z-2.000000 F1000.000000
G02 X276.165154 Y599.058774 Z-2.000000 I-2979.487998 J-1774.550478
G02 X278.181950 Y595.662088 Z-2.000000 I-7836.456279 J-4655.224646
G01 X279.348682 Y593.703385 Z-2.000000
G01 X280.452347 Y591.841708 Z-2.000000
G01 X281.477179 Y590.117231 Z-2.000000
G02 X282.109185 Y588.764256 Z-2.000000 I-8.924967 J-4.993158
G02 X282.218211 Y588.171718 Z-2.000000 I-1.555656 J-0.592538
G01 X279.113395 Y588.171718 Z-2.000000
G01 X278.563079 Y589.168200 Z-2.000000
G03 X277.325113 Y591.406341 Z-2.000000 I-3224.437174 J-1782.062063
G03 X276.086199 Y593.643957 Z-2.000000 I-14623.136423 J-8094.706490
G01 X275.220246 Y595.212132 Z-2.000000
G01 X274.383401 Y596.722092 Z-2.000000
G01 X273.614777 Y598.111527 Z-2.000000
G03 X272.664205 Y599.677785 Z-2.000000 I-33.111610 J-19.024066
G03 X271.661835 Y601.211947 Z-2.000000 I-83.295425 J-53.327877
G01 X271.661835 Y601.211947 Z-2.000000
G00 Z1.000000

(End cutting path id: path151)

(Start cutting path id: path283)
(Change tool to Default tool)

G00 Z1.000000
G00 X280.355322 Y586.308828

G01 Z-2.000000 F100.0(Penetrate)
G01 X282.839175 Y586.929791 Z-2.000000 F1000.000000
G02 X285.015937 Y583.262944 Z-2.000000 I-24.304502 J-16.907480
G02 X285.323028 Y581.962085 Z-2.000000 I-2.601718 J-1.300859
G01 X282.839175 Y581.962085 Z-2.000000
G01 X280.355322 Y586.308828 Z-2.000000
G01 X280.355322 Y586.308828 Z-2.000000
G00 Z1.000000

(End cutting path id: path283)

(Start cutting path id: path281)
(Change tool to Default tool)

G00 Z1.000000
G00 X284.081101 Y586.308828

G01 Z-2.000000 F100.0(Penetrate)
G01 X284.702065 Y587.550755 Z-2.000000 F1000.000000
G01 X286.564955 Y587.550755 Z-2.000000
G02 X288.768604 Y583.282464 Z-2.000000 I-35.421910 J-20.990761
G02 X289.048808 Y581.962085 Z-2.000000 I-2.970853 J-1.320379
G01 X286.564955 Y581.962085 Z-2.000000
G02 X284.613752 Y585.263069 Z-2.000000 I111.282116 J68.005738
G02 X284.081101 Y586.308828 Z-2.000000 I10.606829 J6.061045
G01 X284.081101 Y586.308828 Z-2.000000
G00 Z1.000000

(End cutting path id: path281)

(Start cutting path id: path353)
(Change tool to Default tool)

G00 Z1.000000
G00 X289.048808 Y587.550755

G01 Z-2.000000 F100.0(Penetrate)
G01 X290.911698 Y587.550755 Z-2.000000 F1000.000000
G01 X293.395551 Y582.583048 Z-2.000000
G02 X291.126750 Y583.520690 Z-2.000000 I2.033594 J8.134374
G02 X289.825012 Y584.717610 Z-2.000000 I2.232455 J3.734289
G02 X289.210825 Y586.346238 Z-2.000000 I8.403308 J4.099175
G02 X289.048808 Y587.550755 Z-2.000000 I4.396487 J1.204517
G01 X289.048808 Y587.550755 Z-2.000000
G00 Z1.000000

(End cutting path id: path353)

(Start cutting path id: path219)
(Change tool to Default tool)

G00 Z1.000000
G00 X293.395551 Y588.171718

G01 Z-2.000000 F100.0(Penetrate)
G01 X298.363257 Y588.171718 Z-2.000000 F1000.000000
G01 X298.984221 Y582.583048 Z-2.000000
G02 X297.608082 Y582.738636 Z-2.000000 I0.226977 J8.171168
G02 X295.879404 Y583.204011 Z-2.000000 I2.678788 J13.393941
G02 X293.775327 Y586.562959 Z-2.000000 I16.395173 J12.608573
G02 X293.395551 Y588.171718 Z-2.000000 I3.217517 J1.608759
G01 X293.395551 Y588.171718 Z-2.000000
G00 Z1.000000

(End cutting path id: path219)

(Start cutting path id: path325)
(Change tool to Default tool)

G00 Z1.000000
G00 X292.774588 Y581.341122

G01 Z-2.000000 F100.0(Penetrate)
G02 X294.698627 Y580.250345 Z-2.000000 I-1.814046 J-5.442137 F1000.000000
G02 X296.034645 Y578.624407 Z-2.000000 I-3.977753 J-4.630349
G01 X296.704121 Y577.484357 Z-2.000000
G02 X296.867520 Y576.368656 Z-2.000000 I-2.487283 J-0.934089
G02 X296.500367 Y574.510525 Z-2.000000 I-7.478782 J0.512412
G02 X293.325433 Y579.180894 Z-2.000000 I22.239054 J18.532545
G02 X292.774588 Y581.341122 Z-2.000000 I3.960416 J2.160227
G01 X292.774588 Y581.341122 Z-2.000000
G00 Z1.000000

(End cutting path id: path325)

(Start cutting path id: path197)
(Change tool to Default tool)

G00 Z1.000000
G00 X287.806881 Y580.099195

G01 Z-2.000000 F100.0(Penetrate)
G01 X290.290734 Y580.720158 Z-2.000000 F1000.000000
G02 X291.404149 Y578.958893 Z-2.000000 I-166.879258 J-106.728197
G02 X292.502916 Y577.188429 Z-2.000000 I-290.530511 J-181.532301
G01 X293.747268 Y575.201832 Z-2.000000
G02 X294.366863 Y572.684032 Z-2.000000 I-6.227568 J-2.867651
G02 X294.016514 Y570.163782 Z-2.000000 I-6.756577 J-0.345223
G02 X290.603044 Y574.941516 Z-2.000000 I19.814896 J17.765080
G02 X287.806881 Y580.099195 Z-2.000000 I196.513234 J109.873649
G01 X287.806881 Y580.099195 Z-2.000000
G00 Z1.000000

(End cutting path id: path197)

(Start cutting path id: path167)
(Change tool to Default tool)

G00 Z1.000000
G00 X284.081101 Y580.099195

G01 Z-2.000000 F100.0(Penetrate)
G01 X286.564955 Y580.720158 Z-2.000000 F1000.000000
G02 X288.145788 Y578.183674 Z-2.000000 I-243.823919 J-153.721188
G02 X289.708581 Y575.636021 Z-2.000000 I-664.612279 J-409.442805
G01 X290.621834 Y574.189128 Z-2.000000
G02 X292.357555 Y570.478855 Z-2.000000 I-16.464333 J-9.963396
G02 X292.655732 Y568.269359 Z-2.000000 I-5.391817 J-1.852505
G01 X292.153624 Y567.058966 Z-2.000000
G02 X289.217406 Y571.056615 Z-2.000000 I24.523966 J21.089646
G02 X286.720195 Y575.325540 Z-2.000000 I76.489934 J47.609498
G01 X285.946417 Y576.719069 Z-2.000000
G02 X285.012174 Y578.408256 Z-2.000000 I624.407850 J346.445634
G02 X284.081101 Y580.099195 Z-2.000000 I1611.172543 J888.253225
G01 X284.081101 Y580.099195 Z-2.000000
G00 Z1.000000

(End cutting path id: path167)

(Start cutting path id: path392)
(Change tool to Default tool)

G00 Z1.000000
G00 X295.879404 Y565.817039

G01 Z-2.000000 F100.0(Penetrate)
G01 X296.500367 Y567.058966 Z-2.000000 F1000.000000
G01 X298.363257 Y566.438002 Z-2.000000
G02 X298.771314 Y565.210881 Z-2.000000 I-7.848231 J-3.291194
G02 X298.984221 Y563.954149 Z-2.000000 I-8.021116 J-2.005279
G01 X297.742294 Y562.712222 Z-2.000000
G02 X296.803423 Y564.205885 Z-2.000000 I35.529747 J23.374834
G02 X295.879404 Y565.817039 Z-2.000000 I40.418588 J24.251153
G01 X295.879404 Y565.817039 Z-2.000000
G00 Z1.000000

(End cutting path id: path392)

(Start cutting path id: path344)
(Change tool to Default tool)

G00 Z1.000000
G00 X295.258441 Y564.575112

G01 Z-2.000000 F100.0(Penetrate)
G02 X296.718211 Y562.901796 Z-2.000000 I-6.611415 J-7.241074 F1000.000000
G02 X297.742294 Y560.849333 Z-2.000000 I-6.714831 J-4.632101
G01 X297.121331 Y559.607406 Z-2.000000
G01 X295.258441 Y560.228369 Z-2.000000
G02 X294.876324 Y562.383142 Z-2.000000 I3.444033 J1.722016
G02 X295.258441 Y564.575112 Z-2.000000 I18.446112 J-2.086344
G01 X295.258441 Y564.575112 Z-2.000000
G00 Z1.000000

(End cutting path id: path344)

(Start cutting path id: path308)
(Change tool to Default tool)

G00 Z1.000000
G00 X298.984221 Y562.091259

G01 Z-2.000000 F100.0(Penetrate)
G01 X300.847111 Y562.712222 Z-2.000000 F1000.000000
G02 X302.288393 Y559.915052 Z-2.000000 I-8.893056 J-6.352183
G02 X302.515949 Y557.860947 Z-2.000000 I-4.457859 J-1.533504
G01 X302.089037 Y556.502589 Z-2.000000
G02 X299.944692 Y558.971534 Z-2.000000 I9.356104 J10.291715
G02 X298.984221 Y562.091259 Z-2.000000 I4.586386 J3.119725
G01 X298.984221 Y562.091259 Z-2.000000
G00 Z1.000000

(End cutting path id: path308)

(Start cutting path id: path280)
(Change tool to Default tool)

G00 Z1.000000
G00 X297.742294 Y559.607406

G01 Z-2.000000 F100.0(Penetrate)
G01 X298.984221 Y559.607406 Z-2.000000 F1000.000000
G02 X300.316578 Y557.193996 Z-2.000000 I-6.504676 J-5.165478
G02 X300.653060 Y554.445648 Z-2.000000 I-6.097855 J-2.141335
G01 X300.226147 Y552.776810 Z-2.000000
G02 X297.816478 Y557.019429 Z-2.000000 I11.321084 J9.235621
G02 X297.742294 Y559.607406 Z-2.000000 I3.866155 J1.405875
G01 X297.742294 Y559.607406 Z-2.000000
G00 Z1.000000

(End cutting path id: path280)

(Start cutting path id: path131)
(Change tool to Default tool)

G00 Z1.000000
G00 X303.330964 Y557.123553

G01 Z-2.000000 F100.0(Penetrate)
G02 X307.051314 Y551.983740 Z-2.000000 I-37.622298 J-31.148498 F1000.000000
G02 X310.355611 Y546.567177 Z-2.000000 I-194.922228 J-122.625690
G01 X311.593900 Y544.534492 Z-2.000000
G01 X312.754567 Y542.569725 Z-2.000000
G01 X313.820180 Y540.786881 Z-2.000000
G02 X314.273059 Y538.399215 Z-2.000000 I-5.569495 J-2.293172
G02 X313.887340 Y536.010800 Z-2.000000 I-8.404041 J0.131863
G02 X310.536275 Y540.134366 Z-2.000000 I11.115357 J12.456454
G03 X307.870242 Y544.741581 Z-2.000000 I-1160.913397 J-668.704559
G03 X306.877697 Y546.422546 Z-2.000000 I-177.449540 J-103.643559
G03 X305.875458 Y548.097754 Z-2.000000 I-816.771635 J-487.518692
G02 X305.247828 Y549.173173 Z-2.000000 I991.627018 J579.448452
G02 X304.621403 Y550.249295 Z-2.000000 I930.626655 J542.450906
G01 X303.464980 Y552.213758 Z-2.000000
G02 X302.956134 Y554.669833 Z-2.000000 I6.067079 J2.537717
G02 X303.330964 Y557.123553 Z-2.000000 I7.600968 J0.094368
G01 X303.330964 Y557.123553 Z-2.000000
G00 Z1.000000

(End cutting path id: path131)

(Start cutting path id: path160)
(Change tool to Default tool)

G00 Z1.000000
G00 X305.193854 Y560.228369

G01 Z-2.000000 F100.0(Penetrate)
G02 X307.496624 Y558.628109 Z-2.000000 I-1.573968 J-4.721905 F1000.000000
G02 X309.096705 Y556.238195 Z-2.000000 I-12.752156 J-10.268347
G01 X310.250096 Y554.155785 Z-2.000000
G02 X310.846261 Y553.058825 Z-2.000000 I-9183.151005 J-4993.424604
G02 X311.442297 Y551.961795 Z-2.000000 I-9418.444965 J-5115.877168
G01 X312.641775 Y549.789636 Z-2.000000
G02 X315.634973 Y544.256280 Z-2.000000 I-363.206835 J-200.048307
G02 X316.992156 Y541.599470 Z-2.000000 I-82.355204 J-43.744721
G01 X315.750230 Y540.357544 Z-2.000000
G01 X314.981757 Y541.676332 Z-2.000000
G03 X313.250954 Y544.645760 Z-2.000000 I-23168.128364 J-13494.581952
G03 X311.519917 Y547.615052 Z-2.000000 R121219.573788
G01 X310.310737 Y549.690185 Z-2.000000
G01 X309.140367 Y551.697401 Z-2.000000
G01 X308.066264 Y553.540128 Z-2.000000
G03 X307.047033 Y555.239769 Z-2.000000 I-89.385678 J-52.446841
G03 X305.995072 Y556.919344 Z-2.000000 I-86.123531 J-52.772137
G02 X305.409520 Y558.421231 Z-2.000000 I5.269684 J2.919622
G02 X305.193854 Y560.228369 Z-2.000000 I7.463464 J1.807138
G01 X305.193854 Y560.228369 Z-2.000000
G00 Z1.000000

(End cutting path id: path160)

(Start cutting path id: path307)
(Change tool to Default tool)

G00 Z1.000000
G00 X307.677707 Y558.365479

G01 Z-2.000000 F100.0(Penetrate)
G01 X309.540597 Y558.365479 Z-2.000000 F1000.000000
G02 X311.243947 Y555.117756 Z-2.000000 I-8.618981 J-6.590985
G02 X312.024450 Y551.534883 Z-2.000000 I-17.695090 J-5.731197
G02 X308.397113 Y555.894997 Z-2.000000 I15.234772 J16.363274
G02 X307.677707 Y558.365479 Z-2.000000 I3.882187 J2.470483
G01 X307.677707 Y558.365479 Z-2.000000
G00 Z1.000000

(End cutting path id: path307)

(Start cutting path id: path305)
(Change tool to Default tool)

G00 Z1.000000
G00 X311.403487 Y554.018736

G01 Z-2.000000 F100.0(Penetrate)
G02 X313.884838 Y551.129381 Z-2.000000 I-7.901534 J-9.295922 F1000.000000
G02 X315.750230 Y547.809103 Z-2.000000 I-39.558198 J-24.408650
G01 X315.129267 Y546.567177 Z-2.000000
G02 X312.154732 Y550.638134 Z-2.000000 I10.560628 J10.838539
G02 X311.403487 Y554.018736 Z-2.000000 I6.385582 J3.192791
G01 X311.403487 Y554.018736 Z-2.000000
G00 Z1.000000

(End cutting path id: path305)

(Start cutting path id: path129)
(Change tool to Default tool)

G00 Z1.000000
G00 X301.468074 Y554.018736

G01 Z-2.000000 F100.0(Penetrate)
G02 X305.188424 Y548.878923 Z-2.000000 I-37.622298 J-31.148498 F1000.000000
G02 X308.492721 Y543.462360 Z-2.000000 I-194.922228 J-122.625690
G01 X309.731010 Y541.429676 Z-2.000000
G01 X310.891677 Y539.464909 Z-2.000000
G01 X311.957290 Y537.682065 Z-2.000000
G02 X312.410169 Y535.294399 Z-2.000000 I-5.569495 J-2.293172
G02 X312.024450 Y532.905984 Z-2.000000 I-8.404041 J0.131863
G02 X308.673385 Y537.029549 Z-2.000000 I11.115357 J12.456454
G03 X306.007352 Y541.636765 Z-2.000000 I-1160.913397 J-668.704559
G03 X305.014807 Y543.317730 Z-2.000000 I-177.449540 J-103.643559
G03 X304.012568 Y544.992938 Z-2.000000 I-816.771635 J-487.518692
G02 X303.384938 Y546.068357 Z-2.000000 I991.627018 J579.448452
G02 X302.758513 Y547.144478 Z-2.000000 I930.626655 J542.450906
G01 X301.602090 Y549.108942 Z-2.000000
G02 X301.093245 Y551.565017 Z-2.000000 I6.067079 J2.537717
G02 X301.468074 Y554.018736 Z-2.000000 I7.600968 J0.094368
G01 X301.468074 Y554.018736 Z-2.000000
G00 Z1.000000

(End cutting path id: path129)

(Start cutting path id: path76)
(Change tool to Default tool)

G00 Z1.000000
G00 X307.752223 Y564.108148

G01 Z-2.000000 F100.0(Penetrate)
G02 X308.452005 Y565.060219 Z-2.000000 I3.150728 J-1.582610 F1000.000000
G02 X310.161487 Y566.437822 Z-2.000000 I8.461836 J-8.750927
G01 X312.024377 Y566.437822 Z-2.000000
G01 X311.907947 Y564.768983 Z-2.000000
G03 X312.466461 Y562.010453 Z-2.000000 I9.843418 J0.557175
G03 X313.887267 Y559.607225 Z-2.000000 I6.926987 J2.473676
G03 X316.112402 Y559.219128 Z-2.000000 I7.414733 J35.939090
G03 X318.234010 Y558.986262 Z-2.000000 I4.633805 J32.436638
G01 X318.854974 Y557.744335 Z-2.000000
G03 X320.324857 Y557.365804 Z-2.000000 I6.403003 J21.820507
G03 X321.998600 Y557.045752 Z-2.000000 I6.217894 J27.980522
G01 X323.728080 Y556.730418 Z-2.000000
G01 X325.064607 Y556.502409 Z-2.000000
G02 X323.332551 Y552.590653 Z-2.000000 I-29.428136 J10.690914
G02 X321.261207 Y548.856798 Z-2.000000 I-88.779979 J46.808959
G01 X320.560197 Y547.642766 Z-2.000000
G02 X319.708710 Y546.172784 Z-2.000000 I-666.802409 J385.263779
G02 X318.854974 Y544.704106 Z-2.000000 I-1718.771092 J998.131513
G02 X315.500144 Y548.842485 Z-2.000000 I10.984802 J12.333977
G03 X312.837876 Y553.468997 Z-2.000000 I-788.997612 J-450.939560
G03 X311.844833 Y555.159884 Z-2.000000 I-201.484752 J-117.193096
G03 X310.843092 Y556.845636 Z-2.000000 I-892.479017 J-529.206221
G02 X310.215531 Y557.924129 Z-2.000000 I1127.311082 J656.688558
G02 X309.589037 Y559.003241 Z-2.000000 I1057.225884 J614.509668
G01 X308.432614 Y560.977559 Z-2.000000
G02 X307.861917 Y562.745306 Z-2.000000 I8.680278 J3.778322
G02 X307.752223 Y564.108148 Z-2.000000 I5.011702 J1.089226
G01 X307.752223 Y564.108148 Z-2.000000
G00 Z1.000000

(End cutting path id: path76)

(Start cutting path id: path391)
(Change tool to Default tool)

G00 Z1.000000
G00 X303.951927 Y569.542819

G01 Z-2.000000 F100.0(Penetrate)
G01 X304.572890 Y570.784745 Z-2.000000 F1000.000000
G02 X305.861550 Y571.140847 Z-2.000000 I7.872487 J-25.979207
G02 X307.056744 Y571.405709 Z-2.000000 I5.520024 J-22.080094
G01 X307.677707 Y568.921856 Z-2.000000
G01 X304.572890 Y568.300892 Z-2.000000
G01 X303.951927 Y569.542819 Z-2.000000
G01 X303.951927 Y569.542819 Z-2.000000
G00 Z1.000000

(End cutting path id: path391)

(Start cutting path id: path331)
(Change tool to Default tool)

G00 Z1.000000
G00 X329.411423 Y580.720158

G01 Z-2.000000 F100.0(Penetrate)
G02 X331.520896 Y579.367663 Z-2.000000 I-1.611675 J-4.835024 F1000.000000
G02 X332.981962 Y577.343670 Z-2.000000 I-7.193145 J-6.731883
G01 X333.826084 Y575.832498 Z-2.000000
G01 X334.379129 Y574.510525 Z-2.000000
G01 X333.758166 Y573.268599 Z-2.000000
G02 X329.954730 Y578.710507 Z-2.000000 I31.237315 J25.882346
G02 X329.411423 Y580.720158 Z-2.000000 I3.445116 J2.009651
G01 X329.411423 Y580.720158 Z-2.000000
G00 Z1.000000

(End cutting path id: path331)

(Start cutting path id: path365)
(Change tool to Default tool)

G00 Z1.000000
G00 X331.895276 Y580.099195

G01 Z-2.000000 F100.0(Penetrate)
G01 X333.758166 Y580.720158 Z-2.000000 F1000.000000
G02 X334.688497 Y579.260103 Z-2.000000 I-26.669786 J-18.020126
G02 X335.621056 Y577.615342 Z-2.000000 I-32.919136 J-19.751481
G01 X335.000092 Y575.752452 Z-2.000000
G02 X332.696519 Y578.768406 Z-2.000000 I45.923061 J37.463550
G02 X331.895276 Y580.099195 Z-2.000000 I8.079917 J5.771370
G01 X331.895276 Y580.099195 Z-2.000000
G00 Z1.000000

(End cutting path id: path365)

(Start cutting path id: path246)
(Change tool to Default tool)

G00 Z1.000000
G00 X338.104909 Y585.066901

G01 Z-2.000000 F100.0(Penetrate)
G01 X338.104909 Y586.929791 Z-2.000000 F1000.000000
G01 X343.693579 Y588.792681 Z-2.000000
G02 X342.301081 Y585.608507 Z-2.000000 I-28.784044 J10.691217
G02 X340.588762 Y582.583048 Z-2.000000 I-33.617229 J17.029056
G01 X339.346835 Y585.066901 Z-2.000000
G01 X338.104909 Y585.066901 Z-2.000000
G01 X338.104909 Y585.066901 Z-2.000000
G00 Z1.000000

(End cutting path id: path246)

(Start cutting path id: path208)
(Change tool to Default tool)

G00 Z1.000000
G00 X335.621056 Y592.518461

G01 Z-2.000000 F100.0(Penetrate)
G01 X335.621056 Y593.760388 Z-2.000000 F1000.000000
G01 X341.830689 Y593.760388 Z-2.000000
G01 X343.693579 Y590.034608 Z-2.000000
G02 X339.099425 Y590.373068 Z-2.000000 I-0.711286 J21.694232
G02 X336.862982 Y591.276534 Z-2.000000 I1.064532 J5.854928
G01 X336.862982 Y592.518461 Z-2.000000
G01 X335.621056 Y592.518461 Z-2.000000
G01 X335.621056 Y592.518461 Z-2.000000
G00 Z1.000000

(End cutting path id: path208)

(Start cutting path id: path358)
(Change tool to Default tool)

G00 Z1.000000
G00 X336.242019 Y595.623278

G01 Z-2.000000 F100.0(Penetrate)
G02 X337.630800 Y598.382347 Z-2.000000 I11.976001 J-4.299077 F1000.000000
G02 X338.725872 Y599.349057 Z-2.000000 I2.367641 J-1.578428
G01 X339.967799 Y595.623278 Z-2.000000
G01 X336.242019 Y595.623278 Z-2.000000
G01 X336.242019 Y595.623278 Z-2.000000
G00 Z1.000000

(End cutting path id: path358)

(Start cutting path id: path319)
(Change tool to Default tool)

G00 Z1.000000
G00 X333.137202 Y595.623278

G01 Z-2.000000 F100.0(Penetrate)
G02 X334.529699 Y598.807451 Z-2.000000 I28.784045 J-10.691217 F1000.000000
G02 X336.242019 Y601.832911 Z-2.000000 I33.617226 J-17.029054
G01 X337.483946 Y601.211947 Z-2.000000
G02 X336.444442 Y598.333085 Z-2.000000 I-32.561495 J10.130242
G02 X335.000092 Y595.623278 Z-2.000000 I-14.461337 J5.968184
G01 X333.137202 Y595.623278 Z-2.000000
G01 X333.137202 Y595.623278 Z-2.000000
G00 Z1.000000

(End cutting path id: path319)

(Start cutting path id: path103)
(Change tool to Default tool)

G00 Z1.000000
G00 X340.186378 Y603.992000

G01 Z-2.000000 F100.0(Penetrate)
G02 X341.172947 Y605.809100 Z-2.000000 I17.670485 J-8.417576 F1000.000000
G02 X342.451924 Y607.421852 Z-2.000000 I7.313810 J-4.486625
G02 X343.807753 Y607.813482 Z-2.000000 I6.082302 J-18.514261
G02 X344.935777 Y608.042815 Z-2.000000 I3.144493 J-12.577971
G02 X350.653648 Y598.763245 Z-2.000000 I-99.875787 J-67.942709
G02 X351.145410 Y596.865476 Z-2.000000 I-3.415986 J-1.897770
G01 X348.661557 Y596.865476 Z-2.000000
G01 X348.661557 Y595.623549 Z-2.000000
G01 X343.693850 Y595.623549 Z-2.000000
G02 X340.510276 Y601.474139 Z-2.000000 I27.144358 J18.561950
G02 X340.186378 Y603.992000 Z-2.000000 I4.405528 J1.846491
G01 X340.186378 Y603.992000 Z-2.000000
G00 Z1.000000

(End cutting path id: path103)

(Start cutting path id: path330)
(Change tool to Default tool)

G00 Z1.000000
G00 X336.862982 Y608.042544

G01 Z-2.000000 F100.0(Penetrate)
G01 X341.830689 Y608.042544 Z-2.000000 F1000.000000
G01 X339.967799 Y604.316764 Z-2.000000
G01 X338.725872 Y604.316764 Z-2.000000
G02 X337.068199 Y607.173233 Z-2.000000 I22.111837 J14.741225
G02 X336.862982 Y608.042544 Z-2.000000 I1.738621 J0.869310
G01 X336.862982 Y608.042544 Z-2.000000
G00 Z1.000000

(End cutting path id: path330)

(Start cutting path id: path292)
(Change tool to Default tool)

G00 Z1.000000
G00 X335.621056 Y609.905434

G01 Z-2.000000 F100.0(Penetrate)
G01 X335.621056 Y610.526397 Z-2.000000 F1000.000000
G01 X342.451652 Y610.526397 Z-2.000000
G01 X343.072615 Y613.010250 Z-2.000000
G01 X344.314542 Y613.010250 Z-2.000000
G02 X343.017388 Y610.069388 Z-2.000000 I-31.108471 J11.964797
G02 X342.451652 Y609.284470 Z-2.000000 I-2.701308 J1.350654
G02 X340.899917 Y609.221675 Z-2.000000 I-2.471575 J41.871367
G02 X339.346835 Y609.206850 Z-2.000000 I-1.374964 J62.682638
G01 X337.639186 Y609.201999 Z-2.000000
G02 X336.323074 Y609.464918 Z-2.000000 I0.287005 J4.862209
G02 X335.621056 Y609.905434 Z-2.000000 I0.611319 J1.753853
G01 X335.621056 Y609.905434 Z-2.000000
G00 Z1.000000

(End cutting path id: path292)

(Start cutting path id: path266)
(Change tool to Default tool)

G00 Z1.000000
G00 X325.685643 Y606.179654

G01 Z-2.000000 F100.0(Penetrate)
G01 X326.306606 Y608.042544 Z-2.000000 F1000.000000
G02 X327.975172 Y608.108325 Z-2.000000 I6.587372 J-145.897142
G02 X329.644284 Y608.158974 Z-2.000000 I8.393606 J-249.075742
G01 X331.521728 Y608.224467 Z-2.000000
G01 X333.137202 Y608.042544 Z-2.000000
G01 X334.379129 Y606.179654 Z-2.000000
G01 X325.685643 Y606.179654 Z-2.000000
G01 X325.685643 Y606.179654 Z-2.000000
G00 Z1.000000

(End cutting path id: path266)

(Start cutting path id: path150)
(Change tool to Default tool)

G00 Z1.000000
G00 X325.064679 Y604.937727

G01 Z-2.000000 F100.0(Penetrate)
G01 X335.000092 Y604.937727 Z-2.000000 F1000.000000
G01 X335.621056 Y603.695801 Z-2.000000
G01 X333.137202 Y600.590984 Z-2.000000
G01 X332.516239 Y602.453874 Z-2.000000
G01 X331.468364 Y601.832911 Z-2.000000
G02 X329.234594 Y601.275630 Z-2.000000 I-2.804212 J6.484741
G02 X326.927569 Y601.211947 Z-2.000000 I-1.751107 J21.617121
G01 X325.064679 Y600.590984 Z-2.000000
G02 X324.761455 Y601.875462 Z-2.000000 I2.568955 J1.284478
G02 X325.064679 Y604.937727 Z-2.000000 I15.614551 J0.000000
G01 X325.064679 Y604.937727 Z-2.000000
G00 Z1.000000

(End cutting path id: path150)

(Start cutting path id: path154)
(Change tool to Default tool)

G00 Z1.000000
G00 X305.193854 Y604.937727

G01 Z-2.000000 F100.0(Penetrate)
G01 X312.024450 Y604.937727 Z-2.000000 F1000.000000
G02 X312.420159 Y602.942030 Z-2.000000 I-18.316123 J-4.668816
G02 X312.645413 Y600.590984 Z-2.000000 I-25.215677 J-3.602240
G02 X311.054582 Y598.845300 Z-2.000000 I-19.602030 J16.265514
G02 X309.540597 Y597.486167 Z-2.000000 I-13.365594 J13.365594
G02 X305.737161 Y602.928076 Z-2.000000 I31.237315 J25.882346
G02 X305.193854 Y604.937727 Z-2.000000 I3.445116 J2.009651
G01 X305.193854 Y604.937727 Z-2.000000
G00 Z1.000000

(End cutting path id: path154)

(Start cutting path id: path166)
(Change tool to Default tool)

G00 Z1.000000
G00 X305.193854 Y606.179654

G01 Z-2.000000 F100.0(Penetrate)
G01 X306.940313 Y608.353025 Z-2.000000 F1000.000000
G03 X309.188365 Y612.072831 Z-2.000000 I-16.814760 J12.701149
G03 X310.782523 Y616.115067 Z-2.000000 I-30.421859 J14.333098
G01 X313.266377 Y613.010250 Z-2.000000
G01 X312.645413 Y611.613083 Z-2.000000
G03 X312.128311 Y609.776737 Z-2.000000 I6.909018 J-2.936512
G03 X312.024450 Y607.421580 Z-2.000000 I11.339560 J-1.679935
G01 X312.645413 Y606.179654 Z-2.000000
G01 X305.193854 Y606.179654 Z-2.000000
G01 X305.193854 Y606.179654 Z-2.000000
G00 Z1.000000

(End cutting path id: path166)

(Start cutting path id: path249)
(Change tool to Default tool)

G00 Z1.000000
G00 X302.089037 Y614.252177

G01 Z-2.000000 F100.0(Penetrate)
G01 X304.572890 Y614.873140 Z-2.000000 F1000.000000
G02 X304.928857 Y613.461233 Z-2.000000 I-14.050427 J-4.293186
G02 X305.193854 Y611.768323 Z-2.000000 I-19.950787 J-3.990157
G02 X304.295092 Y610.396119 Z-2.000000 I-11.216625 J6.366192
G02 X303.330964 Y609.284470 Z-2.000000 I-8.303106 J6.227329
G01 X302.089037 Y609.284470 Z-2.000000
G02 X301.677491 Y611.741861 Z-2.000000 I3.798658 J1.899329
G02 X302.089037 Y614.252177 Z-2.000000 I41.057656 J-5.442184
G01 X302.089037 Y614.252177 Z-2.000000
G00 Z1.000000

(End cutting path id: path249)

(Start cutting path id: path238)
(Change tool to Default tool)

G00 Z1.000000
G00 X303.951927 Y616.115067

G01 Z-2.000000 F100.0(Penetrate)
G01 X304.572890 Y617.356993 Z-2.000000 F1000.000000
G01 X308.298670 Y617.356993 Z-2.000000
G02 X308.667290 Y616.016443 Z-2.000000 I-9.247176 J-3.263709
G02 X308.919634 Y614.252177 Z-2.000000 I-15.801083 J-3.160217
G02 X307.658397 Y612.234312 Z-2.000000 I-34.963975 J20.450627
G02 X306.435780 Y610.526397 Z-2.000000 I-26.258462 J17.505641
G02 X305.824168 Y612.958367 Z-2.000000 I5.202545 J2.601273
G02 X305.814817 Y615.494103 Z-2.000000 I49.855085 J1.451727
G01 X303.951927 Y616.115067 Z-2.000000
G01 X303.951927 Y616.115067 Z-2.000000
G00 Z1.000000

(End cutting path id: path238)

(Start cutting path id: path397)
(Change tool to Default tool)

G00 Z1.000000
G00 X333.758166 Y644.679379

G01 Z-2.000000 F100.0(Penetrate)
G02 X334.371357 Y645.983334 Z-2.000000 I27.379364 J-12.079131 F1000.000000
G02 X335.000092 Y647.163232 Z-2.000000 I23.042720 J-11.521360
G01 X336.862982 Y643.437452 Z-2.000000
G01 X334.379129 Y643.437452 Z-2.000000
G01 X333.758166 Y644.679379 Z-2.000000
G01 X333.758166 Y644.679379 Z-2.000000
G00 Z1.000000

(End cutting path id: path397)

(Start cutting path id: path351)
(Change tool to Default tool)

G00 Z1.000000
G00 X344.935505 Y644.058415

G01 Z-2.000000 F100.0(Penetrate)
G01 X345.556468 Y647.784195 Z-2.000000 F1000.000000
G01 X348.040322 Y647.163232 Z-2.000000
G01 X346.798395 Y642.816489 Z-2.000000
G01 X344.935505 Y644.058415 Z-2.000000
G01 X344.935505 Y644.058415 Z-2.000000
G00 Z1.000000

(End cutting path id: path351)

(Start cutting path id: path145)
(Change tool to Default tool)

G00 Z1.000000
G00 X348.040322 Y642.816489

G01 Z-2.000000 F100.0(Penetrate)
G02 X349.093050 Y647.634895 Z-2.000000 I18.677416 J-1.556451 F1000.000000
G02 X351.145138 Y652.130938 Z-2.000000 I28.677353 J-10.372611
G02 X353.496833 Y649.148939 Z-2.000000 I-60.546870 J-50.167408
G02 X355.491881 Y645.921305 Z-2.000000 I-16.888298 J-12.669308
G01 X354.870918 Y644.058415 Z-2.000000
G01 X348.040322 Y642.816489 Z-2.000000
G01 X348.040322 Y642.816489 Z-2.000000
G00 Z1.000000

(End cutting path id: path145)

(Start cutting path id: path152)
(Change tool to Default tool)

G00 Z1.000000
G00 X348.661285 Y642.195525

G01 Z-2.000000 F100.0(Penetrate)
G01 X356.733808 Y643.437452 Z-2.000000 F1000.000000
G01 X356.733808 Y639.090709 Z-2.000000
G01 X348.661285 Y637.848782 Z-2.000000
G02 X348.358061 Y639.133260 Z-2.000000 I2.568955 J1.284478
G02 X348.661285 Y642.195525 Z-2.000000 I15.614551 J-0.000000
G01 X348.661285 Y642.195525 Z-2.000000
G00 Z1.000000

(End cutting path id: path152)

(Start cutting path id: path126)
(Change tool to Default tool)

G00 Z1.000000
G00 X349.903212 Y635.985892

G01 Z-2.000000 F100.0(Penetrate)
G01 X350.524175 Y637.227819 Z-2.000000 F1000.000000
G02 X353.378626 Y637.632963 Z-2.000000 I8.258631 J-47.928296
G02 X356.246255 Y637.938531 Z-2.000000 I30.868053 J-276.075045
G01 X357.975735 Y638.469746 Z-2.000000
G03 X358.701444 Y640.001297 Z-2.000000 I-11.973582 J6.611268
G03 X359.217661 Y641.574562 Z-2.000000 I-12.121593 J4.848637
G01 X360.459588 Y642.816489 Z-2.000000
G02 X360.779237 Y640.966302 Z-2.000000 I-5.933360 J-1.977787
G02 X360.524019 Y639.659066 Z-2.000000 I-3.146584 J-0.064210
G01 X359.646999 Y638.190797 Z-2.000000
G01 X358.707064 Y636.595940 Z-2.000000
G01 X357.704063 Y634.938017 Z-2.000000
G01 X356.708338 Y633.258262 Z-2.000000
G02 X355.483282 Y631.204295 Z-2.000000 I-488.288950 J289.839886
G02 X354.249955 Y629.155296 Z-2.000000 I-531.830822 J318.722355
G02 X351.833224 Y632.410461 Z-2.000000 I32.533081 J26.678231
G02 X349.903212 Y635.985892 Z-2.000000 I17.705118 J11.865819
G01 X349.903212 Y635.985892 Z-2.000000
G00 Z1.000000

(End cutting path id: path126)

(Start cutting path id: path252)
(Change tool to Default tool)

G00 Z1.000000
G00 X346.798395 Y632.881076

G01 Z-2.000000 F100.0(Penetrate)
G01 X349.282248 Y633.502039 Z-2.000000 F1000.000000
G01 X353.008028 Y626.671443 Z-2.000000
G01 X350.524175 Y626.671443 Z-2.000000
G02 X349.527848 Y628.070122 Z-2.000000 I15.915601 J12.391432
G02 X348.506044 Y629.776259 Z-2.000000 I22.681296 J14.742842
G01 X347.526086 Y631.522719 Z-2.000000
G01 X346.798395 Y632.881076 Z-2.000000
G01 X346.798395 Y632.881076 Z-2.000000
G00 Z1.000000

(End cutting path id: path252)

(Start cutting path id: path15)
(Change tool to Default tool)

G00 Z1.000000
G00 X355.491881 Y629.776259

G01 Z-2.000000 F100.0(Penetrate)
G02 X356.823505 Y632.342729 Z-2.000000 I38.115141 J-18.147511 F1000.000000
G02 X358.247406 Y634.860396 Z-2.000000 I683.348505 J-384.815494
G01 X359.015120 Y636.246648 Z-2.000000
G01 X359.758578 Y637.564983 Z-2.000000
G01 X360.436393 Y638.768554 Z-2.000000
G02 X361.185752 Y639.591145 Z-2.000000 I3.301475 J-2.254937
G02 X362.322478 Y640.332635 Z-2.000000 I3.796552 J-4.578162
G01 X363.375205 Y638.411530 Z-2.000000
G03 X368.524466 Y629.230379 Z-2.000000 I582.519849 J320.672487
G03 X373.794987 Y620.118279 Z-2.000000 I855.674326 J488.849442
G02 X377.831483 Y613.194737 Z-2.000000 I-1830.744913 J-1071.981488
G02 X381.844012 Y606.257274 Z-2.000000 I-2207.928620 J-1281.663288
G01 X383.014837 Y604.225803 Z-2.000000
G02 X384.190357 Y602.185579 Z-2.000000 R33481.136212
G02 X385.365735 Y600.145273 Z-2.000000 R33543.918336
G03 X388.280687 Y595.089470 Z-2.000000 I8676.510614 J4999.171937
G03 X391.197271 Y590.034608 Z-2.000000 I81037.956258 J46750.267707
G01 X393.525884 Y585.998346 Z-2.000000
G01 X394.690190 Y583.980216 Z-2.000000
G01 X417.977220 Y543.615930 Z-2.000000
G03 X419.136901 Y541.606096 Z-2.000000 I25491.824643 J14715.009137
G03 X420.296742 Y539.596348 Z-2.000000 I25937.374887 J14959.568326
G02 X423.279121 Y534.424613 Z-2.000000 I-7890.962267 J-4553.929350
G02 X426.257443 Y529.250547 Z-2.000000 I-5669.198369 J-3266.771326
G03 X432.413419 Y518.620306 Z-2.000000 I1889.992076 J1087.397435
G03 X438.700964 Y508.067452 Z-2.000000 I552.228445 J321.876258
G02 X436.867345 Y507.153505 Z-2.000000 I-96.099496 J190.504755
G02 X435.018844 Y506.270055 Z-2.000000 I-38.477784 J78.133974
G01 X433.810878 Y505.700029 Z-2.000000
G01 X432.612611 Y505.144559 Z-2.000000
G03 X429.984234 Y503.307470 Z-2.000000 I10.476347 J-17.787609
G03 X427.523625 Y501.236855 Z-2.000000 I86.681673 J-105.505296
G01 X426.749544 Y502.596424 Z-2.000000
G03 X419.479350 Y515.307279 Z-2.000000 I-3634.183827 J-2070.199838
G03 X412.136136 Y527.976181 Z-2.000000 I-1587.059707 J-911.437100
G02 X406.429285 Y537.795703 Z-2.000000 I1821.522252 J1065.189509
G02 X400.754588 Y547.633849 Z-2.000000 I8471.195214 J4892.787988
G03 X397.839635 Y552.689653 Z-2.000000 I-8670.005286 J-4995.394145
G03 X394.923051 Y557.744516 Z-2.000000 I-81505.873526 J-47022.484571
G01 X392.594439 Y561.780778 Z-2.000000
G01 X391.430133 Y563.798908 Z-2.000000
G01 X378.622764 Y585.998346 Z-2.000000
G01 X377.458004 Y588.017235 Z-2.000000
G01 X375.133939 Y592.045917 Z-2.000000
G03 X371.591433 Y598.184781 Z-2.000000 I-20462.587390 J-11804.221963
G03 X368.046983 Y604.322524 Z-2.000000 I-18432.529737 J-10640.297546
G02 X366.875801 Y606.353832 Z-2.000000 I2592.878099 J1496.319541
G02 X365.706243 Y608.386075 Z-2.000000 I2490.659752 J1434.728784
G03 X362.898946 Y613.241147 Z-2.000000 I-1009.792859 J-580.642607
G03 X360.059357 Y618.077407 Z-2.000000 I-569.536032 J-331.148764
G01 X358.992532 Y619.894665 Z-2.000000
G03 X357.996852 Y621.579819 Z-2.000000 I-315.536098 J-185.299033
G03 X356.991684 Y623.259328 Z-2.000000 I-283.621123 J-168.603659
G01 X356.112845 Y624.764891 Z-2.000000
G01 X355.336640 Y626.069581 Z-2.000000
G02 X355.074482 Y627.931365 Z-2.000000 I3.954834 J1.506230
G02 X355.491881 Y629.776259 Z-2.000000 I6.831949 J-0.576032
G01 X355.491881 Y629.776259 Z-2.000000
G00 Z1.000000

(End cutting path id: path15)

(Start cutting path id: path57)
(Change tool to Default tool)

G00 Z1.000000
G00 X352.934133 Y624.966278

G01 Z-2.000000 F100.0(Penetrate)
G01 X353.628927 Y626.050234 Z-2.000000 F1000.000000
G01 X354.232001 Y624.975677 Z-2.000000
G03 X360.596018 Y613.746195 Z-2.000000 I1507.899898 J847.144904
G03 X367.058926 Y602.573395 Z-2.000000 I1098.683045 J628.077822
G02 X372.813930 Y592.675531 Z-2.000000 I-1774.134628 J-1038.173063
G02 X378.535074 Y582.758056 Z-2.000000 I-7835.003528 J-4526.426372
G03 X381.450027 Y577.702253 Z-2.000000 I8677.975220 J5000.018442
G03 X384.366610 Y572.647390 Z-2.000000 I81374.399499 J46944.255918
G01 X386.695223 Y568.611129 Z-2.000000
G01 X387.859529 Y566.592998 Z-2.000000
G01 X409.981347 Y528.248517 Z-2.000000
G01 X411.148230 Y526.227045 Z-2.000000
G02 X412.300639 Y524.226165 Z-2.000000 I-2049.108441 J-1181.518517
G02 X413.451070 Y522.224142 Z-2.000000 I-1996.743119 J-1148.728309
G03 X416.195938 Y517.480257 Z-2.000000 I795.272576 J456.988069
G03 X418.984727 Y512.762220 Z-2.000000 I375.195702 J218.591530
G02 X420.316597 Y510.528039 Z-2.000000 I-542.426990 J-324.872942
G02 X421.642599 Y508.290365 Z-2.000000 I-1967.255159 J-1167.268909
G03 X422.593687 Y506.708857 Z-2.000000 I190.335371 J113.387169
G03 X423.552794 Y505.132183 Z-2.000000 I867.545447 J526.656969
G01 X424.692839 Y503.201378 Z-2.000000
G01 X425.715398 Y501.502522 Z-2.000000
G02 X426.001291 Y499.992976 Z-2.000000 I-4.200313 J-1.577345
G02 X425.759983 Y498.552338 Z-2.000000 I-4.055166 J-0.061284
G01 X425.039722 Y497.510833 Z-2.000000
G01 X424.265635 Y498.870402 Z-2.000000
G03 X417.546726 Y510.630063 Z-2.000000 I-4570.678880 J-2603.668418
G03 X410.757563 Y522.349366 Z-2.000000 I-1251.502893 J-717.187675
G02 X406.076476 Y530.408182 Z-2.000000 I1146.276470 J671.221176
G02 X401.443114 Y538.494411 Z-2.000000 I1684.122355 J970.362929
G03 X396.257750 Y547.533861 Z-2.000000 I-1595.292674 J-909.112055
G03 X391.021209 Y556.543883 Z-2.000000 I-1596.109097 J-921.617026
G02 X385.315417 Y566.361590 Z-2.000000 I1819.797403 J1064.185165
G02 X379.641784 Y576.197918 Z-2.000000 I8486.071555 J4901.354124
G03 X376.726822 Y581.253716 Z-2.000000 I-8629.848841 J-4972.163694
G03 X373.810247 Y586.308583 Z-2.000000 I-96002.469165 J-55398.121190
G01 X371.488911 Y590.332716 Z-2.000000
G03 X368.526760 Y595.465093 Z-2.000000 I-14002.828122 J-8078.304018
G03 X365.562926 Y600.596500 Z-2.000000 I-17771.423544 J-10261.132722
G02 X364.392271 Y602.627674 Z-2.000000 I2019.661938 J1165.372850
G02 X363.223702 Y604.660050 Z-2.000000 I1939.593548 J1116.574340
G03 X360.410884 Y609.518713 Z-2.000000 I-728.539664 J-418.528621
G03 X357.553622 Y614.351383 Z-2.000000 I-415.871749 J-242.618571
G01 X356.478306 Y616.168640 Z-2.000000
G03 X355.471934 Y617.854693 Z-2.000000 I-241.932463 J-143.261426
G03 X354.453202 Y619.533303 Z-2.000000 I-218.173277 J-131.258788
G01 X353.568286 Y621.038867 Z-2.000000
G01 X352.782228 Y622.343557 Z-2.000000
G02 X352.626539 Y623.559196 Z-2.000000 I3.165927 J1.023255
G02 X352.934133 Y624.966278 Z-2.000000 I4.587603 J-0.265710
G01 X352.934133 Y624.966278 Z-2.000000
G00 Z1.000000

(End cutting path id: path57)

(Start cutting path id: path28)
(Change tool to Default tool)

G00 Z1.000000
G00 X349.282248 Y617.977956

G01 Z-2.000000 F100.0(Penetrate)
G02 X350.626650 Y620.305375 Z-2.000000 I11.997441 J-5.378163 F1000.000000
G02 X352.387065 Y622.324700 Z-2.000000 I11.969526 J-8.657826
G01 X353.161146 Y620.965130 Z-2.000000
G03 X359.880060 Y609.205464 Z-2.000000 I4571.283907 J2604.014885
G03 X366.669221 Y597.486167 Z-2.000000 I1251.460335 J717.163204
G02 X371.350309 Y589.427346 Z-2.000000 I-1146.376132 J-671.278834
G02 X375.983670 Y581.341122 Z-2.000000 I-1684.120796 J-970.362367
G03 X381.169035 Y572.301666 Z-2.000000 I1595.267041 J909.096981
G03 X386.405575 Y563.291646 Z-2.000000 I1596.022168 J921.566561
G02 X392.111368 Y553.473941 Z-2.000000 I-1819.815441 J-1064.195808
G02 X397.785001 Y543.637615 Z-2.000000 I-8485.972790 J-4901.298303
G03 X400.699962 Y538.581815 Z-2.000000 I8621.432013 J4967.405358
G03 X403.616537 Y533.526947 Z-2.000000 I96909.588889 J55909.503602
G01 X405.937873 Y529.502813 Z-2.000000
G03 X408.302352 Y525.405614 Z-2.000000 I14346.959703 J8276.981877
G03 X410.667867 Y521.309010 Z-2.000000 I18651.511684 J10767.044856
G02 X413.573753 Y516.272879 Z-2.000000 I-5952.708637 J-3438.119048
G02 X416.476663 Y511.235029 Z-2.000000 I-14974.295613 J-8631.815688
G03 X418.129024 Y508.380130 Z-2.000000 I1231.673868 J710.964017
G03 X419.785838 Y505.527811 Z-2.000000 I3563.796274 J2068.178841
G02 X420.802258 Y503.770479 Z-2.000000 I-20984.080031 J-12143.396750
G02 X421.818524 Y502.013060 Z-2.000000 I-19318.690797 J-11168.151857
G01 X422.755272 Y500.411378 Z-2.000000
G02 X424.727332 Y496.578494 Z-2.000000 I-39.234015 J-22.610089
G02 X426.281698 Y492.543369 Z-2.000000 I-32.873073 J-14.979938
G03 X427.044994 Y491.492243 Z-2.000000 I11.635645 J7.646753
G03 X427.834106 Y490.602859 Z-2.000000 I9.108371 J7.286697
G02 X429.979895 Y487.099081 Z-2.000000 I-9.368108 J-8.146182
G02 X430.706061 Y483.073679 Z-2.000000 I-9.327480 J-3.760840
G01 X430.672095 Y481.395140 Z-2.000000
G01 X430.628441 Y480.124103 Z-2.000000
G02 X428.190763 Y483.342641 Z-2.000000 I32.683276 J27.286279
G02 X426.056114 Y486.767926 Z-2.000000 I38.303324 J26.248560
G01 X424.867398 Y488.862764 Z-2.000000
G01 X424.244292 Y489.969656 Z-2.000000
G03 X422.923618 Y492.306945 Z-2.000000 I-738.874105 J-415.955536
G03 X421.598784 Y494.641890 Z-2.000000 I-5963.536221 J-3382.135029
G02 X420.913564 Y495.849839 Z-2.000000 I3051.151693 J1731.578737
G02 X420.228815 Y497.058052 Z-2.000000 I3162.662640 J1793.236823
G03 X416.883588 Y502.919267 Z-2.000000 I-946.345728 J-536.231705
G03 X413.513140 Y508.766035 Z-2.000000 I-2428.746335 J-1396.188216
G01 X412.357776 Y510.766431 Z-2.000000
G03 X411.203497 Y512.764678 Z-2.000000 I-20557.108094 J-11862.771708
G03 X410.049026 Y514.762821 Z-2.000000 I-21514.752832 J-12440.936152
G02 X407.142449 Y519.797670 Z-2.000000 I8354.630687 J4826.485516
G02 X404.237501 Y524.833461 Z-2.000000 I112802.482904 J65061.965720
G01 X403.074407 Y526.849164 Z-2.000000
G02 X400.151184 Y531.916998 Z-2.000000 I17203.316453 J9926.643976
G02 X397.229833 Y536.985905 Z-2.000000 I11436.027789 J6594.244905
G03 X391.609813 Y546.714691 Z-2.000000 I-4421.013854 J-2547.396091
G03 X385.957893 Y556.424969 Z-2.000000 I-2228.486388 J-1290.602408
G02 X380.940450 Y565.077619 Z-2.000000 I1157.835763 J677.179441
G02 X375.971732 Y573.758198 Z-2.000000 I2298.193159 J1321.236147
G03 X371.108579 Y582.228433 Z-2.000000 I-1370.124599 J-781.020694
G03 X366.197738 Y590.671186 Z-2.000000 I-1665.289172 J-962.988225
G02 X362.036846 Y597.817448 Z-2.000000 I1840.207383 J1076.240220
G02 X357.898114 Y604.976537 Z-2.000000 I3092.182864 J1792.393659
G01 X356.716677 Y607.025291 Z-2.000000
G02 X355.641148 Y608.893212 Z-2.000000 I2519.916755 J1452.187703
G02 X354.567107 Y610.761987 Z-2.000000 I2195.924653 J1263.304618
G03 X353.693681 Y612.269155 Z-2.000000 I-332.434707 J-191.644035
G03 X352.812158 Y613.771597 Z-2.000000 I-241.781039 J-140.849673
G02 X351.394019 Y616.674447 Z-2.000000 I18.076016 J10.628567
G02 X351.145138 Y617.977956 Z-2.000000 I3.289120 J1.303509
G01 X349.282248 Y617.977956 Z-2.000000
G01 X349.282248 Y617.977956 Z-2.000000
G00 Z1.000000

(End cutting path id: path28)

(Start cutting path id: path47)
(Change tool to Default tool)

G00 Z1.000000
G00 X349.786470 Y615.096066

G01 Z-2.000000 F100.0(Penetrate)
G01 X350.523864 Y616.114834 Z-2.000000 F1000.000000
G02 X357.167905 Y605.151106 Z-2.000000 I-271.545805 J-172.052302
G02 X363.571674 Y594.045471 Z-2.000000 I-3036.812690 J-1758.496333
G03 X366.514898 Y588.933630 Z-2.000000 I2904.123848 J1668.692925
G03 X369.463245 Y583.824742 Z-2.000000 I20961.224316 J12093.333532
G01 X371.791858 Y579.788480 Z-2.000000
G01 X372.956164 Y577.770350 Z-2.000000
G01 X414.873155 Y505.114156 Z-2.000000
G03 X416.027547 Y503.113421 Z-2.000000 R37190.276661
G03 X417.182064 Y501.112762 Z-2.000000 R35846.317193
G02 X419.915521 Y496.373913 Z-2.000000 I-12727.999597 J-7344.896848
G02 X422.646206 Y491.633465 Z-2.000000 I-5946.133949 J-3428.367084
G03 X423.938766 Y489.388383 Z-2.000000 I8677.907042 J4994.458753
G03 X425.231692 Y487.143516 Z-2.000000 I32091.257938 J18483.739246
G02 X426.146109 Y485.554343 Z-2.000000 I-3004.898097 J-1730.072940
G02 X427.060020 Y483.964867 Z-2.000000 I-14024.468962 J-8065.101041
G01 X428.175810 Y482.027995 Z-2.000000
G01 X429.158950 Y480.319284 Z-2.000000
G03 X430.181329 Y478.654919 Z-2.000000 I47.468883 J28.012781
G03 X431.249094 Y477.019057 Z-2.000000 I84.708013 J54.124463
G02 X431.287994 Y474.845607 Z-2.000000 I-68.033375 J-2.304733
G02 X431.249094 Y472.672314 Z-2.000000 I-54.821627 J-0.105728
G02 X428.811417 Y475.890845 Z-2.000000 I32.682771 J27.285937
G02 X426.676767 Y479.316130 Z-2.000000 I38.303227 J26.248506
G01 X425.488051 Y481.410975 Z-2.000000
G01 X424.864945 Y482.517861 Z-2.000000
G03 X423.544270 Y484.855154 Z-2.000000 I-738.279976 J-415.619424
G03 X422.219437 Y487.190094 Z-2.000000 I-5976.554527 J-3389.524055
G02 X421.534217 Y488.398043 Z-2.000000 I3051.151690 J1731.578735
G02 X420.849467 Y489.606256 Z-2.000000 I3162.662639 J1793.236825
G03 X417.504240 Y495.467474 Z-2.000000 I-946.207975 J-536.152800
G03 X414.133793 Y501.314246 Z-2.000000 I-2429.673341 J-1396.721845
G01 X412.978428 Y503.314636 Z-2.000000
G03 X411.824150 Y505.312883 Z-2.000000 R23734.362471
G03 X410.669679 Y507.311025 Z-2.000000 R24852.795177
G02 X407.763091 Y512.345870 Z-2.000000 I8409.474990 J4858.138035
G02 X404.858153 Y517.381672 Z-2.000000 I87583.926545 J50522.544791
G01 X402.529541 Y521.417933 Z-2.000000
G01 X396.707859 Y531.508885 Z-2.000000
G01 X394.380762 Y535.542116 Z-2.000000
G02 X391.457475 Y540.610105 Z-2.000000 I17758.269901 J10246.808403
G02 X388.536036 Y545.679162 Z-2.000000 I11408.001795 J6578.038239
G03 X382.916017 Y555.407944 Z-2.000000 I-4420.525340 J-2547.114621
G03 X377.264097 Y565.118222 Z-2.000000 I-2228.717094 J-1290.736738
G02 X372.248704 Y573.767039 Z-2.000000 I1161.989919 J679.609034
G02 X367.282312 Y582.443947 Z-2.000000 I2238.484587 J1286.998534
G03 X362.805377 Y590.248843 Z-2.000000 I-1410.460529 J-803.862267
G03 X358.285906 Y598.029277 Z-2.000000 I-1452.687803 J-838.629257
G01 X357.206497 Y599.884284 Z-2.000000
G03 X354.905426 Y603.808707 Z-2.000000 I-658.016539 J-383.188714
G03 X352.561400 Y607.707572 Z-2.000000 I-244.845999 J-144.549133
G01 X351.822794 Y608.935249 Z-2.000000
G03 X350.886286 Y610.475411 Z-2.000000 I-190.938974 J-115.047036
G03 X349.941711 Y612.010654 Z-2.000000 I-640.537635 J-393.039576
G02 X349.580140 Y613.639188 Z-2.000000 I4.614344 J1.878894
G02 X349.786470 Y615.096066 Z-2.000000 I3.871266 J0.194781
G01 X349.786470 Y615.096066 Z-2.000000
G00 Z1.000000

(End cutting path id: path47)

(Start cutting path id: path50)
(Change tool to Default tool)

G00 Z1.000000
G00 X347.419358 Y611.147360

G01 Z-2.000000 F100.0(Penetrate)
G01 X348.661285 Y613.010250 Z-2.000000 F1000.000000
G02 X353.599057 Y604.892778 Z-2.000000 I-358.969457 J-223.917851
G02 X358.363837 Y596.671153 Z-2.000000 I-407.774386 J-241.814013
G03 X359.675451 Y594.365211 Z-2.000000 I2997.613150 J1703.503175
G03 X360.988376 Y592.060016 Z-2.000000 I6255.074097 J3561.080354
G01 X361.648643 Y590.900845 Z-2.000000
G03 X364.764133 Y585.490895 Z-2.000000 I648.401456 J369.800309
G03 X367.911147 Y580.099195 Z-2.000000 I1632.390581 J949.175585
G02 X372.592285 Y572.040401 Z-2.000000 I-1140.473369 J-667.859361
G02 X377.225597 Y563.954149 Z-2.000000 I-1688.370927 J-972.784099
G03 X382.410962 Y554.914693 Z-2.000000 I1595.256673 J909.091072
G03 X387.647502 Y545.904677 Z-2.000000 I1595.968450 J921.535624
G02 X393.353295 Y536.086966 Z-2.000000 I-1819.958856 J-1064.278778
G02 X399.026927 Y526.250642 Z-2.000000 I-8485.617385 J-4901.093272
G03 X401.941880 Y521.194838 Z-2.000000 I8669.996144 J4995.409997
G03 X404.858464 Y516.139975 Z-2.000000 I81506.682309 J47021.082834
G01 X407.187076 Y512.103713 Z-2.000000
G01 X408.351383 Y510.085582 Z-2.000000
G01 X411.844301 Y504.031190 Z-2.000000
G01 X413.010122 Y502.010483 Z-2.000000
G01 X415.323577 Y497.999991 Z-2.000000
G03 X418.028580 Y493.311896 Z-2.000000 I18070.248799 J10423.508192
G03 X420.735589 Y488.624960 Z-2.000000 I7850.342027 J4530.917461
G02 X421.690113 Y486.973046 Z-2.000000 I-11111.812368 J-6421.363199
G02 X422.644455 Y485.321032 Z-2.000000 I-23619.695059 J-13647.935582
G03 X423.838791 Y483.254220 Z-2.000000 I7879.228319 J4551.701444
G03 X425.033704 Y481.187745 Z-2.000000 I6954.449633 J4019.977440
G02 X426.101383 Y479.334895 Z-2.000000 I-948.820260 J-547.978246
G02 X427.165236 Y477.479855 Z-2.000000 I-853.921594 J-490.950717
G03 X428.125052 Y475.827591 Z-2.000000 I195.124281 J112.244661
G03 X429.099685 Y474.184018 Z-2.000000 I173.651326 J101.863913
G01 X429.963818 Y472.713782 Z-2.000000
G01 X430.720313 Y471.453810 Z-2.000000
G02 X431.233333 Y469.302285 Z-2.000000 I-6.324397 J-2.644948
G02 X431.249404 Y467.083874 Z-2.000000 I-17.086401 J-1.233044
G02 X429.089715 Y469.559196 Z-2.000000 I8.770975 J9.832383
G02 X427.358678 Y472.364490 Z-2.000000 I34.581095 J23.275368
G01 X426.163901 Y474.471456 Z-2.000000
G01 X425.533065 Y475.593809 Z-2.000000
G03 X424.202316 Y477.951780 Z-2.000000 I-681.699946 J-383.170878
G03 X422.866996 Y480.307163 Z-2.000000 I-5634.449753 J-3192.742329
G02 X422.176608 Y481.525363 Z-2.000000 I2773.101417 J1572.416840
G02 X421.486750 Y482.743867 Z-2.000000 I2809.198797 J1591.219616
G03 X418.134416 Y488.621609 Z-2.000000 I-891.636881 J-504.644562
G03 X414.755067 Y494.483879 Z-2.000000 I-2258.353884 J-1297.939978
G01 X412.445859 Y498.481331 Z-2.000000
G01 X411.293681 Y500.475207 Z-2.000000
G02 X409.540319 Y503.514045 Z-2.000000 I4069.863290 J2350.278307
G02 X407.788635 Y506.553854 Z-2.000000 I8490.010968 J4894.350432
G03 X402.167551 Y516.285146 Z-2.000000 I-4305.373396 J-2480.422200
G03 X396.514270 Y525.997767 Z-2.000000 I-2229.314086 J-1291.082374
G02 X391.496826 Y534.650419 Z-2.000000 I1157.853040 J677.189397
G02 X386.528108 Y543.330995 Z-2.000000 I2298.295399 J1321.294980
G03 X381.657349 Y551.814136 Z-2.000000 I-1364.521278 J-777.826242
G03 X376.739105 Y560.269909 Z-2.000000 I-1701.139535 J-983.798373
G02 X371.037384 Y570.080781 Z-2.000000 I1813.404397 J1060.446775
G02 X365.367866 Y579.910299 Z-2.000000 I8493.101291 J4905.242469
G03 X363.579094 Y583.011753 Z-2.000000 I-4847.978421 J-2794.032641
G03 X361.788837 Y586.112351 Z-2.000000 I-9769.909990 J-5638.928031
G02 X354.586179 Y598.619570 Z-2.000000 I5006.980623 J2891.748034
G02 X347.419358 Y611.147360 Z-2.000000 I3875.082678 J2225.147215
G01 X347.419358 Y611.147360 Z-2.000000
G00 Z1.000000

(End cutting path id: path50)

(Start cutting path id: path350)
(Change tool to Default tool)

G00 Z1.000000
G00 X346.177432 Y618.598920

G01 Z-2.000000 F100.0(Penetrate)
G01 X346.487913 Y620.655861 Z-2.000000 F1000.000000
G03 X346.747006 Y622.874562 Z-2.000000 I-26.507706 J4.219957
G03 X346.798395 Y624.808553 Z-2.000000 I-20.078532 J1.501199
G01 X348.661285 Y624.808553 Z-2.000000
G02 X349.026493 Y623.771816 Z-2.000000 I-5.332547 J-2.461175
G02 X349.282248 Y622.324700 Z-2.000000 I-10.184264 J-2.546066
G02 X348.055286 Y620.348574 Z-2.000000 I-31.134267 J17.962077
G02 X346.798395 Y618.598920 Z-2.000000 I-25.654084 J17.102722
G01 X346.177432 Y618.598920 Z-2.000000
G01 X346.177432 Y618.598920 Z-2.000000
G00 Z1.000000

(End cutting path id: path350)

(Start cutting path id: path237)
(Change tool to Default tool)

G00 Z1.000000
G00 X346.798395 Y590.655571

G01 Z-2.000000 F100.0(Penetrate)
G01 X348.040322 Y593.760388 Z-2.000000 F1000.000000
G01 X351.766101 Y593.760388 Z-2.000000
G01 X351.766101 Y590.034608 Z-2.000000
G02 X349.592736 Y590.015198 Z-2.000000 I-2.135907 J117.474950
G02 X347.419358 Y590.034608 Z-2.000000 I0.040233 J126.195129
G01 X346.798395 Y590.655571 Z-2.000000
G01 X346.798395 Y590.655571 Z-2.000000
G00 Z1.000000

(End cutting path id: path237)

(Start cutting path id: path18)
(Change tool to Default tool)

G00 Z1.000000
G00 X351.145138 Y586.929791

G01 Z-2.000000 F100.0(Penetrate)
G01 X351.766101 Y588.094098 Z-2.000000 F1000.000000
G03 X352.616682 Y590.871852 Z-2.000000 I-9.241612 J4.348994
G03 X353.008028 Y593.760388 Z-2.000000 I-72.789139 J11.332438
G02 X355.321470 Y590.722850 Z-2.000000 I-33.911906 J-28.227646
G02 X357.330515 Y587.480411 Z-2.000000 I-29.613736 J-20.592576
G01 X358.358833 Y585.621311 Z-2.000000
G01 X359.450522 Y583.630924 Z-2.000000
G03 X363.923517 Y575.647285 Z-2.000000 I850.327287 J471.168190
G03 X368.493300 Y567.718739 Z-2.000000 I533.455795 J302.187176
G02 X373.009413 Y559.984327 Z-2.000000 I-2425.075268 J-1421.183768
G02 X377.497268 Y552.233467 Z-2.000000 I-1881.436014 J-1094.552190
G01 X378.668700 Y550.200934 Z-2.000000
G02 X379.843918 Y548.161242 Z-2.000000 R33014.249698
G02 X381.018992 Y546.121466 Z-2.000000 R33305.534122
G03 X383.933944 Y541.065663 Z-2.000000 I8676.560833 J4999.084865
G03 X386.850528 Y536.010800 Z-2.000000 I81033.570285 J46757.866589
G01 X389.179141 Y531.974539 Z-2.000000
G01 X390.343447 Y529.956408 Z-2.000000
G01 X395.000823 Y521.883581 Z-2.000000
G01 X397.327920 Y517.850350 Z-2.000000
G02 X400.251207 Y512.782363 Z-2.000000 I-17791.491362 J-10265.568180
G02 X403.172645 Y507.713310 Z-2.000000 I-11394.324044 J-6570.327641
G03 X409.319662 Y497.079774 Z-2.000000 I3780.246139 J2178.184553
G03 X415.502166 Y486.466846 Z-2.000000 I2747.423562 J1593.389702
G02 X418.501317 Y481.301908 Z-2.000000 I-1045.454943 J-610.522882
G02 X421.474082 Y476.121802 Z-2.000000 I-983.647272 J-567.939684
G01 X422.149976 Y474.936892 Z-2.000000
G02 X423.777580 Y472.078653 Z-2.000000 I-2986.816301 J-1702.715200
G02 X425.402252 Y469.218739 Z-2.000000 I-2606.929778 J-1482.846709
G03 X427.946979 Y464.798754 Z-2.000000 I427.861517 J243.391030
G03 X430.606608 Y460.447328 Z-2.000000 I104.646477 J60.972316
G02 X431.652040 Y458.328677 Z-2.000000 I-10.891293 J-6.691479
G02 X431.870368 Y457.148461 Z-2.000000 I-3.080788 J-1.180216
G01 X423.797845 Y457.148461 Z-2.000000
G01 X392.361426 Y511.638295 Z-2.000000
G01 X390.034329 Y515.671526 Z-2.000000
G02 X387.111042 Y520.739512 Z-2.000000 I17788.871733 J10264.367813
G02 X384.189604 Y525.808568 Z-2.000000 I11389.297683 J6567.301175
G03 X378.569609 Y535.537365 Z-2.000000 I-4431.471851 J-2553.422557
G03 X372.917664 Y545.247630 Z-2.000000 I-2220.641854 J-1286.044154
G02 X369.473943 Y551.161609 Z-2.000000 I1471.116085 J860.593165
G02 X366.062811 Y557.094445 Z-2.000000 I847.298013 J491.107907
G01 X365.429966 Y558.203956 Z-2.000000
G02 X363.852400 Y560.975014 Z-2.000000 I2547.487741 J1452.122689
G02 X362.277907 Y563.747818 Z-2.000000 I2454.165740 J1395.392135
G03 X359.256550 Y568.994666 Z-2.000000 I-455.834263 J-258.995269
G03 X356.151655 Y574.192767 Z-2.000000 I-256.339063 J-149.588441
G01 X354.999628 Y576.088099 Z-2.000000
G03 X353.923078 Y577.837398 Z-2.000000 I-267.198148 J-163.232682
G03 X352.834443 Y579.579199 Z-2.000000 I-239.554686 J-148.511835
G01 X351.880106 Y581.144645 Z-2.000000
G01 X351.037046 Y582.494361 Z-2.000000
G02 X350.723139 Y584.712032 Z-2.000000 I4.637525 J1.787484
G02 X351.145138 Y586.929791 Z-2.000000 I11.112420 J-0.965462
G01 X351.145138 Y586.929791 Z-2.000000
G00 Z1.000000

(End cutting path id: path18)

(Start cutting path id: path100)
(Change tool to Default tool)

G00 Z1.000000
G00 X336.242019 Y572.647635

G01 Z-2.000000 F100.0(Penetrate)
G02 X338.338821 Y577.363636 Z-2.000000 I25.482130 J-8.505590 F1000.000000
G02 X340.899244 Y581.845654 Z-2.000000 I505.006746 J-285.520581
G01 X341.837966 Y583.508429 Z-2.000000
G01 X342.742728 Y585.079029 Z-2.000000
G01 X343.566233 Y586.516978 Z-2.000000
G01 X344.314542 Y587.550755 Z-2.000000
G01 X345.556468 Y587.550755 Z-2.000000
G02 X347.090189 Y584.207283 Z-2.000000 I-16.494995 J-9.590112
G02 X347.324758 Y582.447212 Z-2.000000 I-4.200858 J-1.455525
G02 X345.968985 Y579.070398 Z-2.000000 I-20.270732 J6.178018
G02 X344.236921 Y575.868882 Z-2.000000 I-57.693971 J29.143931
G01 X343.548040 Y574.565102 Z-2.000000
G02 X342.491164 Y572.897630 Z-2.000000 I-21.439931 J12.420370
G02 X341.209725 Y571.405709 Z-2.000000 I-7.726838 J5.340440
G02 X338.848705 Y571.266808 Z-2.000000 I-2.361021 J19.996815
G02 X336.862982 Y571.405709 Z-2.000000 I0.000000 J14.263430
G01 X336.242019 Y572.647635 Z-2.000000
G01 X336.242019 Y572.647635 Z-2.000000
G00 Z1.000000

(End cutting path id: path100)

(Start cutting path id: path380)
(Change tool to Default tool)

G00 Z1.000000
G00 X336.862982 Y565.817039

G01 Z-2.000000 F100.0(Penetrate)
G02 X337.476174 Y567.120994 Z-2.000000 I27.379364 J-12.079131 F1000.000000
G02 X338.104909 Y568.300892 Z-2.000000 I23.042720 J-11.521360
G02 X339.140558 Y565.602566 Z-2.000000 I-7.414047 J-4.393510
G02 X339.346835 Y562.712222 Z-2.000000 I-11.237906 J-2.254555
G02 X337.971697 Y564.156804 Z-2.000000 I14.721125 J15.390267
G02 X336.862982 Y565.817039 Z-2.000000 I6.044313 J5.236749
G01 X336.862982 Y565.817039 Z-2.000000
G00 Z1.000000

(End cutting path id: path380)

(Start cutting path id: path13)
(Change tool to Default tool)

G00 Z1.000000
G00 X340.588762 Y564.575112

G01 Z-2.000000 F100.0(Penetrate)
G02 X341.833227 Y570.768471 Z-2.000000 I18.089798 J-0.413173 F1000.000000
G02 X344.663834 Y576.412225 Z-2.000000 I32.294691 J-12.665580
G01 X345.642579 Y578.041041 Z-2.000000
G02 X346.834872 Y580.005606 Z-2.000000 I286.605090 J-172.596422
G02 X348.040322 Y581.962085 Z-2.000000 I298.363460 J-182.481727
G02 X350.401053 Y578.850722 Z-2.000000 I-32.471405 J-27.088795
G02 X352.450131 Y575.529293 Z-2.000000 I-32.091867 J-22.091110
G01 X353.517260 Y573.602276 Z-2.000000
G01 X354.638057 Y571.560950 Z-2.000000
G03 X358.410704 Y564.798787 Z-2.000000 I1257.463098 J697.112053
G03 X362.283667 Y558.093808 Z-2.000000 I276.277830 J155.113920
G02 X366.107935 Y551.585904 Z-2.000000 I-761.430402 J-451.820212
G02 X369.890468 Y545.053579 Z-2.000000 I-1522.038476 J-885.695304
G01 X371.091007 Y542.970107 Z-2.000000
G02 X372.309293 Y540.855076 Z-2.000000 R29995.034063
G02 X373.527409 Y538.739947 Z-2.000000 R30770.626346
G03 X376.462192 Y533.649018 Z-2.000000 I7327.381631 J4220.636593
G03 X379.398968 Y528.559241 Z-2.000000 I57650.023462 J33261.043589
G01 X381.727581 Y524.522979 Z-2.000000
G01 X382.891887 Y522.504849 Z-2.000000
G01 X387.549263 Y514.432023 Z-2.000000
G01 X389.876360 Y510.398793 Z-2.000000
G02 X392.799648 Y505.330804 Z-2.000000 I-17784.798547 J-10261.907533
G02 X395.721086 Y500.261751 Z-2.000000 I-11405.233128 J-6576.530042
G03 X400.808356 Y491.445506 Z-2.000000 I7060.863916 J4068.480619
G03 X405.927415 Y482.647673 Z-2.000000 I1476.484372 J853.210893
G02 X406.984500 Y480.830489 Z-2.000000 I-557.084934 J-325.281335
G02 X408.035598 Y479.009828 Z-2.000000 I-546.505533 J-316.720361
G03 X410.725505 Y474.433307 Z-2.000000 I268.335071 J154.638535
G03 X413.521337 Y469.921775 Z-2.000000 I153.377664 J91.927265
G02 X414.977794 Y467.601452 Z-2.000000 I-178.361418 J-113.573949
G02 X416.414523 Y465.268854 Z-2.000000 I-581.505634 J-359.778526
G03 X417.122452 Y464.152246 Z-2.000000 I78.320500 J48.872507
G03 X417.846675 Y463.046134 Z-2.000000 I74.114281 J47.735918
G02 X419.895270 Y459.622757 Z-2.000000 I-35.396497 J-23.506383
G02 X421.313991 Y455.906534 Z-2.000000 I-13.773369 J-7.387100
G02 X420.128222 Y452.893622 Z-2.000000 I-16.637712 J4.808185
G02 X418.489944 Y450.098950 Z-2.000000 I-23.451857 J11.870305
G03 X417.770609 Y448.448373 Z-2.000000 I4.161036 J-2.795447
G03 X417.713584 Y446.789470 Z-2.000000 I4.147770 J-0.973011
G03 X418.770426 Y444.408790 Z-2.000000 I14.306306 J4.925997
G03 X420.110875 Y442.167721 Z-2.000000 I32.606546 J17.981519
G02 X421.581009 Y439.239250 Z-2.000000 I-12.741288 J-8.229557
G02 X421.934955 Y437.277635 Z-2.000000 I-5.258797 J-1.961615
G01 X423.176881 Y437.277635 Z-2.000000
G01 X422.747541 Y436.142440 Z-2.000000
G01 X422.206626 Y434.638541 Z-2.000000
G01 X421.660855 Y433.154054 Z-2.000000
G03 X421.482666 Y431.148714 Z-2.000000 I6.833112 J-1.617760
G03 X421.934955 Y429.205112 Z-2.000000 I5.773778 J0.319170
G01 X423.797845 Y427.963186 Z-2.000000
G01 X423.176881 Y426.100296 Z-2.000000
G01 X421.313991 Y425.479332 Z-2.000000
G02 X414.401418 Y437.102042 Z-2.000000 I555.420346 J338.201631
G02 X407.635213 Y448.810631 Z-2.000000 I2717.834721 J1578.402227
G03 X404.696213 Y453.912021 Z-2.000000 I-4128.936157 J-2375.355304
G03 X401.753647 Y459.011351 Z-2.000000 I-31247.580508 J-18027.977156
G01 X399.425035 Y463.047612 Z-2.000000
G01 X398.260729 Y465.065743 Z-2.000000
G01 X356.343583 Y537.722240 Z-2.000000
G03 X355.189987 Y539.721476 Z-2.000000 I-20917.329666 J-12078.207238
G03 X354.036196 Y541.720600 Z-2.000000 I-20239.308828 J-11670.535678
G02 X351.293270 Y546.476382 Z-2.000000 I8071.816714 J4658.638964
G02 X348.554671 Y551.234653 Z-2.000000 I3869.000275 J2229.950596
G03 X347.253169 Y553.497893 Z-2.000000 I-5647.757042 J-3246.300808
G03 X345.951089 Y555.760799 Z-2.000000 I-20426.345095 J-11751.836917
G02 X345.026297 Y557.370361 Z-2.000000 I1985.103160 J1141.636087
G02 X344.102299 Y558.980379 Z-2.000000 I9166.200390 J5261.571906
G01 X342.980441 Y560.929379 Z-2.000000
G01 X341.987445 Y562.657797 Z-2.000000
G03 X341.237872 Y563.843599 Z-2.000000 I-9.271198 J-5.030732
G03 X340.588762 Y564.575112 Z-2.000000 I-4.141570 J-3.021280
G01 X340.588762 Y564.575112 Z-2.000000
G00 Z1.000000

(End cutting path id: path13)

(Start cutting path id: path58)
(Change tool to Default tool)

G00 Z1.000000
G00 X336.242019 Y558.986443

G01 Z-2.000000 F100.0(Penetrate)
G01 X338.104909 Y558.986443 Z-2.000000 F1000.000000
G01 X338.869136 Y557.646581 Z-2.000000
G03 X347.514048 Y542.537670 Z-2.000000 I6088.736039 J3473.782842
G03 X356.200471 Y527.452543 Z-2.000000 I5010.001293 J2874.850421
G02 X359.107059 Y522.417699 Z-2.000000 I-8410.770042 J-4858.921130
G02 X362.011996 Y517.381901 Z-2.000000 I-87809.598120 J-50649.026490
G01 X364.340608 Y513.345640 Z-2.000000
G01 X398.107004 Y454.817122 Z-2.000000
G03 X399.263645 Y452.812582 Z-2.000000 I23380.058933 J13484.752026
G03 X400.420458 Y450.808146 Z-2.000000 I22818.397079 J13172.008799
G02 X403.128471 Y446.113099 Z-2.000000 I-9029.667435 J-5211.271614
G02 X405.832470 Y441.415735 Z-2.000000 I-3945.782930 J-2274.483625
G03 X406.786721 Y439.756512 Z-2.000000 I5531.200646 J3180.057477
G03 X407.741336 Y438.097499 Z-2.000000 I12003.913582 J6905.801871
G02 X408.936538 Y436.019058 Z-2.000000 I-3993.180104 J-2297.653097
G02 X410.130585 Y433.939957 Z-2.000000 I-3524.498526 J-2025.533459
G03 X412.547103 Y429.799278 Z-2.000000 I351.119804 J202.139475
G03 X415.060699 Y425.717043 Z-2.000000 I116.433948 J68.878080
G02 X416.127150 Y423.554708 Z-2.000000 I-11.313008 J-6.923662
G02 X416.346285 Y422.374516 Z-2.000000 I-3.068502 J-1.180192
G01 X414.483395 Y422.374516 Z-2.000000
G01 X413.709315 Y423.734084 Z-2.000000
G03 X406.439121 Y436.444939 Z-2.000000 I-3634.259845 J-2070.243144
G03 X399.095906 Y449.113842 Z-2.000000 I-1587.001772 J-911.403673
G02 X393.389055 Y458.933363 Z-2.000000 I1821.542220 J1065.200995
G02 X387.714358 Y468.771509 Z-2.000000 I8471.281645 J4892.838149
G03 X384.799405 Y473.827313 Z-2.000000 I-8669.996144 J-4995.409998
