(Header)
(Generated by gcodetools from Inkscape.)
(Using default header. To add your own header create file "header" in the output dir.)
M3
(Header end.)
G21 (All units in mm)
G28
(Pass at depth -1.0)
(Start cutting path id: path399)
(Change tool to Default tool)

G00 Z1.000000 F10000.0
G00 X83.869203 Y165.046798

G01 Z-2.000000 F1000.0(Penetrate)
G01 X84.189628 Y165.527422 Z-2.000000 F1000.000000
G01 X84.670247 Y164.726369 Z-2.000000
G01 X84.189615 Y164.405956 Z-2.000000
G01 X83.869203 Y165.046798 Z-2.000000
G01 X83.869203 Y165.046798 Z-2.000000
G00 Z1.000000

(End cutting path id: path399)

(Start cutting path id: path381)
(Change tool to Default tool)

G00 Z1.000000
G00 X83.708982 Y164.085543

G01 Z-2.000000 F1000.0(Penetrate)
G01 X84.189611 Y164.085537 Z-2.000000 F1000.000000
G01 X84.510018 Y163.124276 Z-2.000000
G01 X84.189595 Y162.803861 Z-2.000000
G02 X83.802031 Y163.572372 Z-2.000000 I3.339513 J2.166113
G02 X83.708982 Y164.085543 Z-2.000000 I1.368459 J0.513153
G01 X83.708982 Y164.085543 Z-2.000000
G00 Z1.000000

(End cutting path id: path381)

(Start cutting path id: path359)
(Change tool to Default tool)

G00 Z1.000000
G00 X84.349857 Y167.129515

G01 Z-2.000000 F1000.0(Penetrate)
G01 X84.670276 Y167.129511 Z-2.000000 F1000.000000
G01 X85.471304 Y165.527407 Z-2.000000
G01 X85.150883 Y165.367201 Z-2.000000
G02 X84.950077 Y165.717348 Z-2.000000 I88.626969 J51.059360
G02 X84.750368 Y166.068122 Z-2.000000 I151.495318 J86.484304
G01 X84.525078 Y166.462391 Z-2.000000
G02 X84.389997 Y166.818664 Z-2.000000 I1.613819 J0.815624
G02 X84.349857 Y167.129515 Z-2.000000 I1.183457 J0.310836
G01 X84.349857 Y167.129515 Z-2.000000
G00 Z1.000000

(End cutting path id: path359)

(Start cutting path id: path338)
(Change tool to Default tool)

G00 Z1.000000
G00 X85.311132 Y168.571389

G01 Z-2.000000 F1000.0(Penetrate)
G02 X85.836016 Y167.829934 Z-2.000000 I-3.130317 J-2.772499 F1000.000000
G02 X86.112160 Y166.969284 Z-2.000000 I-2.021377 J-1.123195
G01 X85.791739 Y166.809078 Z-2.000000
G02 X85.399304 Y167.648335 Z-2.000000 I2.146256 J1.514965
G02 X85.311132 Y168.571389 Z-2.000000 I2.729329 J0.726449
G01 X85.311132 Y168.571389 Z-2.000000
G00 Z1.000000

(End cutting path id: path338)

(Start cutting path id: path390)
(Change tool to Default tool)

G00 Z1.000000
G00 X84.349881 Y169.052029

G01 Z-2.000000 F1000.0(Penetrate)
G01 X84.510100 Y169.853074 Z-2.000000 F1000.000000
G02 X84.968373 Y169.333892 Z-2.000000 I-2.125470 J-2.337960
G02 X85.311134 Y168.731598 Z-2.000000 I-2.956702 J-2.081315
G01 X84.349881 Y169.052029 Z-2.000000
G01 X84.349881 Y169.052029 Z-2.000000
G00 Z1.000000

(End cutting path id: path390)

(Start cutting path id: path177)
(Change tool to Default tool)

G00 Z1.000000
G00 X85.000672 Y170.734221

G01 Z-2.000000 F1000.0(Penetrate)
G02 X85.341021 Y171.098285 Z-2.000000 I2.134141 J-1.654001 F1000.000000
G02 X85.631504 Y171.294946 Z-2.000000 I0.888702 J-0.999814
G02 X85.973617 Y170.339335 Z-2.000000 I-1.862968 J-1.205994
G02 X86.052030 Y169.332375 Z-2.000000 I-14.197855 J-1.612139
G01 X86.070800 Y168.970651 Z-2.000000
G02 X86.092225 Y168.530738 Z-2.000000 I-85.910518 J-4.404619
G02 X86.112093 Y168.090750 Z-2.000000 I-224.479176 J-10.356960
G02 X85.041888 Y169.936636 Z-2.000000 I6.669185 J5.099836
G02 X85.000672 Y170.734221 Z-2.000000 I1.084317 J0.455890
G01 X85.000672 Y170.734221 Z-2.000000
G00 Z1.000000

(End cutting path id: path177)

(Start cutting path id: path101)
(Change tool to Default tool)

G00 Z1.000000
G00 X86.272418 Y170.974519

G01 Z-2.000000 F1000.0(Penetrate)
G02 X86.338085 Y172.700198 Z-2.000000 I9.292742 J0.510476 F1000.000000
G02 X86.592867 Y173.407697 Z-2.000000 I1.749539 J-0.230414
G02 X87.443390 Y173.741361 Z-2.000000 I1.399430 J-2.316362
G02 X88.355177 Y173.858265 Z-2.000000 I1.216219 J-5.871691
G02 X88.628090 Y173.163356 Z-2.000000 I-1.464120 J-0.976054
G02 X88.671197 Y172.422008 Z-2.000000 I-3.586334 J-0.580461
G03 X88.699550 Y172.043396 Z-2.000000 I2.025328 J-0.038699
G03 X88.835776 Y171.455116 Z-2.000000 I5.051367 J0.859813
G01 X86.272418 Y170.974519 Z-2.000000
G01 X86.272418 Y170.974519 Z-2.000000
G00 Z1.000000

(End cutting path id: path101)

(Start cutting path id: path79)
(Change tool to Default tool)

G00 Z1.000000
G00 X86.432626 Y170.814308

G01 Z-2.000000 F1000.0(Penetrate)
G01 X88.995983 Y171.294905 Z-2.000000 F1000.000000
G02 X89.803955 Y170.117426 Z-2.000000 I-7.609893 J-6.087763
G02 X90.117426 Y169.372377 Z-2.000000 I-2.696991 J-1.573201
G02 X89.594372 Y168.032060 Z-2.000000 I-4.335055 J0.919523
G02 X88.835719 Y166.809041 Z-2.000000 I-30.805429 J18.262153
G02 X87.996335 Y167.953124 Z-2.000000 I6.563282 J5.695270
G02 X87.273705 Y169.172150 Z-2.000000 I37.421719 J23.007011
G01 X87.027764 Y169.597084 Z-2.000000
G02 X86.472397 Y170.642414 Z-2.000000 I15.268601 J8.782157
G02 X86.432626 Y170.814308 Z-2.000000 I0.351561 J0.171889
G01 X86.432626 Y170.814308 Z-2.000000
G00 Z1.000000

(End cutting path id: path79)

(Start cutting path id: path111)
(Change tool to Default tool)

G00 Z1.000000
G00 X86.432610 Y169.532632

G01 Z-2.000000 F1000.0(Penetrate)
G02 X87.215984 Y168.494516 Z-2.000000 I-9.097045 J-7.679367 F1000.000000
G02 X87.914522 Y167.399825 Z-2.000000 I-22.620783 J-15.204850
G01 X88.137309 Y167.049677 Z-2.000000
G02 X88.589999 Y165.931950 Z-2.000000 I-3.291107 J-1.983464
G02 X88.675484 Y164.726320 Z-2.000000 I-3.778494 J-0.873761
G02 X88.400475 Y164.770180 Z-2.000000 I0.114409 J1.601455
G02 X88.034648 Y164.886537 Z-2.000000 I0.739973 J2.959739
G02 X87.743048 Y165.292924 Z-2.000000 I9.489264 J7.116767
G02 X87.577809 Y165.552414 Z-2.000000 I3.699901 J2.538399
G03 X87.382147 Y165.849465 Z-2.000000 I-3.217852 J-1.906572
G03 X87.139743 Y166.153204 Z-2.000000 I-3.607244 J-2.630215
G02 X86.467819 Y167.769112 Z-2.000000 I2.500814 J1.987537
G02 X86.432610 Y169.532632 Z-2.000000 I9.078328 J1.063364
G01 X86.432610 Y169.532632 Z-2.000000
G00 Z1.000000

(End cutting path id: path111)

(Start cutting path id: path201)
(Change tool to Default tool)

G00 Z1.000000
G00 X84.129626 Y171.775593

G01 Z-2.000000 F1000.0(Penetrate)
G01 X84.349918 Y172.096009 Z-2.000000 F1000.000000
G01 X84.610264 Y172.536582 Z-2.000000
G01 X84.830556 Y172.897051 Z-2.000000
G02 X85.063356 Y172.623246 Z-2.000000 I-2.119755 J-2.038177
G02 X85.311177 Y172.256207 Z-2.000000 I-3.572277 J-2.679140
G02 X85.183414 Y171.542161 Z-2.000000 I-2.330765 J0.048586
G02 X84.820519 Y170.914458 Z-2.000000 I-1.805324 J0.624965
G01 X84.510110 Y170.654122 Z-2.000000
G02 X84.134381 Y171.382432 Z-2.000000 I2.234823 J1.613998
G02 X84.129626 Y171.775593 Z-2.000000 I0.600926 J0.203877
G01 X84.129626 Y171.775593 Z-2.000000
G00 Z1.000000

(End cutting path id: path201)

(Start cutting path id: path360)
(Change tool to Default tool)

G00 Z1.000000
G00 X83.548861 Y171.294972

G01 Z-2.000000 F1000.0(Penetrate)
G01 X83.869280 Y171.294968 Z-2.000000 F1000.000000
G02 X84.247892 Y170.598346 Z-2.000000 I-2.185159 J-1.638827
G02 X84.299828 Y170.123430 Z-2.000000 I-0.930849 J-0.342094
G01 X84.189681 Y169.853078 Z-2.000000
G02 X83.668822 Y170.729656 Z-2.000000 I3.438868 J2.636399
G02 X83.548861 Y171.294972 Z-2.000000 I1.271963 J0.565298
G01 X83.548861 Y171.294972 Z-2.000000
G00 Z1.000000

(End cutting path id: path360)

(Start cutting path id: path389)
(Change tool to Default tool)

G00 Z1.000000
G00 X85.471400 Y173.377671

G01 Z-2.000000 F1000.0(Penetrate)
G01 X85.952028 Y173.377666 Z-2.000000 F1000.000000
G01 X85.791807 Y172.416411 Z-2.000000
G01 X85.471388 Y172.416414 Z-2.000000
G02 X85.393399 Y172.897044 Z-2.000000 I1.441891 J0.480611
G02 X85.471400 Y173.377671 Z-2.000000 I1.519881 J-0.000019
G01 X85.471400 Y173.377671 Z-2.000000
G00 Z1.000000

(End cutting path id: path389)

(Start cutting path id: path379)
(Change tool to Default tool)

G00 Z1.000000
G00 X87.073503 Y174.018490

G01 Z-2.000000 F1000.0(Penetrate)
G01 X87.393931 Y174.819533 Z-2.000000 F1000.000000
G01 X87.554137 Y174.499112 Z-2.000000
G03 X87.881234 Y174.405654 Z-2.000000 I1.565722 J4.860787
G03 X88.194973 Y174.338895 Z-2.000000 I1.101228 J4.404682
G02 X87.841606 Y174.092954 Z-2.000000 I-0.862766 J0.862787
G02 X87.454000 Y173.998459 Z-2.000000 I-0.437431 J0.952086
G01 X87.073503 Y174.018490 Z-2.000000
G01 X87.073503 Y174.018490 Z-2.000000
G00 Z1.000000

(End cutting path id: path379)

(Start cutting path id: path192)
(Change tool to Default tool)

G00 Z1.000000
G00 X86.112267 Y175.780806

G01 Z-2.000000 F1000.0(Penetrate)
G02 X86.495104 Y175.869374 Z-2.000000 I1.668882 J-6.342068 F1000.000000
G02 X86.913317 Y175.941006 Z-2.000000 I1.499468 J-7.497814
G01 X87.233732 Y175.620583 Z-2.000000
G02 X87.039082 Y174.693481 Z-2.000000 I-3.377976 J0.225240
G02 X86.592872 Y173.858286 Z-2.000000 I-3.116089 J1.128002
G01 X86.272453 Y173.858290 Z-2.000000
G02 X86.141357 Y174.815326 Z-2.000000 I9.115133 J1.736100
G02 X86.112267 Y175.780806 Z-2.000000 I8.926659 J0.752138
G01 X86.112267 Y175.780806 Z-2.000000
G00 Z1.000000

(End cutting path id: path192)

(Start cutting path id: path146)
(Change tool to Default tool)

G00 Z1.000000
G00 X84.670384 Y175.941033

G01 Z-2.000000 F1000.0(Penetrate)
G02 X85.151010 Y175.946035 Z-2.000000 I0.470747 J-22.137844 F1000.000000
G02 X85.631641 Y175.941021 Z-2.000000 I-0.010738 J-24.067651
G02 X85.738659 Y175.757738 Z-2.000000 I-0.295340 J-0.295333
G02 X85.807488 Y175.309568 Z-2.000000 I-1.836396 J-0.511400
G01 X85.801849 Y174.729435 Z-2.000000
G01 X85.797461 Y174.148050 Z-2.000000
G01 X85.791823 Y173.698086 Z-2.000000
G01 X84.830564 Y173.537889 Z-2.000000
G02 X84.683511 Y174.736669 Z-2.000000 I7.379419 J1.513633
G02 X84.670384 Y175.941033 Z-2.000000 I19.469686 J0.814470
G01 X84.670384 Y175.941033 Z-2.000000
G00 Z1.000000

(End cutting path id: path146)

(Start cutting path id: path372)
(Change tool to Default tool)

G00 Z1.000000
G00 X83.068277 Y174.979796

G01 Z-2.000000 F1000.0(Penetrate)
G01 X83.388698 Y175.140001 Z-2.000000 F1000.000000
G02 X83.714119 Y174.824593 Z-2.000000 I-9.330092 J-9.951854
G02 X84.029528 Y174.499155 Z-2.000000 I-10.941898 J-10.920292
G01 X84.029524 Y174.178736 Z-2.000000
G01 X83.388686 Y174.178744 Z-2.000000
G01 X83.068277 Y174.979796 Z-2.000000
G01 X83.068277 Y174.979796 Z-2.000000
G00 Z1.000000

(End cutting path id: path372)

(Start cutting path id: path304)
(Change tool to Default tool)

G00 Z1.000000
G00 X81.946811 Y174.979809

G01 Z-2.000000 F1000.0(Penetrate)
G01 X82.587651 Y175.140011 Z-2.000000 F1000.000000
G02 X82.825677 Y174.641896 Z-2.000000 I-1.620427 J-1.080256
G02 X82.847981 Y174.308921 Z-2.000000 I-0.679109 J-0.212724
G01 X82.747847 Y174.018543 Z-2.000000
G01 X82.107011 Y174.178760 Z-2.000000
G01 X81.946811 Y174.979809 Z-2.000000
G01 X81.946811 Y174.979809 Z-2.000000
G00 Z1.000000

(End cutting path id: path304)

(Start cutting path id: path343)
(Change tool to Default tool)

G00 Z1.000000
G00 X80.184491 Y173.698155

G01 Z-2.000000 F1000.0(Penetrate)
G02 X80.318743 Y174.001629 Z-2.000000 I3.282436 J-1.270667 F1000.000000
G02 X80.504918 Y174.338989 Z-2.000000 I4.244655 J-2.122392
G02 X80.849348 Y174.442569 Z-2.000000 I1.269643 J-3.597461
G02 X81.145758 Y174.499191 Z-2.000000 I0.651308 J-2.605368
G01 X81.466169 Y173.858349 Z-2.000000
G01 X80.184491 Y173.698155 Z-2.000000
G01 X80.184491 Y173.698155 Z-2.000000
G00 Z1.000000

(End cutting path id: path343)

(Start cutting path id: path218)
(Change tool to Default tool)

G00 Z1.000000
G00 X79.062991 Y170.974607

G01 Z-2.000000 F1000.0(Penetrate)
G02 X79.402752 Y171.729644 Z-2.000000 I5.108292 J-1.844732 F1000.000000
G02 X79.864056 Y172.416483 Z-2.000000 I3.941241 J-2.148735
G01 X80.504890 Y172.096056 Z-2.000000
G02 X80.163274 Y171.179936 Z-2.000000 I-9.710269 J3.099153
G02 X80.024248 Y170.974596 Z-2.000000 I-0.602638 J0.258282
G02 X79.543617 Y170.969593 Z-2.000000 I-0.490780 J24.062649
G02 X79.062991 Y170.974607 Z-2.000000 I-0.009338 J22.142847
G01 X79.062991 Y170.974607 Z-2.000000
G00 Z1.000000

(End cutting path id: path218)

(Start cutting path id: path332)
(Change tool to Default tool)

G00 Z1.000000
G00 X80.344630 Y167.930611

G01 Z-2.000000 F1000.0(Penetrate)
G01 X80.665053 Y168.251026 Z-2.000000 F1000.000000
G02 X80.865859 Y167.900879 Z-2.000000 I-88.626670 J-51.059188
G02 X81.065568 Y167.550105 Z-2.000000 I-151.496380 J-86.484908
G01 X81.290858 Y167.155837 Z-2.000000
G02 X81.425939 Y166.799563 Z-2.000000 I-1.613819 J-0.815624
G02 X81.466079 Y166.488712 Z-2.000000 I-1.183457 J-0.310836
G02 X81.029591 Y166.705283 Z-2.000000 I0.556816 J1.670380
G02 X80.798336 Y166.944942 Z-2.000000 I0.464033 J0.679163
G01 X80.635002 Y167.299783 Z-2.000000
G01 X80.467913 Y167.655876 Z-2.000000
G01 X80.344630 Y167.930611 Z-2.000000
G01 X80.344630 Y167.930611 Z-2.000000
G00 Z1.000000

(End cutting path id: path332)

(Start cutting path id: path352)
(Change tool to Default tool)

G00 Z1.000000
G00 X80.184413 Y167.289775

G01 Z-2.000000 F1000.0(Penetrate)
G01 X81.145648 Y165.527459 Z-2.000000 F1000.000000
G01 X80.665019 Y165.527465 Z-2.000000
G02 X80.191750 Y166.599153 Z-2.000000 I3.318065 J2.105639
G02 X80.184413 Y167.289775 Z-2.000000 I1.317681 J0.359350
G01 X80.184413 Y167.289775 Z-2.000000
G00 Z1.000000

(End cutting path id: path352)

(Start cutting path id: path373)
(Change tool to Default tool)

G00 Z1.000000
G00 X81.946729 Y168.251011

G01 Z-2.000000 F1000.0(Penetrate)
G02 X82.258613 Y168.335234 Z-2.000000 I2.397070 J-8.256952 F1000.000000
G02 X82.587569 Y168.411213 Z-2.000000 I2.277363 J-9.109923
G02 X82.690160 Y168.226542 Z-2.000000 I-0.271877 J-0.271870
G02 X82.757782 Y167.680255 Z-2.000000 I-2.542459 J-0.592047
G01 X82.747762 Y167.129535 Z-2.000000
G02 X82.338864 Y167.683928 Z-2.000000 I20.340487 J15.430323
G02 X81.946729 Y168.251011 Z-2.000000 I16.476248 J11.812374
G01 X81.946729 Y168.251011 Z-2.000000
G00 Z1.000000

(End cutting path id: path373)

(Start cutting path id: path187)
(Change tool to Default tool)

G00 Z1.000000
G00 X78.902711 Y165.207068

G01 Z-2.000000 F1000.0(Penetrate)
G01 X79.863968 Y165.207056 Z-2.000000 F1000.000000
G02 X80.314205 Y164.485955 Z-2.000000 I-9.011463 J-6.127634
G02 X80.504792 Y164.085582 Z-2.000000 I-2.574204 J-1.470932
G02 X80.356110 Y163.544770 Z-2.000000 I-5.126903 J1.118663
G02 X80.184362 Y163.124329 Z-2.000000 I-3.264151 J1.088095
G02 X79.319850 Y164.030734 Z-2.000000 I5.207709 J5.832491
G02 X78.902711 Y165.207068 Z-2.000000 I1.449999 J1.176311
G01 X78.902711 Y165.207068 Z-2.000000
G00 Z1.000000

(End cutting path id: path187)

(Start cutting path id: path345)
(Change tool to Default tool)

G00 Z1.000000
G00 X75.378120 Y166.648996

G01 Z-2.000000 F1000.0(Penetrate)
G01 X75.698539 Y166.648992 Z-2.000000 F1000.000000
G01 X76.018946 Y165.687731 Z-2.000000
G01 X75.538314 Y165.367318 Z-2.000000
G02 X75.313308 Y165.991225 Z-2.000000 I1.430215 J0.868321
G02 X75.378120 Y166.648996 Z-2.000000 I1.348838 J0.199173
G01 X75.378120 Y166.648996 Z-2.000000
G00 Z1.000000

(End cutting path id: path345)

(Start cutting path id: path346)
(Change tool to Default tool)

G00 Z1.000000
G00 X73.826015 Y166.999554

G01 Z-2.000000 F1000.0(Penetrate)
G01 X73.936164 Y167.450141 Z-2.000000 F1000.000000
G01 X74.576994 Y166.809296 Z-2.000000
G01 X74.256566 Y166.008252 Z-2.000000
G02 X73.913403 Y166.436016 Z-2.000000 I0.599235 J0.832250
G02 X73.826015 Y166.999554 Z-2.000000 I1.052551 J0.451765
G01 X73.826015 Y166.999554 Z-2.000000
G00 Z1.000000

(End cutting path id: path346)

(Start cutting path id: path214)
(Change tool to Default tool)

G00 Z1.000000
G00 X73.135213 Y168.731747

G01 Z-2.000000 F1000.0(Penetrate)
G01 X73.455632 Y168.731743 Z-2.000000 F1000.000000
G01 X73.455628 Y168.411324 Z-2.000000
G01 X75.057723 Y168.411304 Z-2.000000
G01 X75.217922 Y167.610255 Z-2.000000
G02 X74.832560 Y167.587593 Z-2.000000 I-1.496985 J22.167725
G02 X74.446914 Y167.570212 Z-2.000000 I-1.925791 J38.442942
G01 X74.013221 Y167.547688 Z-2.000000
G02 X73.645259 Y167.668023 Z-2.000000 I0.189189 J1.201253
G02 X73.323574 Y167.903161 Z-2.000000 I0.590217 J1.145071
G02 X73.187661 Y168.264405 Z-2.000000 I1.248767 J0.676021
G02 X73.135213 Y168.731747 Z-2.000000 I2.055686 J0.467316
G01 X73.135213 Y168.731747 Z-2.000000
G00 Z1.000000

(End cutting path id: path214)

(Start cutting path id: path333)
(Change tool to Default tool)

G00 Z1.000000
G00 X73.615849 Y169.372579

G01 Z-2.000000 F1000.0(Penetrate)
G01 X74.416898 Y169.532779 Z-2.000000 F1000.000000
G01 X74.737308 Y168.731727 Z-2.000000
G01 X73.776051 Y168.731739 Z-2.000000
G02 X73.654177 Y169.061208 Z-2.000000 I1.439758 J0.719857
G02 X73.615849 Y169.372579 Z-2.000000 I1.245484 J0.311355
G01 X73.615849 Y169.372579 Z-2.000000
G00 Z1.000000

(End cutting path id: path333)

(Start cutting path id: path140)
(Change tool to Default tool)

G00 Z1.000000
G00 X75.217954 Y170.173607

G01 Z-2.000000 F1000.0(Penetrate)
G01 X75.538376 Y170.484009 Z-2.000000 F1000.000000
G03 X76.291038 Y171.278818 Z-2.000000 I-13.477897 J13.516956
G03 X77.017205 Y172.097976 Z-2.000000 I-97.237732 J86.930724
G02 X77.314518 Y172.421838 Z-2.000000 I10.649378 J-9.477970
G02 X77.621127 Y172.736929 Z-2.000000 I11.691426 J-11.070003
G02 X77.425209 Y171.469541 Z-2.000000 I-2.297846 J-0.293626
G02 X76.820051 Y170.353823 Z-2.000000 I-9.124831 J4.227273
G01 X76.588493 Y169.973328 Z-2.000000
G02 X76.305130 Y169.511867 Z-2.000000 I-74.193455 J45.241155
G02 X76.018987 Y169.052131 Z-2.000000 I-78.688229 J48.657198
G02 X75.549210 Y169.561776 Z-2.000000 I3.202749 J3.423544
G02 X75.217954 Y170.173607 Z-2.000000 I1.569716 J1.245462
G01 X75.217954 Y170.173607 Z-2.000000
G00 Z1.000000

(End cutting path id: path140)

(Start cutting path id: path133)
(Change tool to Default tool)

G00 Z1.000000
G00 X74.577127 Y171.134872

G01 Z-2.000000 F1000.0(Penetrate)
G02 X74.876803 Y171.711002 Z-2.000000 I192.857514 J-99.949275 F1000.000000
G02 X75.177927 Y172.286370 Z-2.000000 I280.583593 J-146.479512
G01 X75.346902 Y172.613358 Z-2.000000
G02 X75.872890 Y173.506695 Z-2.000000 I9.710350 J-5.115848
G02 X76.499680 Y174.339038 Z-2.000000 I6.603726 J-4.320715
G01 X77.140507 Y173.377773 Z-2.000000
G02 X76.135649 Y171.993937 Z-2.000000 I-8.289340 J4.962463
G02 X74.897542 Y170.814449 Z-2.000000 I-6.944727 J6.050302
G01 X74.577127 Y171.134872 Z-2.000000
G01 X74.577127 Y171.134872 Z-2.000000
G00 Z1.000000

(End cutting path id: path133)

(Start cutting path id: path164)
(Change tool to Default tool)

G00 Z1.000000
G00 X72.334197 Y171.295109

G01 Z-2.000000 F1000.0(Penetrate)
G02 X72.667406 Y171.517139 Z-2.000000 I4.702025 J-6.695448 F1000.000000
G02 X73.095197 Y171.775728 Z-2.000000 I6.808972 J-10.781164
G01 X73.523260 Y172.026050 Z-2.000000
G02 X74.046403 Y172.308855 Z-2.000000 I11.105840 J-19.918653
G02 X74.577145 Y172.576757 Z-2.000000 I9.137463 J-17.442632
G02 X74.276060 Y171.847139 Z-2.000000 I-17.969411 J6.988357
G02 X73.936289 Y171.134879 Z-2.000000 I-10.873320 J4.749743
G01 X73.615870 Y171.134883 Z-2.000000
G01 X73.565801 Y170.764400 Z-2.000000
G02 X73.340326 Y170.258170 Z-2.000000 I-1.600069 J0.409341
G02 X72.975017 Y169.853215 Z-2.000000 I-1.555917 J1.036343
G02 X72.406485 Y170.954448 Z-2.000000 I9.138973 J5.415537
G02 X72.334197 Y171.295109 Z-2.000000 I0.766489 J0.340651
G01 X72.334197 Y171.295109 Z-2.000000
G00 Z1.000000

(End cutting path id: path164)

(Start cutting path id: path316)
(Change tool to Default tool)

G00 Z1.000000
G00 X71.052507 Y170.173658

G01 Z-2.000000 F1000.0(Penetrate)
G01 X72.013764 Y170.173646 Z-2.000000 F1000.000000
G01 X72.334175 Y169.532804 Z-2.000000
G02 X71.960131 Y169.440010 Z-2.000000 I-1.199571 J4.035101
G02 X71.533126 Y169.372604 Z-2.000000 I-1.038727 J5.193966
G02 X71.194423 Y169.718800 Z-2.000000 I0.841568 J1.162136
G02 X71.052507 Y170.173658 Z-2.000000 I0.657945 J0.454848
G01 X71.052507 Y170.173658 Z-2.000000
G00 Z1.000000

(End cutting path id: path316)

(Start cutting path id: path217)
(Change tool to Default tool)

G00 Z1.000000
G00 X68.809574 Y170.173685

G01 Z-2.000000 F1000.0(Penetrate)
G02 X69.250368 Y170.198644 Z-2.000000 I0.440746 J-3.878985 F1000.000000
G02 X69.770831 Y170.173673 Z-2.000000 I-0.000066 J-5.437788
G02 X70.127954 Y169.774662 Z-2.000000 I-3.423587 J-3.423503
G02 X70.411659 Y169.372618 Z-2.000000 I-3.192423 J-2.553874
G01 X70.411655 Y169.052199 Z-2.000000
G01 X69.450396 Y168.892001 Z-2.000000
G02 X68.888800 Y169.838061 Z-2.000000 I6.270652 J4.362079
G02 X68.809574 Y170.173685 Z-2.000000 I0.671251 J0.335615
G01 X68.809574 Y170.173685 Z-2.000000
G00 Z1.000000

(End cutting path id: path217)

(Start cutting path id: path84)
(Change tool to Default tool)

G00 Z1.000000
G00 X67.688114 Y170.654327

G01 Z-2.000000 F1000.0(Penetrate)
G02 X68.583049 Y172.453363 Z-2.000000 I64.676587 J-31.051458 F1000.000000
G02 X69.610670 Y174.178913 Z-2.000000 I14.521280 J-7.479129
G01 X69.931089 Y174.178909 Z-2.000000
G02 X70.106332 Y173.928539 Z-2.000000 I-3.805908 J-2.850408
G02 X70.312831 Y173.594390 Z-2.000000 I-6.577272 J-4.295533
G01 X70.528734 Y173.226406 Z-2.000000
G01 X70.752147 Y172.837144 Z-2.000000
G01 X70.979314 Y172.451637 Z-2.000000
G02 X71.463494 Y171.480170 Z-2.000000 I-7.311300 J-4.250348
G02 X71.533147 Y171.134909 Z-2.000000 I-0.820826 J-0.345250
G02 X69.634605 Y170.684888 Z-2.000000 I-2.294173 J5.448848
G02 X67.688114 Y170.654327 Z-2.000000 I-1.271025 J18.951020
G01 X67.688114 Y170.654327 Z-2.000000
G00 Z1.000000

(End cutting path id: path84)

(Start cutting path id: path159)
(Change tool to Default tool)

G00 Z1.000000
G00 X66.726835 Y168.892035

G01 Z-2.000000 F1000.0(Penetrate)
G02 X67.079057 Y169.676353 Z-2.000000 I9.604246 J-3.841835 F1000.000000
G02 X67.367689 Y170.173703 Z-2.000000 I4.138593 J-2.069360
G02 X67.948420 Y170.188705 Z-2.000000 I0.580594 J-11.227467
G02 X68.489155 Y170.173689 Z-2.000000 I-0.000119 J-9.748252
G01 X69.129977 Y168.892005 Z-2.000000
G01 X66.726835 Y168.892035 Z-2.000000
G01 X66.726835 Y168.892035 Z-2.000000
G00 Z1.000000

(End cutting path id: path159)

(Start cutting path id: path93)
(Change tool to Default tool)

G00 Z1.000000
G00 X67.527871 Y167.930768

G01 Z-2.000000 F1000.0(Penetrate)
G01 X67.527873 Y168.090977 Z-2.000000 F1000.000000
G01 X70.892274 Y168.251146 Z-2.000000
G01 X71.052476 Y167.610306 Z-2.000000
G01 X70.822172 Y167.390021 Z-2.000000
G01 X70.571841 Y167.129683 Z-2.000000
G01 X70.591236 Y166.701623 Z-2.000000
G02 X70.401752 Y165.853263 Z-2.000000 I-2.382059 J0.086701
G02 X70.011083 Y165.066993 Z-2.000000 I-6.963256 J2.969600
G01 X69.848992 Y164.779119 Z-2.000000
G02 X69.650781 Y164.431778 Z-2.000000 I-37.600059 J21.226446
G02 X69.450338 Y164.085717 Z-2.000000 I-96.216102 J55.498478
G01 X68.969733 Y166.008237 Z-2.000000
G01 X68.649314 Y166.008240 Z-2.000000
G02 X68.488627 Y166.358480 Z-2.000000 I100.922551 J46.514265
G02 X68.328903 Y166.709161 Z-2.000000 I172.801024 J78.917054
G01 X68.148672 Y167.103429 Z-2.000000
G02 X68.041135 Y167.456483 Z-2.000000 I1.934351 J0.782093
G02 X68.008497 Y167.770553 Z-2.000000 I1.494639 J0.314051
G01 X67.527871 Y167.930768 Z-2.000000
G01 X67.527871 Y167.930768 Z-2.000000
G00 Z1.000000

(End cutting path id: path93)

(Start cutting path id: path340)
(Change tool to Default tool)

G00 Z1.000000
G00 X67.047236 Y167.450145

G01 Z-2.000000 F1000.0(Penetrate)
G01 X68.008489 Y167.129715 Z-2.000000 F1000.000000
G01 X68.008480 Y166.328667 Z-2.000000
G02 X67.712072 Y166.385297 Z-2.000000 I0.354964 J2.661981
G02 X67.367644 Y166.488885 Z-2.000000 I0.925303 J3.701018
G02 X67.137512 Y166.948234 Z-2.000000 I1.993234 J1.285923
G02 X67.047236 Y167.450145 Z-2.000000 I1.350024 J0.501894
G01 X67.047236 Y167.450145 Z-2.000000
G00 Z1.000000

(End cutting path id: path340)

(Start cutting path id: path198)
(Change tool to Default tool)

G00 Z1.000000
G00 X65.445132 Y166.649118

G01 Z-2.000000 F1000.0(Penetrate)
G02 X65.603101 Y167.066546 Z-2.000000 I11.214334 J-4.005274 F1000.000000
G02 X65.765561 Y167.450161 Z-2.000000 I9.632823 J-3.853266
G01 X66.726818 Y167.450149 Z-2.000000
G01 X67.047225 Y166.488888 Z-2.000000
G02 X66.332129 Y166.236736 Z-2.000000 I-1.587294 J3.361434
G02 X65.885703 Y166.208536 Z-2.000000 I-0.303544 J1.257606
G02 X65.645428 Y166.371214 Z-2.000000 I0.302222 J0.705161
G02 X65.445132 Y166.649118 Z-2.000000 I0.756111 J0.756093
G01 X65.445132 Y166.649118 Z-2.000000
G00 Z1.000000

(End cutting path id: path198)

(Start cutting path id: path190)
(Change tool to Default tool)

G00 Z1.000000
G00 X66.085956 Y165.527643

G01 Z-2.000000 F1000.0(Penetrate)
G01 X66.246171 Y166.008270 Z-2.000000 F1000.000000
G01 X67.848268 Y166.168460 Z-2.000000
G02 X67.556034 Y165.384135 Z-2.000000 I-5.336315 J1.541673
G02 X67.047203 Y164.726584 Z-2.000000 I-1.681040 J0.775185
G02 X66.520479 Y165.047948 Z-2.000000 I0.885956 J2.044446
G02 X66.085956 Y165.527643 Z-2.000000 I1.391073 J1.696727
G01 X66.085956 Y165.527643 Z-2.000000
G00 Z1.000000

(End cutting path id: path190)

(Start cutting path id: path347)
(Change tool to Default tool)

G00 Z1.000000
G00 X64.644061 Y164.726613

G01 Z-2.000000 F1000.0(Penetrate)
G01 X64.804278 Y165.367449 Z-2.000000 F1000.000000
G01 X65.445118 Y165.527651 Z-2.000000
G01 X65.765531 Y165.047019 Z-2.000000
G02 X65.258831 Y164.812707 Z-2.000000 I-1.003862 J1.505832
G02 X64.644061 Y164.726613 Z-2.000000 I-0.614742 J2.151697
G01 X64.644061 Y164.726613 Z-2.000000
G00 Z1.000000

(End cutting path id: path347)

(Start cutting path id: path250)
(Change tool to Default tool)

G00 Z1.000000
G00 X64.003239 Y166.008297

G01 Z-2.000000 F1000.0(Penetrate)
G01 X65.284922 Y166.649119 Z-2.000000 F1000.000000
G01 X65.605333 Y166.008278 Z-2.000000
G01 X64.163438 Y165.207248 Z-2.000000
G02 X64.049737 Y165.538646 Z-2.000000 I1.180468 J0.590216
G02 X64.003239 Y166.008297 Z-2.000000 I2.348257 J0.469622
G01 X64.003239 Y166.008297 Z-2.000000
G00 Z1.000000

(End cutting path id: path250)

(Start cutting path id: path199)
(Change tool to Default tool)

G00 Z1.000000
G00 X63.041948 Y163.284748

G01 Z-2.000000 F1000.0(Penetrate)
G02 X63.620794 Y164.313956 Z-2.000000 I7.075483 J-3.301997 F1000.000000
G02 X64.003223 Y164.726621 Z-2.000000 I1.474879 J-0.983279
G01 X64.323642 Y164.726617 Z-2.000000
G02 X64.576307 Y164.345473 Z-2.000000 I-4.106598 J-2.996630
G02 X64.804261 Y163.925564 Z-2.000000 I-4.759014 J-2.855329
G01 X64.644045 Y163.444938 Z-2.000000
G02 X63.861378 Y163.269182 Z-2.000000 I-0.746218 J1.492481
G03 X63.041948 Y163.284748 Z-2.000000 I-3.137542 J-143.598652
G01 X63.041948 Y163.284748 Z-2.000000
G00 Z1.000000

(End cutting path id: path199)

(Start cutting path id: path141)
(Change tool to Default tool)

G00 Z1.000000
G00 X62.080697 Y163.765388

G01 Z-2.000000 F1000.0(Penetrate)
G02 X62.245943 Y164.781624 Z-2.000000 I6.087901 J-0.468375 F1000.000000
G02 X62.721559 Y165.687894 Z-2.000000 I2.108190 J-0.528453
G02 X63.232065 Y165.712853 Z-2.000000 I0.510442 J-5.207162
G02 X63.682816 Y165.687882 Z-2.000000 I-0.000050 J-4.081728
G01 X64.003225 Y164.886831 Z-2.000000
G01 X63.798579 Y164.652777 Z-2.000000
G01 X63.532603 Y164.346129 Z-2.000000
G01 X63.267878 Y164.041985 Z-2.000000
G03 X63.053026 Y163.757998 Z-2.000000 I1.818794 J-1.599284
G03 X62.881741 Y163.444959 Z-2.000000 I2.042010 J-1.320706
G02 X62.285748 Y163.630175 Z-2.000000 I0.868668 J3.846737
G02 X62.080697 Y163.765388 Z-2.000000 I0.226849 J0.567102
G01 X62.080697 Y163.765388 Z-2.000000
G00 Z1.000000

(End cutting path id: path141)

(Start cutting path id: path310)
(Change tool to Default tool)

G00 Z1.000000
G00 X62.881725 Y162.163283

G01 Z-2.000000 F1000.0(Penetrate)
G01 X63.041941 Y162.643910 Z-2.000000 F1000.000000
G02 X63.415312 Y162.515540 Z-2.000000 I-1.112407 J-3.842686
G02 X63.842984 Y162.323481 Z-2.000000 I-2.094868 J-5.236984
G02 X64.035033 Y161.895805 Z-2.000000 I-5.044987 J-2.522416
G02 X64.163393 Y161.522430 Z-2.000000 I-3.714353 J-1.485688
G02 X63.460200 Y161.722879 Z-2.000000 I0.342731 J2.535980
G02 X62.881725 Y162.163283 Z-2.000000 I0.652678 J1.457418
G01 X62.881725 Y162.163283 Z-2.000000
G00 Z1.000000

(End cutting path id: path310)

(Start cutting path id: path188)
(Change tool to Default tool)

G00 Z1.000000
G00 X64.003194 Y162.323479

G01 Z-2.000000 F1000.0(Penetrate)
G02 X64.625331 Y162.635134 Z-2.000000 I1.565489 J-2.348295 F1000.000000
G02 X65.284875 Y162.804092 Z-2.000000 I1.265574 J-3.568516
G02 X65.604931 Y162.425276 Z-2.000000 I-6.908842 J-6.161789
G02 X65.925704 Y162.003036 Z-2.000000 I-8.264862 J-6.611724
G01 X65.765488 Y161.522410 Z-2.000000
G01 X64.644020 Y161.362214 Z-2.000000
G01 X64.003194 Y162.323479 Z-2.000000
G01 X64.003194 Y162.323479 Z-2.000000
G00 Z1.000000

(End cutting path id: path188)

(Start cutting path id: path138)
(Change tool to Default tool)

G00 Z1.000000
G00 X67.257389 Y163.975519

G01 Z-2.000000 F1000.0(Penetrate)
G01 X67.367536 Y164.245872 Z-2.000000 F1000.000000
G01 X67.687955 Y164.245868 Z-2.000000
G01 X67.818129 Y164.506207 Z-2.000000
G01 X68.489022 Y165.847953 Z-2.000000
G02 X68.915911 Y165.483928 Z-2.000000 I-1.320977 J-1.981413
G02 X69.109826 Y165.177068 Z-2.000000 I-0.731726 J-0.677103
G02 X68.884262 Y164.092294 Z-2.000000 I-2.242112 J-0.099622
G02 X68.318766 Y163.134407 Z-2.000000 I-6.343033 J3.098787
G01 X68.008357 Y162.803978 Z-2.000000
G01 X67.687938 Y162.803982 Z-2.000000
G02 X67.309325 Y163.500604 Z-2.000000 I2.185159 J1.638827
G02 X67.257389 Y163.975519 Z-2.000000 I0.930849 J0.342094
G01 X67.257389 Y163.975519 Z-2.000000
G00 Z1.000000

(End cutting path id: path138)

(Start cutting path id: path193)
(Change tool to Default tool)

G00 Z1.000000
G00 X68.328840 Y161.522379

G01 Z-2.000000 F1000.0(Penetrate)
G02 X68.525140 Y162.173797 Z-2.000000 I3.937112 J-0.831133 F1000.000000
G02 X68.820123 Y162.786526 Z-2.000000 I4.434084 J-1.757308
G01 X69.015695 Y163.130723 Z-2.000000
G01 X69.220029 Y163.484934 Z-2.000000
G01 X69.426241 Y163.846655 Z-2.000000
G02 X69.678188 Y164.286842 Z-2.000000 I159.387868 J-90.935394
G02 X69.930974 Y164.726549 Z-2.000000 I418.205617 J-240.133064
G01 X70.091183 Y164.726547 Z-2.000000
G02 X69.919817 Y163.543454 Z-2.000000 I-2.350179 J-0.263543
G02 X69.370214 Y162.503649 Z-2.000000 I-6.244286 J2.635350
G01 X69.161812 Y162.169465 Z-2.000000
G02 X68.906704 Y161.765075 Z-2.000000 I-48.489259 J30.306609
G02 X68.649257 Y161.362165 Z-2.000000 I-125.327009 J79.796527
G01 X68.328840 Y161.522379 Z-2.000000
G01 X68.328840 Y161.522379 Z-2.000000
G00 Z1.000000

(End cutting path id: path193)

(Start cutting path id: path122)
(Change tool to Default tool)

G00 Z1.000000
G00 X69.290101 Y161.842786

G01 Z-2.000000 F1000.0(Penetrate)
G02 X69.726990 Y162.826528 Z-2.000000 I7.318997 J-2.661555 F1000.000000
G02 X70.251381 Y163.765288 Z-2.000000 I21.293167 J-11.278507
G01 X70.611850 Y163.534982 Z-2.000000
G03 X71.037466 Y163.314465 Z-2.000000 I1.392963 J2.167537
G03 X71.402880 Y163.214554 Z-2.000000 I0.604168 J1.491488
G02 X71.670222 Y163.087946 Z-2.000000 I-0.311171 J-1.002620
G02 X71.933570 Y162.864089 Z-2.000000 I-0.789830 J-1.195996
G02 X71.913570 Y162.353594 Z-2.000000 I-1.023824 J-0.215529
G02 X71.713270 Y161.882809 Z-2.000000 I-2.112202 J0.620655
G01 X71.372818 Y161.362132 Z-2.000000
G01 X70.731980 Y161.362140 Z-2.000000
G01 X70.731984 Y161.682559 Z-2.000000
G01 X69.290101 Y161.842786 Z-2.000000
G01 X69.290101 Y161.842786 Z-2.000000
G00 Z1.000000

(End cutting path id: path122)

(Start cutting path id: path155)
(Change tool to Default tool)

G00 Z1.000000
G00 X70.411593 Y163.925496

G01 Z-2.000000 F1000.0(Penetrate)
G01 X71.052446 Y165.207164 Z-2.000000 F1000.000000
G01 X71.693284 Y165.207156 Z-2.000000
G02 X71.894090 Y164.857009 Z-2.000000 I-88.626969 J-51.059360
G02 X72.093799 Y164.506234 Z-2.000000 I-151.495318 J-86.484303
G01 X72.319089 Y164.111966 Z-2.000000
G02 X72.454170 Y163.755693 Z-2.000000 I-1.613819 J-0.815624
G02 X72.494310 Y163.444842 Z-2.000000 I-1.183457 J-0.310836
G02 X71.211011 Y163.490678 Z-2.000000 I-0.396771 J6.878832
G02 X70.641891 Y163.685179 Z-2.000000 I0.194476 J1.498941
G01 X70.411593 Y163.925496 Z-2.000000
G01 X70.411593 Y163.925496 Z-2.000000
G00 Z1.000000

(End cutting path id: path155)

(Start cutting path id: path384)
(Change tool to Default tool)

G00 Z1.000000
G00 X72.013703 Y165.207152

G01 Z-2.000000 F1000.0(Penetrate)
G01 X72.334122 Y165.207148 Z-2.000000 F1000.000000
G02 X72.902654 Y164.105916 Z-2.000000 I-9.138973 J-5.415537
G02 X72.974943 Y163.765255 Z-2.000000 I-0.766489 J-0.340651
G01 X72.654524 Y163.765259 Z-2.000000
G02 X72.085992 Y164.866491 Z-2.000000 I9.138973 J5.415537
G02 X72.013703 Y165.207152 Z-2.000000 I0.766489 J0.340651
G01 X72.013703 Y165.207152 Z-2.000000
G00 Z1.000000

(End cutting path id: path384)

(Start cutting path id: path339)
(Change tool to Default tool)

G00 Z1.000000
G00 X73.936203 Y164.085662

G01 Z-2.000000 F1000.0(Penetrate)
G01 X74.096419 Y164.566288 Z-2.000000 F1000.000000
G01 X74.416838 Y164.566285 Z-2.000000
G01 X75.057660 Y163.284601 Z-2.000000
G01 X74.577030 Y163.124397 Z-2.000000
G02 X74.256996 Y163.581941 Z-2.000000 I10.063577 J7.379767
G02 X73.936203 Y164.085662 Z-2.000000 I11.878211 J7.918598
G01 X73.936203 Y164.085662 Z-2.000000
G00 Z1.000000

(End cutting path id: path339)

(Start cutting path id: path82)
(Change tool to Default tool)

G00 Z1.000000
G00 X74.897466 Y164.566279

G01 Z-2.000000 F1000.0(Penetrate)
G02 X75.096615 Y164.845950 Z-2.000000 I0.993750 J-0.496890 F1000.000000
G02 X75.328035 Y165.006850 Z-2.000000 I0.535531 J-0.523373
G02 X76.008735 Y164.956160 Z-2.000000 I0.202640 J-1.874632
G02 X76.659772 Y164.726467 Z-2.000000 I-1.057672 J-4.035330
G02 X77.533785 Y163.769019 Z-2.000000 I-3.976720 J-4.507822
G02 X78.241816 Y162.693789 Z-2.000000 I-10.495884 J-7.682204
G01 X78.443326 Y162.365545 Z-2.000000
G02 X78.679688 Y161.947609 Z-2.000000 I-8.769196 J-5.235194
G02 X78.902666 Y161.522250 Z-2.000000 I-25.315341 J-13.541694
G01 X78.742453 Y161.201833 Z-2.000000
G01 X76.819939 Y161.201856 Z-2.000000
G02 X76.333241 Y162.032328 Z-2.000000 I276.700760 J162.718419
G02 X75.848689 Y162.864041 Z-2.000000 I385.852479 J225.352420
G01 X75.566764 Y163.342170 Z-2.000000
G01 X75.302361 Y163.799021 Z-2.000000
G01 X75.055755 Y164.221060 Z-2.000000
G01 X74.897466 Y164.566279 Z-2.000000
G01 X74.897466 Y164.566279 Z-2.000000
G00 Z1.000000

(End cutting path id: path82)

(Start cutting path id: path263)
(Change tool to Default tool)

G00 Z1.000000
G00 X75.057656 Y162.964182

G01 Z-2.000000 F1000.0(Penetrate)
G01 X75.378075 Y162.964178 Z-2.000000 F1000.000000
G01 X76.339310 Y161.201862 Z-2.000000
G02 X75.574872 Y161.427100 Z-2.000000 I0.877976 J4.389601
G02 X75.314225 Y161.606153 Z-2.000000 I0.258600 J0.655683
G02 X75.022335 Y162.441849 Z-2.000000 I2.631866 J1.388074
G02 X75.057656 Y162.964182 Z-2.000000 I1.022656 J0.193208
G01 X75.057656 Y162.964182 Z-2.000000
G00 Z1.000000

(End cutting path id: path263)

(Start cutting path id: path223)
(Change tool to Default tool)

G00 Z1.000000
G00 X73.455563 Y163.124411

G01 Z-2.000000 F1000.0(Penetrate)
G01 X73.775972 Y162.323360 Z-2.000000 F1000.000000
G01 X74.416812 Y162.483561 Z-2.000000
G01 X75.057635 Y161.201878 Z-2.000000
G01 X74.096378 Y161.201889 Z-2.000000
G02 X73.889805 Y161.546564 Z-2.000000 I35.894131 J21.746575
G02 X73.685849 Y161.892798 Z-2.000000 I61.848007 J36.665902
G01 X73.454927 Y162.281434 Z-2.000000
G02 X73.378005 Y162.647634 Z-2.000000 I0.829964 J0.365516
G02 X73.455563 Y163.124411 Z-2.000000 I1.511251 J-0.001140
G01 X73.455563 Y163.124411 Z-2.000000
G00 Z1.000000

(End cutting path id: path223)

(Start cutting path id: path326)
(Change tool to Default tool)

G00 Z1.000000
G00 X74.737206 Y160.400834

G01 Z-2.000000 F1000.0(Penetrate)
G02 X75.107924 Y160.425765 Z-2.000000 I0.370684 J-2.743315 F1000.000000
G02 X75.538253 Y160.400824 Z-2.000000 I-0.000046 J-3.725771
G02 X75.810127 Y159.989323 Z-2.000000 I-4.597041 J-3.332769
G02 X76.018872 Y159.599771 Z-2.000000 I-3.909674 J-2.345740
G02 X75.558230 Y159.584772 Z-2.000000 I-0.460555 J7.063173
G02 X75.057615 Y159.599783 Z-2.000000 I0.000102 J8.358598
G02 X74.795509 Y160.098068 Z-2.000000 I2.261745 J1.507790
G02 X74.737206 Y160.400834 Z-2.000000 I0.756916 J0.302756
G01 X74.737206 Y160.400834 Z-2.000000
G00 Z1.000000

(End cutting path id: path326)

(Start cutting path id: path383)
(Change tool to Default tool)

G00 Z1.000000
G00 X75.378012 Y157.837474

G01 Z-2.000000 F1000.0(Penetrate)
G01 X75.858641 Y157.837468 Z-2.000000 F1000.000000
G01 X75.848623 Y157.456971 Z-2.000000
G03 X75.884672 Y157.053251 Z-2.000000 I1.485012 J-0.070869
G03 X76.018837 Y156.716000 Z-2.000000 I1.161875 J0.266902
G01 X75.538208 Y156.716006 Z-2.000000
G02 X75.330503 Y157.310653 Z-2.000000 I1.408194 J0.825470
G02 X75.378012 Y157.837474 Z-2.000000 I1.139580 J0.162783
G01 X75.378012 Y157.837474 Z-2.000000
G00 Z1.000000

(End cutting path id: path383)

(Start cutting path id: path60)
(Change tool to Default tool)

G00 Z1.000000
G00 X73.615689 Y156.235401

G01 Z-2.000000 F1000.0(Penetrate)
G02 X73.796183 Y156.354844 Z-2.000000 I0.383672 J-0.383681 F1000.000000
G02 X74.136372 Y156.445670 Z-2.000000 I0.537725 J-1.331555
G02 X74.801765 Y156.193420 Z-2.000000 I-0.162910 J-1.433453
G02 X75.377987 Y155.754751 Z-2.000000 I-5.314548 J-7.578819
G03 X76.287127 Y155.658349 Z-2.000000 I0.689855 J2.170702
G03 X77.190358 Y155.824821 Z-2.000000 I-0.515699 J5.331624
G01 X77.709163 Y155.964372 Z-2.000000
G01 X78.101552 Y156.075137 Z-2.000000
G02 X78.468702 Y155.495408 Z-2.000000 I-85.885102 J-54.798331
G02 X78.832494 Y154.913609 Z-2.000000 I-121.959884 J-76.664599
G01 X79.044955 Y154.582549 Z-2.000000
G01 X79.243648 Y154.260250 Z-2.000000
G01 X79.429239 Y153.965331 Z-2.000000
G02 X79.489652 Y153.495606 Z-2.000000 I-0.916239 J-0.356587
G02 X79.383191 Y153.031141 Z-2.000000 I-2.156084 J0.249765
G01 X79.060894 Y152.983583 Z-2.000000
G03 X78.180622 Y152.758357 Z-2.000000 I0.688264 J-4.522856
G03 X77.380564 Y152.370301 Z-2.000000 I1.502182 J-4.115828
G02 X76.792376 Y152.106929 Z-2.000000 I-0.876162 J1.168247
G02 X76.153956 Y152.051149 Z-2.000000 I-0.568641 J2.826912
G01 X75.714319 Y152.059368 Z-2.000000
G01 X75.377942 Y152.069933 Z-2.000000
G02 X74.890010 Y152.884632 Z-2.000000 I98.549203 J59.575661
G02 X74.406692 Y153.702079 Z-2.000000 I266.526141 J158.135961
G01 X74.124766 Y154.168004 Z-2.000000
G01 X73.860364 Y154.620161 Z-2.000000
G01 X73.613757 Y155.034573 Z-2.000000
G02 X73.510489 Y155.635088 Z-2.000000 I1.380264 J0.546496
G02 X73.615689 Y156.235401 Z-2.000000 I2.228455 J-0.081144
G01 X73.615689 Y156.235401 Z-2.000000
G00 Z1.000000

(End cutting path id: path60)

(Start cutting path id: path205)
(Change tool to Default tool)

G00 Z1.000000
G00 X72.494210 Y155.274158

G01 Z-2.000000 F1000.0(Penetrate)
G02 X73.030857 Y154.936673 Z-2.000000 I-0.422355 J-1.267014 F1000.000000
G02 X73.407269 Y154.432421 Z-2.000000 I-1.762272 J-1.708113
G01 X73.643510 Y154.017813 Z-2.000000
G01 X73.886010 Y153.581928 Z-2.000000
G01 X74.134141 Y153.144165 Z-2.000000
G02 X74.436585 Y152.607592 Z-2.000000 I-143.494952 J-81.235568
G02 X74.737104 Y152.069941 Z-2.000000 I-156.728300 J-87.955808
G01 X74.256474 Y151.909737 Z-2.000000
G02 X73.815222 Y152.660322 Z-2.000000 I283.042260 J166.899092
G02 X73.375340 Y153.411712 Z-2.000000 I751.476584 J440.437345
G01 X73.120637 Y153.843529 Z-2.000000
G01 X72.879702 Y154.256572 Z-2.000000
G01 X72.655977 Y154.637933 Z-2.000000
G02 X72.533130 Y154.963128 Z-2.000000 I1.381582 J0.707710
G02 X72.494210 Y155.274158 Z-2.000000 I1.223216 J0.311015
G01 X72.494210 Y155.274158 Z-2.000000
G00 Z1.000000

(End cutting path id: path205)

(Start cutting path id: path137)
(Change tool to Default tool)

G00 Z1.000000
G00 X72.494210 Y155.274158

G01 Z-2.000000 F1000.0(Penetrate)
G01 X73.135046 Y155.113940 Z-2.000000 F1000.000000
G01 X73.295260 Y155.434357 Z-2.000000
G02 X73.703109 Y154.779936 Z-2.000000 I-62.907431 J-39.659535
G02 X74.106304 Y154.122632 Z-2.000000 I-171.472281 J-105.634779
G01 X74.341920 Y153.749329 Z-2.000000
G02 X74.789727 Y152.792067 Z-2.000000 I-4.247855 J-2.570520
G02 X74.866650 Y152.222013 Z-2.000000 I-1.391103 J-0.477932
G01 X74.737102 Y151.909731 Z-2.000000
G02 X74.264209 Y152.045498 Z-2.000000 I0.234126 J1.706949
G02 X73.876451 Y152.347775 Z-2.000000 I0.425606 J0.945807
G01 X73.683234 Y152.705159 Z-2.000000
G01 X73.470460 Y153.093482 Z-2.000000
G01 X73.255184 Y153.501831 Z-2.000000
G01 X73.032397 Y153.908303 Z-2.000000
G02 X72.561313 Y154.920804 Z-2.000000 I8.173717 J4.418807
G02 X72.494210 Y155.274158 Z-2.000000 I0.896740 J0.353342
G01 X72.494210 Y155.274158 Z-2.000000
G00 Z1.000000

(End cutting path id: path137)

(Start cutting path id: path149)
(Change tool to Default tool)

G00 Z1.000000
G00 X70.892121 Y155.754806

G01 Z-2.000000 F1000.0(Penetrate)
G01 X71.372750 Y155.754800 Z-2.000000 F1000.000000
G01 X71.372746 Y155.434381 Z-2.000000
G01 X71.693165 Y155.434377 Z-2.000000
G02 X72.180058 Y154.604026 Z-2.000000 I-187.375179 J-110.429085
G02 X72.664415 Y153.772192 Z-2.000000 I-495.359528 J-288.992758
G01 X72.946340 Y153.294063 Z-2.000000
G01 X73.210743 Y152.837213 Z-2.000000
G01 X73.457349 Y152.415173 Z-2.000000
G01 X73.615638 Y152.069954 Z-2.000000
G01 X73.455424 Y151.749537 Z-2.000000
G02 X72.801605 Y152.188743 Z-2.000000 I0.653624 J1.679263
G02 X72.331468 Y152.825959 Z-2.000000 I2.335710 J2.215327
G01 X72.074888 Y153.278428 Z-2.000000
G01 X71.813301 Y153.752176 Z-2.000000
G01 X71.544205 Y154.225924 Z-2.000000
G02 X70.963430 Y155.405841 Z-2.000000 I10.573210 J5.937207
G02 X70.892121 Y155.754806 Z-2.000000 I0.818162 J0.348954
G01 X70.892121 Y155.754806 Z-2.000000
G00 Z1.000000

(End cutting path id: path149)

(Start cutting path id: path151)
(Change tool to Default tool)

G00 Z1.000000
G00 X70.091066 Y155.113978

G01 Z-2.000000 F1000.0(Penetrate)
G01 X70.731908 Y155.434389 Z-2.000000 F1000.000000
G02 X71.252923 Y154.558441 Z-2.000000 I-768.718377 J-457.826867
G02 X71.773248 Y153.682085 Z-2.000000 I-2021.830404 J-1201.033878
G01 X72.074261 Y153.176733 Z-2.000000
G01 X72.359002 Y152.696414 Z-2.000000
G01 X72.623405 Y152.251493 Z-2.000000
G02 X72.786459 Y151.902421 Z-2.000000 I-2.302671 J-1.288214
G02 X72.814586 Y151.749545 Z-2.000000 I-0.401364 J-0.152871
G01 X72.013539 Y151.749555 Z-2.000000
G01 X71.871560 Y152.006651 Z-2.000000
G03 X71.552169 Y152.584098 Z-2.000000 I-831.916510 J-459.762533
G03 X71.232535 Y153.161411 Z-2.000000 I-3772.793710 J-2088.443084
G01 X71.009123 Y153.566005 Z-2.000000
G01 X70.793220 Y153.955579 Z-2.000000
G01 X70.594918 Y154.314058 Z-2.000000
G03 X70.349674 Y154.718158 Z-2.000000 I-8.542906 J-4.908134
G03 X70.091066 Y155.113978 Z-2.000000 I-21.490516 J-13.758412
G01 X70.091066 Y155.113978 Z-2.000000
G00 Z1.000000

(End cutting path id: path151)

(Start cutting path id: path283)
(Change tool to Default tool)

G00 Z1.000000
G00 X72.333952 Y151.268923

G01 Z-2.000000 F1000.0(Penetrate)
G01 X72.974792 Y151.429124 Z-2.000000 F1000.000000
G02 X73.536388 Y150.483065 Z-2.000000 I-6.270652 J-4.362079
G02 X73.615614 Y150.147440 Z-2.000000 I-0.671251 J-0.335615
G01 X72.974776 Y150.147448 Z-2.000000
G01 X72.333952 Y151.268923 Z-2.000000
G01 X72.333952 Y151.268923 Z-2.000000
G00 Z1.000000

(End cutting path id: path283)

(Start cutting path id: path281)
(Change tool to Default tool)

G00 Z1.000000
G00 X73.295209 Y151.268911

G01 Z-2.000000 F1000.0(Penetrate)
G01 X73.455422 Y151.589328 Z-2.000000 F1000.000000
G01 X73.936051 Y151.589322 Z-2.000000
G02 X74.504582 Y150.488089 Z-2.000000 I-9.138973 J-5.415537
G02 X74.576871 Y150.147429 Z-2.000000 I-0.766489 J-0.340651
G01 X73.936033 Y150.147437 Z-2.000000
G02 X73.432630 Y150.999102 Z-2.000000 I28.711172 J17.545234
G02 X73.295209 Y151.268911 Z-2.000000 I2.736597 J1.563726
G01 X73.295209 Y151.268911 Z-2.000000
G00 Z1.000000

(End cutting path id: path281)

(Start cutting path id: path353)
(Change tool to Default tool)

G00 Z1.000000
G00 X74.576889 Y151.589314

G01 Z-2.000000 F1000.0(Penetrate)
G01 X75.057517 Y151.589308 Z-2.000000 F1000.000000
G01 X75.698339 Y150.307624 Z-2.000000
G02 X75.112988 Y150.549545 Z-2.000000 I0.524696 J2.098675
G02 X74.777142 Y150.858356 Z-2.000000 I0.575989 J0.963445
G02 X74.618686 Y151.278546 Z-2.000000 I2.168079 J1.057567
G02 X74.576889 Y151.589314 Z-2.000000 I1.134304 J0.310753
G01 X74.576889 Y151.589314 Z-2.000000
G00 Z1.000000

(End cutting path id: path353)

(Start cutting path id: path219)
(Change tool to Default tool)

G00 Z1.000000
G00 X75.698357 Y151.749510

G01 Z-2.000000 F1000.0(Penetrate)
G01 X76.980033 Y151.749494 Z-2.000000 F1000.000000
G01 X77.140225 Y150.307607 Z-2.000000
G02 X76.785179 Y150.347753 Z-2.000000 I0.058586 J2.108173
G02 X76.339179 Y150.467826 Z-2.000000 I0.691174 J3.455649
G02 X75.796335 Y151.334447 Z-2.000000 I4.230020 J3.252980
G02 X75.698357 Y151.749510 Z-2.000000 I0.830129 J0.415052
G01 X75.698357 Y151.749510 Z-2.000000
G00 Z1.000000

(End cutting path id: path219)

(Start cutting path id: path325)
(Change tool to Default tool)

G00 Z1.000000
G00 X75.538126 Y149.987207

G01 Z-2.000000 F1000.0(Penetrate)
G02 X76.034528 Y149.705779 Z-2.000000 I-0.468044 J-1.404074 F1000.000000
G02 X76.379217 Y149.286281 Z-2.000000 I-1.026281 J-1.194625
G01 X76.551940 Y148.992144 Z-2.000000
G02 X76.594093 Y148.704291 Z-2.000000 I-0.641726 J-0.240988
G02 X76.499361 Y148.224891 Z-2.000000 I-1.929536 J0.132227
G02 X75.680238 Y149.429864 Z-2.000000 I5.737768 J4.781355
G02 X75.538126 Y149.987207 Z-2.000000 I1.021800 J0.557329
G01 X75.538126 Y149.987207 Z-2.000000
G00 Z1.000000

(End cutting path id: path325)

(Start cutting path id: path197)
(Change tool to Default tool)

G00 Z1.000000
G00 X74.256446 Y149.666804

G01 Z-2.000000 F1000.0(Penetrate)
G01 X74.897286 Y149.827006 Z-2.000000 F1000.000000
G02 X75.184543 Y149.372593 Z-2.000000 I-43.055442 J-27.535513
G02 X75.468021 Y148.915807 Z-2.000000 I-74.957891 J-46.834698
G01 X75.789060 Y148.403258 Z-2.000000
G02 X75.948908 Y147.753660 Z-2.000000 I-1.606731 J-0.739839
G02 X75.858510 Y147.103433 Z-2.000000 I-1.743208 J-0.089047
G02 X74.977844 Y148.336106 Z-2.000000 I5.112330 J4.583356
G02 X74.256446 Y149.666804 Z-2.000000 I50.701063 J28.346951
G01 X74.256446 Y149.666804 Z-2.000000
G00 Z1.000000

(End cutting path id: path197)

(Start cutting path id: path167)
(Change tool to Default tool)

G00 Z1.000000
G00 X73.295189 Y149.666816

G01 Z-2.000000 F1000.0(Penetrate)
G01 X73.936029 Y149.827018 Z-2.000000 F1000.000000
G02 X74.343879 Y149.172596 Z-2.000000 I-62.907431 J-39.659535
G02 X74.747074 Y148.515292 Z-2.000000 I-171.472281 J-105.634779
G01 X74.982690 Y148.141989 Z-2.000000
G02 X75.430497 Y147.184727 Z-2.000000 I-4.247855 J-2.570520
G02 X75.507420 Y146.614673 Z-2.000000 I-1.391103 J-0.477932
G01 X75.377872 Y146.302391 Z-2.000000
G02 X74.620335 Y147.333800 Z-2.000000 I6.327288 J5.441084
G02 X73.976065 Y148.435197 Z-2.000000 I19.734671 J12.283083
G01 X73.776433 Y148.794732 Z-2.000000
G02 X73.535402 Y149.230548 Z-2.000000 I161.099275 J89.381544
G02 X73.295189 Y149.666816 Z-2.000000 I415.687814 J229.165587
G01 X73.295189 Y149.666816 Z-2.000000
G00 Z1.000000

(End cutting path id: path167)

(Start cutting path id: path392)
(Change tool to Default tool)

G00 Z1.000000
G00 X76.339125 Y145.981960

G01 Z-2.000000 F1000.0(Penetrate)
G01 X76.499338 Y146.302378 Z-2.000000 F1000.000000
G01 X76.979964 Y146.142162 Z-2.000000
G02 X77.085240 Y145.825562 Z-2.000000 I-2.024866 J-0.849108
G02 X77.140166 Y145.501322 Z-2.000000 I-2.069467 J-0.517340
G01 X76.819743 Y145.180907 Z-2.000000
G02 X76.577518 Y145.566277 Z-2.000000 I9.166803 J6.030631
G02 X76.339125 Y145.981960 Z-2.000000 I10.428134 J6.256707
G01 X76.339125 Y145.981960 Z-2.000000
G00 Z1.000000

(End cutting path id: path392)

(Start cutting path id: path344)
(Change tool to Default tool)

G00 Z1.000000
G00 X76.178911 Y145.661543

G01 Z-2.000000 F1000.0(Penetrate)
G02 X76.555529 Y145.229821 Z-2.000000 I-1.705778 J-1.868187 F1000.000000
G02 X76.819737 Y144.700279 Z-2.000000 I-1.732451 J-1.195068
G01 X76.659524 Y144.379862 Z-2.000000
G01 X76.178897 Y144.540077 Z-2.000000
G02 X76.080317 Y145.096013 Z-2.000000 I0.888571 J0.444272
G02 X76.178911 Y145.661543 Z-2.000000 I4.759119 J-0.538338
G01 X76.178911 Y145.661543 Z-2.000000
G00 Z1.000000

(End cutting path id: path344)

(Start cutting path id: path308)
(Change tool to Default tool)

G00 Z1.000000
G00 X77.140160 Y145.020694

G01 Z-2.000000 F1000.0(Penetrate)
G01 X77.620791 Y145.180897 Z-2.000000 F1000.000000
G02 X77.992635 Y144.459219 Z-2.000000 I-2.294442 J-1.638845
G02 X78.051338 Y143.929256 Z-2.000000 I-1.150139 J-0.395632
G01 X77.941190 Y143.578799 Z-2.000000
G02 X77.387953 Y144.215797 Z-2.000000 I2.413922 J2.655249
G02 X77.140160 Y145.020694 Z-2.000000 I1.183304 J0.804879
G01 X77.140160 Y145.020694 Z-2.000000
G00 Z1.000000

(End cutting path id: path308)

(Start cutting path id: path280)
(Change tool to Default tool)

G00 Z1.000000
G00 X76.819733 Y144.379860

G01 Z-2.000000 F1000.0(Penetrate)
G01 X77.140152 Y144.379856 Z-2.000000 F1000.000000
G02 X77.483895 Y143.757188 Z-2.000000 I-1.678233 J-1.332681
G02 X77.570699 Y143.048109 Z-2.000000 I-1.573263 J-0.552449
G01 X77.460550 Y142.617548 Z-2.000000
G02 X76.838865 Y143.712158 Z-2.000000 I2.920886 J2.382769
G02 X76.819733 Y144.379860 Z-2.000000 I0.997478 J0.362706
G01 X76.819733 Y144.379860 Z-2.000000
G00 Z1.000000

(End cutting path id: path280)

(Start cutting path id: path131)
(Change tool to Default tool)

G00 Z1.000000
G00 X78.261611 Y143.739004

G01 Z-2.000000 F1000.0(Penetrate)
G02 X79.221451 Y142.412913 Z-2.000000 I-9.706709 J-8.036242 F1000.000000
G02 X80.073948 Y141.015421 Z-2.000000 I-50.290621 J-31.637002
G01 X80.393422 Y140.490981 Z-2.000000
G01 X80.692869 Y139.984065 Z-2.000000
G01 X80.967794 Y139.524085 Z-2.000000
G02 X81.084629 Y138.908062 Z-2.000000 I-1.436946 J-0.591624
G02 X80.985106 Y138.291848 Z-2.000000 I-2.168255 J0.034047
G02 X80.120539 Y139.355745 Z-2.000000 I2.867818 J3.213749
G03 X79.432713 Y140.544422 Z-2.000000 I-299.519550 J-172.523147
G03 X79.176640 Y140.978117 Z-2.000000 I-45.782581 J-26.739639
G03 X78.918066 Y141.410326 Z-2.000000 I-210.729875 J-125.778000
G02 X78.756140 Y141.687788 Z-2.000000 I255.843146 J149.495428
G02 X78.594525 Y141.965431 Z-2.000000 I240.104798 J139.950271
G01 X78.296172 Y142.472269 Z-2.000000
G02 X78.164897 Y143.105942 Z-2.000000 I1.565324 J0.654716
G02 X78.261611 Y143.739004 Z-2.000000 I1.961062 J0.024323
G01 X78.261611 Y143.739004 Z-2.000000
G00 Z1.000000

(End cutting path id: path131)

(Start cutting path id: path129)
(Change tool to Default tool)

G00 Z1.000000
G00 X77.780973 Y142.937963

G01 Z-2.000000 F1000.0(Penetrate)
G02 X78.740813 Y141.611871 Z-2.000000 I-9.706709 J-8.036242 F1000.000000
G02 X79.593309 Y140.214379 Z-2.000000 I-50.290621 J-31.637002
G01 X79.912783 Y139.689940 Z-2.000000
G01 X80.212231 Y139.183023 Z-2.000000
G01 X80.487155 Y138.723043 Z-2.000000
G02 X80.603991 Y138.107020 Z-2.000000 I-1.436946 J-0.591624
G02 X80.504468 Y137.490807 Z-2.000000 I-2.168255 J0.034047
G02 X79.639901 Y138.554703 Z-2.000000 I2.867818 J3.213749
G03 X78.952075 Y139.743381 Z-2.000000 I-299.519550 J-172.523147
G03 X78.696002 Y140.177075 Z-2.000000 I-45.782581 J-26.739639
G03 X78.437428 Y140.609285 Z-2.000000 I-210.729875 J-125.777999
G02 X78.275502 Y140.886746 Z-2.000000 I255.843146 J149.495428
G02 X78.113886 Y141.164389 Z-2.000000 I240.104798 J139.950271
G01 X77.815534 Y141.671228 Z-2.000000
G02 X77.684259 Y142.304900 Z-2.000000 I1.565324 J0.654716
G02 X77.780973 Y142.937963 Z-2.000000 I1.961062 J0.024323
G01 X77.780973 Y142.937963 Z-2.000000
G00 Z1.000000

(End cutting path id: path129)

(Start cutting path id: path160)
(Change tool to Default tool)

G00 Z1.000000
G00 X78.742249 Y144.540046

G01 Z-2.000000 F1000.0(Penetrate)
G02 X79.336362 Y144.127169 Z-2.000000 I-0.406101 J-1.218254 F1000.000000
G02 X79.749178 Y143.510562 Z-2.000000 I-3.290108 J-2.649209
G01 X80.046748 Y142.973294 Z-2.000000
G02 X80.200557 Y142.690275 Z-2.000000 I-2369.701514 J-1287.511863
G02 X80.354331 Y142.407237 Z-2.000000 I-2429.549300 J-1320.684584
G01 X80.663792 Y141.846813 Z-2.000000
G02 X81.436024 Y140.419189 Z-2.000000 I-93.708553 J-51.611627
G02 X81.786171 Y139.733724 Z-2.000000 I-21.247907 J-11.285946
G01 X81.465748 Y139.413309 Z-2.000000
G01 X81.267485 Y139.753561 Z-2.000000
G03 X80.820944 Y140.519683 Z-2.000000 I-5975.442849 J-3485.001723
G03 X80.374344 Y141.285771 Z-2.000000 R31274.821739
G01 X80.062380 Y141.821162 Z-2.000000
G01 X79.760429 Y142.339030 Z-2.000000
G01 X79.483314 Y142.814460 Z-2.000000
G03 X79.220357 Y143.252973 Z-2.000000 I-23.061808 J-13.531084
G03 X78.948954 Y143.686310 Z-2.000000 I-22.220170 J-13.615021
G02 X78.797886 Y144.073801 Z-2.000000 I1.359596 J0.753250
G02 X78.742249 Y144.540046 Z-2.000000 I1.925591 J0.466221
G01 X78.742249 Y144.540046 Z-2.000000
G00 Z1.000000

(End cutting path id: path160)

(Start cutting path id: path307)
(Change tool to Default tool)

G00 Z1.000000
G00 X79.383081 Y144.059409

G01 Z-2.000000 F1000.0(Penetrate)
G01 X79.863710 Y144.059404 Z-2.000000 F1000.000000
G02 X80.303167 Y143.221481 Z-2.000000 I-2.223731 J-1.700457
G02 X80.504526 Y142.297091 Z-2.000000 I-4.565379 J-1.478602
G02 X79.568682 Y143.422019 Z-2.000000 I3.930646 J4.221702
G02 X79.383081 Y144.059409 Z-2.000000 I1.001618 J0.637376
G01 X79.383081 Y144.059409 Z-2.000000
G00 Z1.000000

(End cutting path id: path307)

(Start cutting path id: path305)
(Change tool to Default tool)

G00 Z1.000000
G00 X80.344325 Y142.937931

G01 Z-2.000000 F1000.0(Penetrate)
G02 X80.984508 Y142.192465 Z-2.000000 I-2.038637 J-2.398337 F1000.000000
G02 X81.465771 Y141.335823 Z-2.000000 I-10.206153 J-6.297345
G01 X81.305558 Y141.015406 Z-2.000000
G02 X80.538136 Y142.065728 Z-2.000000 I2.724692 J2.796326
G02 X80.344325 Y142.937931 Z-2.000000 I1.647500 J0.823725
G01 X80.344325 Y142.937931 Z-2.000000
G00 Z1.000000

(End cutting path id: path305)

(Start cutting path id: path76)
(Change tool to Default tool)

G00 Z1.000000
G00 X79.402325 Y145.541027

G01 Z-2.000000 F1000.0(Penetrate)
G02 X79.582872 Y145.786660 Z-2.000000 I0.812888 J-0.408326 F1000.000000
G02 X80.023926 Y146.142078 Z-2.000000 I2.183139 J-2.257779
G01 X80.504554 Y146.142072 Z-2.000000
G01 X80.474510 Y145.711510 Z-2.000000
G03 X80.618599 Y144.999803 Z-2.000000 I2.539619 J0.143721
G03 X80.985161 Y144.379762 Z-2.000000 I1.787181 J0.638190
G03 X81.559248 Y144.279626 Z-2.000000 I1.913126 J9.272317
G03 X82.106626 Y144.219539 Z-2.000000 I1.195631 J8.368688
G01 X82.266831 Y143.899118 Z-2.000000
G03 X82.646062 Y143.801452 Z-2.000000 I1.652053 J5.629704
G03 X83.077890 Y143.718873 Z-2.000000 I1.604314 J7.218998
G01 X83.524097 Y143.637511 Z-2.000000
G01 X83.868922 Y143.578680 Z-2.000000
G02 X83.422037 Y142.569446 Z-2.000000 I-7.592471 J2.758365
G02 X82.887615 Y141.606112 Z-2.000000 I-22.905224 J12.077063
G01 X82.706750 Y141.292892 Z-2.000000
G02 X82.487060 Y140.913637 Z-2.000000 I-172.034837 J99.400744
G02 X82.266790 Y140.534719 Z-2.000000 I-443.442421 J257.524918
G02 X81.401252 Y141.602438 Z-2.000000 I2.834135 J3.182151
G03 X80.714397 Y142.796093 Z-2.000000 I-203.564019 J-116.340614
G03 X80.458196 Y143.232348 Z-2.000000 I-51.983746 J-30.235364
G03 X80.199751 Y143.667278 Z-2.000000 I-230.262627 J-136.533208
G02 X80.037843 Y143.945532 Z-2.000000 I290.850022 J169.423178
G02 X79.876209 Y144.223947 Z-2.000000 I272.767879 J158.541046
G01 X79.577857 Y144.733328 Z-2.000000
G02 X79.430622 Y145.189411 Z-2.000000 I2.239537 J0.974786
G02 X79.402325 Y145.541027 Z-2.000000 I1.293030 J0.281006
G01 X79.402325 Y145.541027 Z-2.000000
G00 Z1.000000

(End cutting path id: path76)

(Start cutting path id: path391)
(Change tool to Default tool)

G00 Z1.000000
G00 X78.421860 Y146.943192

G01 Z-2.000000 F1000.0(Penetrate)
G01 X78.582073 Y147.263609 Z-2.000000 F1000.000000
G02 X78.914550 Y147.355480 Z-2.000000 I2.031032 J-6.702700
G02 X79.222913 Y147.423811 Z-2.000000 I1.424105 J-5.696716
G01 X79.383115 Y146.782971 Z-2.000000
G01 X78.582065 Y146.622771 Z-2.000000
G01 X78.421860 Y146.943192 Z-2.000000
G01 X78.421860 Y146.943192 Z-2.000000
G00 Z1.000000

(End cutting path id: path391)

(Start cutting path id: path331)
(Change tool to Default tool)

G00 Z1.000000
G00 X84.990484 Y149.826883

G01 Z-2.000000 F1000.0(Penetrate)
G02 X85.534727 Y149.477930 Z-2.000000 I-0.415830 J-1.247439 F1000.000000
G02 X85.911678 Y148.955732 Z-2.000000 I-1.855864 J-1.736814
G01 X86.129458 Y148.565845 Z-2.000000
G01 X86.272140 Y148.224772 Z-2.000000
G01 X86.111927 Y147.904355 Z-2.000000
G02 X85.130652 Y149.308388 Z-2.000000 I8.059357 J6.677587
G02 X84.990484 Y149.826883 Z-2.000000 I0.888852 J0.518482
G01 X84.990484 Y149.826883 Z-2.000000
G00 Z1.000000

(End cutting path id: path331)

(Start cutting path id: path365)
(Change tool to Default tool)

G00 Z1.000000
G00 X85.631320 Y149.666665

G01 Z-2.000000 F1000.0(Penetrate)
G01 X86.111950 Y149.826869 Z-2.000000 F1000.000000
G02 X86.351973 Y149.450169 Z-2.000000 I-6.880903 J-4.649136
G02 X86.592569 Y149.025816 Z-2.000000 I-8.493250 J-5.095809
G01 X86.432354 Y148.545189 Z-2.000000
G02 X85.838038 Y149.323317 Z-2.000000 I11.848338 J9.665509
G02 X85.631320 Y149.666665 Z-2.000000 I2.084649 J1.488997
G01 X85.631320 Y149.666665 Z-2.000000
G00 Z1.000000

(End cutting path id: path365)

(Start cutting path id: path246)
(Change tool to Default tool)

G00 Z1.000000
G00 X87.233430 Y150.948322

G01 Z-2.000000 F1000.0(Penetrate)
G01 X87.233436 Y151.428950 Z-2.000000 F1000.000000
G01 X88.675328 Y151.909561 Z-2.000000
G02 X88.316051 Y151.088044 Z-2.000000 I-7.426294 J2.758441
G02 X87.874261 Y150.307476 Z-2.000000 I-8.673243 J4.393629
G01 X87.553849 Y150.948318 Z-2.000000
G01 X87.233430 Y150.948322 Z-2.000000
G01 X87.233430 Y150.948322 Z-2.000000
G00 Z1.000000

(End cutting path id: path246)

(Start cutting path id: path208)
(Change tool to Default tool)

G00 Z1.000000
G00 X86.592616 Y152.870843

G01 Z-2.000000 F1000.0(Penetrate)
G01 X86.592620 Y153.191262 Z-2.000000 F1000.000000
G01 X88.194715 Y153.191243 Z-2.000000
G01 X88.675331 Y152.229980 Z-2.000000
G02 X87.490034 Y152.317318 Z-2.000000 I-0.183445 J5.597148
G02 X86.913031 Y152.550420 Z-2.000000 I0.274669 J1.510577
G01 X86.913035 Y152.870839 Z-2.000000
G01 X86.592616 Y152.870843 Z-2.000000
G01 X86.592616 Y152.870843 Z-2.000000
G00 Z1.000000

(End cutting path id: path208)

(Start cutting path id: path358)
(Change tool to Default tool)

G00 Z1.000000
G00 X86.752835 Y153.671889

G01 Z-2.000000 F1000.0(Penetrate)
G02 X87.111152 Y154.383729 Z-2.000000 I3.089813 J-1.109206 F1000.000000
G02 X87.393685 Y154.633138 Z-2.000000 I0.610850 J-0.407244
G01 X87.714092 Y153.671877 Z-2.000000
G01 X86.752835 Y153.671889 Z-2.000000
G01 X86.752835 Y153.671889 Z-2.000000
G00 Z1.000000

(End cutting path id: path358)

(Start cutting path id: path319)
(Change tool to Default tool)

G00 Z1.000000
G00 X85.951788 Y153.671899

G01 Z-2.000000 F1000.0(Penetrate)
G02 X86.311064 Y154.493416 Z-2.000000 I7.426294 J-2.758441 F1000.000000
G02 X86.752855 Y155.273984 Z-2.000000 I8.673242 J-4.393628
G01 X87.073272 Y155.113770 Z-2.000000
G02 X86.805069 Y154.371023 Z-2.000000 I-8.400884 J2.613721
G02 X86.432416 Y153.671893 Z-2.000000 I-3.731028 J1.539846
G01 X85.951788 Y153.671899 Z-2.000000
G01 X85.951788 Y153.671899 Z-2.000000
G00 Z1.000000

(End cutting path id: path319)

(Start cutting path id: path103)
(Change tool to Default tool)

G00 Z1.000000
G00 X87.770512 Y155.831020

G01 Z-2.000000 F1000.0(Penetrate)
G02 X88.025054 Y156.299831 Z-2.000000 I4.558986 J-2.171803 F1000.000000
G02 X88.355037 Y156.715920 Z-2.000000 I1.886960 J-1.157579
G02 X88.704845 Y156.816956 Z-2.000000 I1.569185 J-4.776727
G02 X88.995877 Y156.876121 Z-2.000000 I0.811244 J-3.245146
G02 X90.471068 Y154.481960 Z-2.000000 I-25.768321 J-17.529009
G02 X90.597937 Y153.992331 Z-2.000000 I-0.881336 J-0.489617
G01 X89.957099 Y153.992339 Z-2.000000
G01 X89.957095 Y153.671920 Z-2.000000
G01 X88.675419 Y153.671935 Z-2.000000
G02 X87.854070 Y155.181407 Z-2.000000 I7.003345 J4.788926
G02 X87.770512 Y155.831020 Z-2.000000 I1.136639 J0.476384
G01 X87.770512 Y155.831020 Z-2.000000
G00 Z1.000000

(End cutting path id: path103)

(Start cutting path id: path330)
(Change tool to Default tool)

G00 Z1.000000
G00 X86.913084 Y156.876077

G01 Z-2.000000 F1000.0(Penetrate)
G01 X88.194760 Y156.876061 Z-2.000000 F1000.000000
G01 X87.714120 Y155.914810 Z-2.000000
G01 X87.393701 Y155.914814 Z-2.000000
G02 X86.966027 Y156.651792 Z-2.000000 I5.704934 J3.803189
G02 X86.913084 Y156.876077 Z-2.000000 I0.448570 J0.224278
G01 X86.913084 Y156.876077 Z-2.000000
G00 Z1.000000

(End cutting path id: path330)

(Start cutting path id: path292)
(Change tool to Default tool)

G00 Z1.000000
G00 X86.592671 Y157.356709

G01 Z-2.000000 F1000.0(Penetrate)
G01 X86.592673 Y157.516918 Z-2.000000 F1000.000000
G01 X88.354977 Y157.516897 Z-2.000000
G01 X88.515194 Y158.157733 Z-2.000000
G01 X88.835613 Y158.157729 Z-2.000000
G02 X88.500937 Y157.398986 Z-2.000000 I-8.025996 J3.087034
G02 X88.354973 Y157.196478 Z-2.000000 I-0.696937 J0.348479
G02 X87.954623 Y157.180282 Z-2.000000 I-0.637538 J10.802885
G02 X87.553925 Y157.176461 Z-2.000000 I-0.354545 J16.172221
G01 X87.113349 Y157.175215 Z-2.000000
G02 X86.773791 Y157.243053 Z-2.000000 I0.074063 J1.254457
G02 X86.592671 Y157.356709 Z-2.000000 I0.157727 J0.452495
G01 X86.592671 Y157.356709 Z-2.000000
G00 Z1.000000

(End cutting path id: path292)

(Start cutting path id: path266)
(Change tool to Default tool)

G00 Z1.000000
G00 X84.029307 Y156.395483

G01 Z-2.000000 F1000.0(Penetrate)
G01 X84.189523 Y156.876110 Z-2.000000 F1000.000000
G02 X84.620015 Y156.893076 Z-2.000000 I1.699092 J-37.641708
G02 X85.050649 Y156.906139 Z-2.000000 I2.164778 J-64.261951
G01 X85.535033 Y156.923030 Z-2.000000
G01 X85.951827 Y156.876088 Z-2.000000
G01 X86.272240 Y156.395456 Z-2.000000
G01 X84.029307 Y156.395483 Z-2.000000
G01 X84.029307 Y156.395483 Z-2.000000
G00 Z1.000000

(End cutting path id: path266)

(Start cutting path id: path150)
(Change tool to Default tool)

G00 Z1.000000
G00 X83.869094 Y156.075066

G01 Z-2.000000 F1000.0(Penetrate)
G01 X86.432446 Y156.075035 Z-2.000000 F1000.000000
G01 X86.592651 Y155.754614 Z-2.000000
G01 X85.951803 Y154.953574 Z-2.000000
G01 X85.791600 Y155.434205 Z-2.000000
G01 X85.521244 Y155.273999 Z-2.000000
G02 X84.944927 Y155.130226 Z-2.000000 I-0.723471 J1.673082
G02 X84.349711 Y155.113803 Z-2.000000 I-0.451720 J5.577256
G01 X83.869080 Y154.953600 Z-2.000000
G02 X83.790852 Y155.284998 Z-2.000000 I0.662798 J0.331389
G02 X83.869094 Y156.075066 Z-2.000000 I4.028578 J-0.000049
G01 X83.869094 Y156.075066 Z-2.000000
G00 Z1.000000

(End cutting path id: path150)

(Start cutting path id: path154)
(Change tool to Default tool)

G00 Z1.000000
G00 X78.742390 Y156.075129

G01 Z-2.000000 F1000.0(Penetrate)
G01 X80.504695 Y156.075107 Z-2.000000 F1000.000000
G02 X80.606782 Y155.560213 Z-2.000000 I-4.725603 J-1.204504
G02 X80.664890 Y154.953639 Z-2.000000 I-6.505695 J-0.929304
G02 X80.254448 Y154.503255 Z-2.000000 I-5.057303 J4.196589
G02 X79.863833 Y154.152601 Z-2.000000 I-3.448302 J3.448386
G02 X78.882558 Y155.556634 Z-2.000000 I8.059357 J6.677587
G02 X78.742390 Y156.075129 Z-2.000000 I0.888852 J0.518482
G01 X78.742390 Y156.075129 Z-2.000000
G00 Z1.000000

(End cutting path id: path154)

(Start cutting path id: path166)
(Change tool to Default tool)

G00 Z1.000000
G00 X78.742394 Y156.395548

G01 Z-2.000000 F1000.0(Penetrate)
G01 X79.192990 Y156.956276 Z-2.000000 F1000.000000
G03 X79.773003 Y157.915984 Z-2.000000 I-4.338194 J3.276969
G03 X80.184311 Y158.958882 Z-2.000000 I-7.848841 J3.698057
G01 X80.825139 Y158.157827 Z-2.000000
G01 X80.664925 Y157.797357 Z-2.000000
G03 X80.531506 Y157.323579 Z-2.000000 I1.782528 J-0.757646
G03 X80.504702 Y156.715945 Z-2.000000 I2.925619 J-0.433461
G01 X80.664908 Y156.395524 Z-2.000000
G01 X78.742394 Y156.395548 Z-2.000000
G01 X78.742394 Y156.395548 Z-2.000000
G00 Z1.000000

(End cutting path id: path166)

(Start cutting path id: path249)
(Change tool to Default tool)

G00 Z1.000000
G00 X77.941372 Y158.478281

G01 Z-2.000000 F1000.0(Penetrate)
G01 X78.582212 Y158.638483 Z-2.000000 F1000.000000
G02 X78.674047 Y158.274207 Z-2.000000 I-3.625045 J-1.107604
G02 X78.742412 Y157.837433 Z-2.000000 I-5.147346 J-1.029404
G02 X78.510525 Y157.483405 Z-2.000000 I-2.893886 J1.642523
G02 X78.261775 Y157.196601 Z-2.000000 I-2.142194 J1.606687
G01 X77.941356 Y157.196605 Z-2.000000
G02 X77.835185 Y157.830617 Z-2.000000 I0.980066 J0.490018
G02 X77.941372 Y158.478281 Z-2.000000 I10.592921 J-1.404221
G01 X77.941372 Y158.478281 Z-2.000000
G00 Z1.000000

(End cutting path id: path249)

(Start cutting path id: path238)
(Change tool to Default tool)

G00 Z1.000000
G00 X78.422006 Y158.958904

G01 Z-2.000000 F1000.0(Penetrate)
G01 X78.582220 Y159.279321 Z-2.000000 F1000.000000
G01 X79.543477 Y159.279309 Z-2.000000
G02 X79.638577 Y158.933444 Z-2.000000 I-2.385796 J-0.842013
G02 X79.703676 Y158.478259 Z-2.000000 I-4.076714 J-0.815291
G02 X79.378269 Y157.957651 Z-2.000000 I-9.020695 J5.276403
G02 X79.062827 Y157.517010 Z-2.000000 I-6.774668 J4.516565
G02 X78.905037 Y158.144464 Z-2.000000 I1.342273 J0.671116
G02 X78.902633 Y158.798688 Z-2.000000 I12.862693 J0.374391
G01 X78.422006 Y158.958904 Z-2.000000
G01 X78.422006 Y158.958904 Z-2.000000
G00 Z1.000000

(End cutting path id: path238)

(Start cutting path id: path397)
(Change tool to Default tool)

G00 Z1.000000
G00 X86.112152 Y166.328446

G01 Z-2.000000 F1000.0(Penetrate)
G02 X86.270360 Y166.664867 Z-2.000000 I7.063880 J-3.116521 F1000.000000
G02 X86.432579 Y166.969280 Z-2.000000 I5.945021 J-2.972601
G01 X86.913195 Y166.008017 Z-2.000000
G01 X86.272357 Y166.008025 Z-2.000000
G01 X86.112152 Y166.328446 Z-2.000000
G01 X86.112152 Y166.328446 Z-2.000000
G00 Z1.000000

(End cutting path id: path397)

(Start cutting path id: path351)
(Change tool to Default tool)

G00 Z1.000000
G00 X88.995921 Y166.168201

G01 Z-2.000000 F1000.0(Penetrate)
G01 X89.156142 Y167.129456 Z-2.000000 F1000.000000
G01 X89.796978 Y166.969239 Z-2.000000
G01 X89.476545 Y165.847777 Z-2.000000
G01 X88.995921 Y166.168201 Z-2.000000
G01 X88.995921 Y166.168201 Z-2.000000
G00 Z1.000000

(End cutting path id: path351)

(Start cutting path id: path145)
(Change tool to Default tool)

G00 Z1.000000
G00 X89.796964 Y165.847773

G01 Z-2.000000 F1000.0(Penetrate)
G02 X90.068585 Y167.090925 Z-2.000000 I4.818797 J-0.401626 F1000.000000
G02 X90.598041 Y168.250905 Z-2.000000 I7.398769 J-2.676240
G02 X91.204772 Y167.481537 Z-2.000000 I-15.621344 J-12.943078
G02 X91.719488 Y166.648797 Z-2.000000 I-4.357247 J-3.268648
G01 X91.559272 Y166.168170 Z-2.000000
G01 X89.796964 Y165.847773 Z-2.000000
G01 X89.796964 Y165.847773 Z-2.000000
G00 Z1.000000

(End cutting path id: path145)

(Start cutting path id: path152)
(Change tool to Default tool)

G00 Z1.000000
G00 X89.957172 Y165.687561

G01 Z-2.000000 F1000.0(Penetrate)
G01 X92.039899 Y166.007955 Z-2.000000 F1000.000000
G01 X92.039885 Y164.886488 Z-2.000000
G01 X89.957158 Y164.566095 Z-2.000000
G02 X89.878930 Y164.897493 Z-2.000000 I0.662798 J0.331389
G02 X89.957172 Y165.687561 Z-2.000000 I4.028578 J-0.000049
G01 X89.957172 Y165.687561 Z-2.000000
G00 Z1.000000

(End cutting path id: path152)

(Start cutting path id: path126)
(Change tool to Default tool)

G00 Z1.000000
G00 X90.277571 Y164.085462

G01 Z-2.000000 F1000.0(Penetrate)
G01 X90.437785 Y164.405879 Z-2.000000 F1000.000000
G02 X91.174239 Y164.510398 Z-2.000000 I2.130589 J-12.365600
G02 X91.914092 Y164.589226 Z-2.000000 I7.963135 J-71.227884
G01 X92.360302 Y164.726275 Z-2.000000
G03 X92.547541 Y165.121415 Z-2.000000 I-3.089182 J1.705755
G03 X92.680731 Y165.527318 Z-2.000000 I-3.127374 J1.250994
G01 X93.001154 Y165.847734 Z-2.000000
G02 X93.083618 Y165.370382 Z-2.000000 I-1.530822 J-0.510253
G02 X93.017767 Y165.033113 Z-2.000000 I-0.811824 J-0.016556
G01 X92.791490 Y164.654301 Z-2.000000
G01 X92.548981 Y164.242828 Z-2.000000
G01 X92.290200 Y163.815084 Z-2.000000
G01 X92.033296 Y163.381708 Z-2.000000
G02 X91.717223 Y162.851785 Z-2.000000 I-125.978387 J74.780676
G02 X91.399016 Y162.323144 Z-2.000000 I-137.212167 J82.232533
G02 X90.775506 Y163.162990 Z-2.000000 I8.393669 J6.882922
G02 X90.277571 Y164.085462 Z-2.000000 I4.567985 J3.061344
G01 X90.277571 Y164.085462 Z-2.000000
G00 Z1.000000

(End cutting path id: path126)

(Start cutting path id: path252)
(Change tool to Default tool)

G00 Z1.000000
G00 X89.476514 Y163.284425

G01 Z-2.000000 F1000.0(Penetrate)
G01 X90.117354 Y163.444626 Z-2.000000 F1000.000000
G01 X91.078589 Y161.682310 Z-2.000000
G01 X90.437751 Y161.682318 Z-2.000000
G02 X90.180702 Y162.043183 Z-2.000000 I4.106289 J3.196959
G02 X89.917080 Y162.483372 Z-2.000000 I5.851856 J3.803604
G01 X89.664255 Y162.933964 Z-2.000000
G01 X89.476514 Y163.284425 Z-2.000000
G01 X89.476514 Y163.284425 Z-2.000000
G00 Z1.000000

(End cutting path id: path252)

(Start cutting path id: path15)
(Change tool to Default tool)

G00 Z1.000000
G00 X91.719437 Y162.483350

G01 Z-2.000000 F1000.0(Penetrate)
G02 X92.063006 Y163.145499 Z-2.000000 I9.833708 J-4.682206 F1000.000000
G02 X92.430383 Y163.795056 Z-2.000000 I176.303754 J-99.285143
G01 X92.628458 Y164.152709 Z-2.000000
G01 X92.820276 Y164.492839 Z-2.000000
G01 X92.995157 Y164.803360 Z-2.000000
G02 X93.188495 Y165.015588 Z-2.000000 I0.851778 J-0.581788
G02 X93.481775 Y165.206890 Z-2.000000 I0.979502 J-1.181185
G01 X93.753374 Y164.711238 Z-2.000000
G03 X95.081862 Y162.342471 Z-2.000000 I150.292028 J82.732160
G03 X96.441636 Y159.991518 Z-2.000000 I220.766833 J126.121212
G02 X97.483036 Y158.205221 Z-2.000000 I-472.338384 J-276.567103
G02 X98.518253 Y156.415333 Z-2.000000 I-569.653019 J-330.664146
G01 X98.820321 Y155.891206 Z-2.000000
G02 X99.123601 Y155.364822 Z-2.000000 I-7490.080380 J-4303.117762
G02 X99.426844 Y154.838416 Z-2.000000 I-7493.420638 J-4329.767804
G03 X100.178890 Y153.534002 Z-2.000000 I2238.581697 J1289.744429
G03 X100.931357 Y152.229830 Z-2.000000 I20906.942280 J12063.330478
G01 X101.532130 Y151.188461 Z-2.000000
G01 X101.832517 Y150.667777 Z-2.000000
G01 X107.840479 Y140.253656 Z-2.000000
G03 X108.139672 Y139.735112 Z-2.000000 I6578.450453 J3793.860186
G03 X108.438907 Y139.216590 Z-2.000000 I6690.404419 J3862.153416
G02 X109.208349 Y137.882265 Z-2.000000 I-2035.895566 J-1174.894518
G02 X109.976744 Y136.547338 Z-2.000000 I-1462.671783 J-842.814888
G03 X111.564962 Y133.804701 Z-2.000000 I487.624291 J280.544256
G03 X113.187125 Y131.082028 Z-2.000000 I142.476803 J83.042830
G02 X112.714045 Y130.846234 Z-2.000000 I-24.793218 J49.150823
G02 X112.237127 Y130.618309 Z-2.000000 I-9.927081 J20.158807
G01 X111.925468 Y130.471245 Z-2.000000
G01 X111.616311 Y130.327936 Z-2.000000
G03 X110.938180 Y129.853973 Z-2.000000 I2.702858 J-4.589264
G03 X110.303333 Y129.319759 Z-2.000000 I22.363673 J-27.220802
G01 X110.103623 Y129.670532 Z-2.000000
G03 X108.227942 Y132.949975 Z-2.000000 I-937.631544 J-534.103293
G03 X106.333421 Y136.218595 Z-2.000000 I-409.466719 J-235.147174
G02 X104.861076 Y138.752064 Z-2.000000 I469.958903 J274.814790
G02 X103.397026 Y141.290339 Z-2.000000 I2185.596784 J1262.320203
G03 X102.644980 Y142.594753 Z-2.000000 I-2236.890074 J-1288.792708
G03 X101.892512 Y143.898925 Z-2.000000 I-21028.822089 J-12131.559145
G01 X101.291740 Y144.940294 Z-2.000000
G01 X100.991353 Y145.460979 Z-2.000000
G01 X97.687102 Y151.188508 Z-2.000000
G01 X97.386599 Y151.709388 Z-2.000000
G01 X96.786999 Y152.748802 Z-2.000000
G03 X95.873046 Y154.332649 Z-2.000000 I-5279.423366 J-3045.430599
G03 X94.958592 Y155.916208 Z-2.000000 I-4755.648779 J-2745.165089
G02 X94.656432 Y156.440292 Z-2.000000 I668.971241 J386.044599
G02 X94.354691 Y156.964617 Z-2.000000 I642.598583 J370.154364
G03 X93.630419 Y158.217242 Z-2.000000 I-260.529942 J-149.803504
G03 X92.897816 Y159.465014 Z-2.000000 I-146.942216 J-85.435096
G01 X92.622579 Y159.933872 Z-2.000000
G03 X92.365697 Y160.368648 Z-2.000000 I-81.409383 J-47.806442
G03 X92.106368 Y160.801967 Z-2.000000 I-73.175218 J-43.499110
G01 X91.879631 Y161.190407 Z-2.000000
G01 X91.679373 Y161.527022 Z-2.000000
G02 X91.611742 Y162.007366 Z-2.000000 I1.020358 J0.388597
G02 X91.719437 Y162.483350 Z-2.000000 I1.762651 J-0.148639
G01 X91.719437 Y162.483350 Z-2.000000
G00 Z1.000000

(End cutting path id: path15)

(Start cutting path id: path57)
(Change tool to Default tool)

G00 Z1.000000
G00 X91.059519 Y161.242375

G01 Z-2.000000 F1000.0(Penetrate)
G01 X91.238780 Y161.522036 Z-2.000000 F1000.000000
G01 X91.394371 Y161.244796 Z-2.000000
G03 X93.036262 Y158.347552 Z-2.000000 I389.043164 J218.559938
G03 X94.703667 Y155.464933 Z-2.000000 I283.463896 J162.041583
G02 X96.188435 Y152.911250 Z-2.000000 I-457.732737 J-267.844656
G02 X97.664468 Y150.352508 Z-2.000000 I-2021.457213 J-1167.800314
G03 X98.416514 Y149.048094 Z-2.000000 I2238.955466 J1289.969940
G03 X99.168981 Y147.743923 Z-2.000000 I20994.098089 J12112.768255
G01 X99.769754 Y146.702554 Z-2.000000
G01 X100.070141 Y146.181869 Z-2.000000
G01 X105.777483 Y136.288864 Z-2.000000
G01 X106.078534 Y135.767318 Z-2.000000
G02 X106.375851 Y135.251084 Z-2.000000 I-528.676831 J-304.827180
G02 X106.672658 Y134.734556 Z-2.000000 I-515.166440 J-296.367341
G03 X107.380823 Y133.510617 Z-2.000000 I205.182989 J117.901119
G03 X108.100320 Y132.293348 Z-2.000000 I96.801757 J56.395769
G02 X108.443938 Y131.716921 Z-2.000000 I-139.948021 J-83.816012
G02 X108.786041 Y131.139594 Z-2.000000 I-507.558555 J-301.150946
G03 X109.031418 Y130.731559 Z-2.000000 I49.107176 J29.253464
G03 X109.278864 Y130.324772 Z-2.000000 I223.829719 J135.875576
G01 X109.572992 Y129.826618 Z-2.000000
G01 X109.836808 Y129.388307 Z-2.000000
G02 X109.910564 Y128.998841 Z-2.000000 I-1.083692 J-0.406944
G02 X109.848302 Y128.627155 Z-2.000000 I-1.046239 J-0.015799
G01 X109.662470 Y128.358447 Z-2.000000
G01 X109.462759 Y128.709220 Z-2.000000
G03 X107.729307 Y131.743252 Z-2.000000 I-1179.250387 J-671.736062
G03 X105.977729 Y134.766872 Z-2.000000 I-322.891933 J-185.031580
G02 X104.770027 Y136.846074 Z-2.000000 I295.743209 J173.172484
G02 X103.574638 Y138.932348 Z-2.000000 I434.509217 J250.349823
G03 X102.236835 Y141.264556 Z-2.000000 I-411.590829 J-234.547283
G03 X100.885827 Y143.589172 Z-2.000000 I-411.801508 J-237.773581
G02 X99.413755 Y146.122174 Z-2.000000 I469.513884 J274.555676
G02 X97.949980 Y148.659979 Z-2.000000 I2189.434970 J1264.530161
G03 X97.197932 Y149.964392 Z-2.000000 I-2226.522968 J-1282.810801
G03 X96.445466 Y151.268565 Z-2.000000 I-24769.824796 J-14290.998809
G01 X95.846571 Y152.306805 Z-2.000000
G03 X95.082348 Y153.630975 Z-2.000000 I-3612.784740 J-2084.156750
G03 X94.317690 Y154.954895 Z-2.000000 I-4585.073935 J-2647.354585
G02 X94.015666 Y155.478945 Z-2.000000 I521.079512 J300.661709
G02 X93.714179 Y156.003305 Z-2.000000 I500.421684 J288.071709
G03 X92.988484 Y157.256856 Z-2.000000 I-187.965673 J-107.978733
G03 X92.251321 Y158.503702 Z-2.000000 I-107.296316 J-62.594654
G01 X91.973893 Y158.972560 Z-2.000000
G03 X91.714253 Y159.407568 Z-2.000000 I-62.419399 J-36.960906
G03 X91.451424 Y159.840655 Z-2.000000 I-56.289455 J-33.864282
G01 X91.223119 Y160.229095 Z-2.000000
G01 X91.020319 Y160.565710 Z-2.000000
G02 X90.980155 Y160.879347 Z-2.000000 I0.816817 J0.263991
G02 X91.059519 Y161.242375 Z-2.000000 I1.183608 J-0.068568
G01 X91.059519 Y161.242375 Z-2.000000
G00 Z1.000000

(End cutting path id: path57)

(Start cutting path id: path28)
(Change tool to Default tool)

G00 Z1.000000
G00 X90.117305 Y159.439389

G01 Z-2.000000 F1000.0(Penetrate)
G02 X90.464170 Y160.039863 Z-2.000000 I3.095341 J-1.387612 F1000.000000
G02 X90.918366 Y160.560846 Z-2.000000 I3.088129 J-2.233770
G01 X91.118076 Y160.210072 Z-2.000000
G03 X92.851529 Y157.176039 Z-2.000000 I1179.406490 J671.825442
G03 X94.603106 Y154.152421 Z-2.000000 I322.880952 J185.025267
G02 X95.810809 Y152.073218 Z-2.000000 I-295.768922 J-173.187360
G02 X97.006197 Y149.986945 Z-2.000000 I-434.508814 J-250.349679
G03 X98.344001 Y147.654736 Z-2.000000 I411.584217 J234.543393
G03 X99.695008 Y145.330120 Z-2.000000 I411.779079 J237.760563
G02 X101.167080 Y142.797119 Z-2.000000 I-469.518538 J-274.558421
G02 X102.630855 Y140.259314 Z-2.000000 I-2189.409477 J-1264.515779
G03 X103.382904 Y138.954900 Z-2.000000 I2224.357757 J1281.572144
G03 X104.135369 Y137.650728 Z-2.000000 I25003.078257 J14424.295720
G01 X104.734264 Y136.612488 Z-2.000000
G03 X105.344291 Y135.555396 Z-2.000000 I3701.586818 J2135.388910
G03 X105.954584 Y134.498459 Z-2.000000 I4812.113658 J2777.922895
G02 X106.704291 Y133.199120 Z-2.000000 I-1535.818477 J-887.021850
G02 X107.453231 Y131.899338 Z-2.000000 I-3863.420703 J-2226.970748
G03 X107.879534 Y131.162764 Z-2.000000 I317.776000 J183.425920
G03 X108.306985 Y130.426856 Z-2.000000 I919.471392 J533.582178
G02 X108.569218 Y129.973459 Z-2.000000 I-5411.480776 J-3137.229481
G02 X108.831410 Y129.520039 Z-2.000000 I-4986.381645 J-2877.708423
G01 X109.073088 Y129.106799 Z-2.000000
G02 X109.581870 Y128.117903 Z-2.000000 I-10.122508 J-5.833314
G02 X109.982886 Y127.076830 Z-2.000000 I-8.481351 J-3.864743
G03 X110.179815 Y126.805635 Z-2.000000 I3.002038 J1.972837
G03 X110.383404 Y126.576170 Z-2.000000 I2.349997 J1.879950
G02 X110.937010 Y125.672184 Z-2.000000 I-2.417012 J-2.101698
G02 X111.124349 Y124.633621 Z-2.000000 I-2.406516 J-0.970273
G01 X111.115580 Y124.200556 Z-2.000000
G01 X111.104313 Y123.872627 Z-2.000000
G02 X110.475399 Y124.703022 Z-2.000000 I8.432422 J7.039799
G02 X109.924667 Y125.586758 Z-2.000000 I9.882399 J6.772048
G01 X109.617983 Y126.127233 Z-2.000000
G01 X109.457224 Y126.412815 Z-2.000000
G03 X109.116496 Y127.015843 Z-2.000000 I-190.631964 J-107.314846
G03 X108.774694 Y127.618266 Z-2.000000 I-1538.612395 J-872.576875
G02 X108.597910 Y127.929921 Z-2.000000 I787.204224 J446.745768
G02 X108.421247 Y128.241644 Z-2.000000 I815.980769 J462.642090
G03 X107.558192 Y129.753857 Z-2.000000 I-244.160344 J-138.345623
G03 X106.688630 Y131.262343 Z-2.000000 I-626.624691 J-360.211058
G01 X106.390550 Y131.778452 Z-2.000000
G03 X106.092751 Y132.294006 Z-2.000000 I-5302.180689 J-3063.358569
G03 X105.794902 Y132.809534 Z-2.000000 I-5552.659084 J-3206.632900
G02 X105.045016 Y134.108542 Z-2.000000 I2155.540747 J1245.183239
G02 X104.295551 Y135.407793 Z-2.000000 I29100.148915 J16791.402732
G01 X103.995478 Y135.927851 Z-2.000000
G02 X103.241297 Y137.235369 Z-2.000000 I4438.514643 J2561.033064
G02 X102.487600 Y138.543164 Z-2.000000 I2950.533001 J1701.290250
G03 X101.037657 Y141.053224 Z-2.000000 I-1140.636403 J-657.218185
G03 X99.579484 Y143.558508 Z-2.000000 I-574.956985 J-332.970385
G02 X98.285003 Y145.790921 Z-2.000000 I298.725543 J174.709690
G02 X97.003093 Y148.030539 Z-2.000000 I592.941536 J340.873717
G03 X95.748419 Y150.215888 Z-2.000000 I-353.496716 J-201.500224
G03 X94.481441 Y152.394147 Z-2.000000 I-429.650204 J-248.447196
G02 X93.407947 Y154.237907 Z-2.000000 I474.779728 J277.665835
G02 X92.340171 Y156.084976 Z-2.000000 I797.793586 J462.430579
G01 X92.035364 Y156.613561 Z-2.000000
G02 X91.757882 Y157.095491 Z-2.000000 I650.147241 J374.658264
G02 X91.480784 Y157.577641 Z-2.000000 I566.555721 J325.927964
G03 X91.255443 Y157.966496 Z-2.000000 I-85.769270 J-49.443408
G03 X91.028014 Y158.354131 Z-2.000000 I-62.380324 J-36.338671
G02 X90.662141 Y159.103075 Z-2.000000 I4.663673 J2.742130
G02 X90.597933 Y159.439383 Z-2.000000 I0.848602 J0.336297
G01 X90.117305 Y159.439389 Z-2.000000
G01 X90.117305 Y159.439389 Z-2.000000
G00 Z1.000000

(End cutting path id: path28)

(Start cutting path id: path47)
(Change tool to Default tool)

G00 Z1.000000
G00 X90.247386 Y158.695855

G01 Z-2.000000 F1000.0(Penetrate)
G01 X90.437638 Y158.958697 Z-2.000000 F1000.000000
G02 X92.151776 Y156.130017 Z-2.000000 I-70.059778 J-44.388903
G02 X93.803923 Y153.264726 Z-2.000000 I-783.507889 J-453.685191
G03 X94.563264 Y151.945854 Z-2.000000 I749.273772 J430.516034
G03 X95.323926 Y150.627744 Z-2.000000 I5408.061480 J3120.040861
G01 X95.924698 Y149.586375 Z-2.000000
G01 X96.225085 Y149.065690 Z-2.000000
G01 X107.039504 Y130.320148 Z-2.000000
G03 X107.337333 Y129.803952 Z-2.000000 R9595.137872
G03 X107.635194 Y129.287775 Z-2.000000 R9248.395375
G02 X108.340415 Y128.065136 Z-2.000000 I-3283.869185 J-1894.950156
G02 X109.044921 Y126.842085 Z-2.000000 I-1534.121957 J-884.506214
G03 X109.378396 Y126.262846 Z-2.000000 I2238.979523 J1288.463132
G03 X109.711966 Y125.683663 Z-2.000000 I8278.961931 J4769.929716
G02 X109.947882 Y125.273651 Z-2.000000 I-775.271812 J-446.355443
G02 X110.183667 Y124.863561 Z-2.000000 I-3618.402933 J-2080.689591
G01 X110.471537 Y124.363841 Z-2.000000
G01 X110.725183 Y123.922988 Z-2.000000
G03 X110.988953 Y123.493576 Z-2.000000 I12.247133 J7.227191
G03 X111.264433 Y123.071518 Z-2.000000 I21.854968 J13.963928
G02 X111.274463 Y122.510764 Z-2.000000 I-17.552723 J-0.594410
G02 X111.264419 Y121.950051 Z-2.000000 I-14.144065 J-0.027105
G02 X110.635505 Y122.780445 Z-2.000000 I8.432291 J7.039711
G02 X110.084773 Y123.664181 Z-2.000000 I9.882374 J6.772034
G01 X109.778089 Y124.204658 Z-2.000000
G01 X109.617330 Y124.490238 Z-2.000000
G03 X109.276601 Y125.093267 Z-2.000000 I-190.478680 J-107.228124
G03 X108.934800 Y125.695690 Z-2.000000 I-1541.970937 J-874.483608
G02 X108.758016 Y126.007344 Z-2.000000 I787.205052 J446.744309
G02 X108.581353 Y126.319067 Z-2.000000 I815.979880 J462.643658
G03 X107.718298 Y127.831281 Z-2.000000 I-244.124804 J-138.325265
G03 X106.848736 Y129.339768 Z-2.000000 I-626.863859 J-360.348736
G01 X106.550656 Y129.855875 Z-2.000000
G03 X106.252857 Y130.371430 Z-2.000000 I-5302.180689 J-3063.358569
G03 X105.955008 Y130.886957 Z-2.000000 I-5552.659073 J-3206.632906
G02 X105.205120 Y132.185964 Z-2.000000 I2169.671705 J1253.382487
G02 X104.455657 Y133.485218 Z-2.000000 I22597.065456 J13034.412903
G01 X103.854884 Y134.526587 Z-2.000000
G01 X102.352913 Y137.130086 Z-2.000000
G01 X101.752531 Y138.170673 Z-2.000000
G02 X100.998334 Y139.478232 Z-2.000000 I4581.708137 J2643.610582
G02 X100.244615 Y140.786065 Z-2.000000 I2943.296613 J1697.118688
G03 X98.794672 Y143.296124 Z-2.000000 I-1140.510360 J-657.145575
G03 X97.336498 Y145.801408 Z-2.000000 I-575.016510 J-333.005039
G02 X96.042547 Y148.032832 Z-2.000000 I299.797328 J175.336517
G02 X94.761237 Y150.271503 Z-2.000000 I577.536526 J332.040545
G03 X93.606206 Y152.285193 Z-2.000000 I-363.903520 J-207.393257
G03 X92.440200 Y154.292571 Z-2.000000 I-374.798331 J-216.363062
G01 X92.161716 Y154.771169 Z-2.000000
G03 X91.568049 Y155.783683 Z-2.000000 I-169.770487 J-98.861205
G03 X90.963299 Y156.789604 Z-2.000000 I-63.171100 J-37.293127
G01 X90.772741 Y157.106349 Z-2.000000
G03 X90.531126 Y157.503716 Z-2.000000 I-49.262912 J-29.681711
G03 X90.287429 Y157.899814 Z-2.000000 I-165.260934 J-101.402797
G02 X90.194148 Y158.319979 Z-2.000000 I1.190514 J0.484743
G02 X90.247386 Y158.695855 Z-2.000000 I0.998793 J0.050242
G01 X90.247386 Y158.695855 Z-2.000000
G00 Z1.000000

(End cutting path id: path47)

(Start cutting path id: path50)
(Change tool to Default tool)

G00 Z1.000000
G00 X89.636655 Y157.677091

G01 Z-2.000000 F1000.0(Penetrate)
G01 X89.957080 Y158.157715 Z-2.000000 F1000.000000
G02 X91.231007 Y156.063380 Z-2.000000 I-92.615378 J-57.770019
G02 X92.460302 Y153.942173 Z-2.000000 I-105.207181 J-62.387102
G03 X92.798693 Y153.347232 Z-2.000000 I773.393577 J439.498044
G03 X93.137422 Y152.752484 Z-2.000000 I1613.832568 J918.739933
G01 X93.307768 Y152.453414 Z-2.000000
G03 X94.111553 Y151.057629 Z-2.000000 I167.289739 J95.407005
G03 X94.923470 Y149.666552 Z-2.000000 I421.162272 J244.883621
G02 X96.131185 Y147.587356 Z-2.000000 I-294.245989 J-172.305150
G02 X97.326562 Y145.501076 Z-2.000000 I-435.605363 J-250.974474
G03 X98.664365 Y143.168866 Z-2.000000 I411.581541 J234.541870
G03 X100.015372 Y140.844251 Z-2.000000 I411.765221 J237.752579
G02 X101.487445 Y138.311249 Z-2.000000 I-469.555542 J-274.579823
G02 X102.951220 Y135.773444 Z-2.000000 I-2189.317732 J-1264.462969
G03 X103.703266 Y134.469030 Z-2.000000 I2236.882259 J1288.806258
G03 X104.455733 Y133.164858 Z-2.000000 I21029.513427 J12130.360987
G01 X105.056506 Y132.123489 Z-2.000000
G01 X105.356892 Y131.602805 Z-2.000000
G01 X106.258052 Y130.040751 Z-2.000000
G01 X106.558829 Y129.519402 Z-2.000000
G01 X107.155691 Y128.484681 Z-2.000000
G03 X107.853571 Y127.275137 Z-2.000000 I4662.207590 J2689.184791
G03 X108.551969 Y126.065892 Z-2.000000 I2025.410306 J1168.966383
G02 X108.798233 Y125.639693 Z-2.000000 I-2866.718139 J-1656.975224
G02 X109.044449 Y125.213467 Z-2.000000 I-6094.713959 J-3519.809647
G03 X109.352583 Y124.680223 Z-2.000000 I2032.869307 J1174.317810
G03 X109.660866 Y124.147065 Z-2.000000 I1794.269870 J1037.141056
G02 X109.936323 Y123.669024 Z-2.000000 I-244.798828 J-141.376217
G02 X110.210793 Y123.190417 Z-2.000000 I-220.314621 J-126.663369
G03 X110.458422 Y122.764128 Z-2.000000 I50.342718 J28.958680
G03 X110.709873 Y122.340080 Z-2.000000 I44.802630 J26.280499
G01 X110.932816 Y121.960754 Z-2.000000
G01 X111.127989 Y121.635677 Z-2.000000
G02 X111.260343 Y121.080579 Z-2.000000 I-1.631712 J-0.682381
G02 X111.264482 Y120.508225 Z-2.000000 I-4.408322 J-0.318073
G02 X110.707287 Y121.146869 Z-2.000000 I2.262956 J2.536742
G02 X110.260685 Y121.870645 Z-2.000000 I8.922049 J6.004972
G01 X109.952438 Y122.414249 Z-2.000000
G01 X109.789684 Y122.703820 Z-2.000000
G03 X109.446357 Y123.312184 Z-2.000000 I-175.880842 J-98.856529
G03 X109.101849 Y123.919881 Z-2.000000 I-1453.706794 J-823.714636
G02 X108.923732 Y124.234180 Z-2.000000 I715.473249 J405.670413
G02 X108.745751 Y124.548558 Z-2.000000 I724.778670 J410.535247
G03 X107.880863 Y126.065036 Z-2.000000 I-230.045278 J-130.196264
G03 X107.009004 Y127.577521 Z-2.000000 I-582.662868 J-334.863396
G01 X106.413237 Y128.608877 Z-2.000000
G01 X106.115980 Y129.123304 Z-2.000000
G02 X105.663619 Y129.907334 Z-2.000000 I1050.039533 J606.360630
G02 X105.211692 Y130.691615 Z-2.000000 I2190.446393 J1262.731743
G03 X103.761474 Y133.202321 Z-2.000000 I-1110.800768 J-639.939198
G03 X102.302949 Y135.708210 Z-2.000000 I-575.170537 J-333.094210
G02 X101.008468 Y137.940623 Z-2.000000 I298.730000 J174.712258
G02 X99.726559 Y140.180241 Z-2.000000 I592.967914 J340.888896
G03 X98.469922 Y142.368920 Z-2.000000 I-352.051041 J-200.676068
G03 X97.201034 Y144.550538 Z-2.000000 I-438.899718 J-253.816134
G02 X95.730013 Y147.081776 Z-2.000000 I467.864469 J273.591183
G02 X94.267299 Y149.617824 Z-2.000000 I2191.248621 J1265.533415
G03 X93.805803 Y150.418010 Z-2.000000 I-1250.796347 J-720.846587
G03 X93.343924 Y151.217975 Z-2.000000 I-2520.662875 J-1454.832940
G02 X91.485666 Y154.444879 Z-2.000000 I1291.817833 J746.059643
G02 X89.636655 Y157.677091 Z-2.000000 I999.784299 J574.079210
G01 X89.636655 Y157.677091 Z-2.000000
G00 Z1.000000

(End cutting path id: path50)

(Start cutting path id: path350)
(Change tool to Default tool)

G00 Z1.000000
G00 X89.316259 Y159.599608

G01 Z-2.000000 F1000.0(Penetrate)
G01 X89.396371 Y160.130301 Z-2.000000 F1000.000000
G03 X89.463224 Y160.702729 Z-2.000000 I-6.839016 J1.088839
G03 X89.476488 Y161.201701 Z-2.000000 I-5.180287 J0.387375
G01 X89.957117 Y161.201696 Z-2.000000
G02 X90.051338 Y160.934215 Z-2.000000 I-1.375813 J-0.634970
G02 X90.117319 Y160.560856 Z-2.000000 I-2.627564 J-0.656857
G02 X89.800754 Y160.051016 Z-2.000000 I-8.032632 J4.634342
G02 X89.476469 Y159.599607 Z-2.000000 I-6.618739 J4.412610
G01 X89.316259 Y159.599608 Z-2.000000
G01 X89.316259 Y159.599608 Z-2.000000
G00 Z1.000000

(End cutting path id: path350)

(Start cutting path id: path237)
(Change tool to Default tool)

G00 Z1.000000
G00 X89.476381 Y152.390180

G01 Z-2.000000 F1000.0(Penetrate)
G01 X89.796810 Y153.191223 Z-2.000000 F1000.000000
G01 X90.758067 Y153.191211 Z-2.000000
G01 X90.758055 Y152.229954 Z-2.000000
G02 X90.197323 Y152.224954 Z-2.000000 I-0.550697 J30.308725
G02 X89.636588 Y152.229968 Z-2.000000 I0.010778 J32.558537
G01 X89.476381 Y152.390180 Z-2.000000
G01 X89.476381 Y152.390180 Z-2.000000
G00 Z1.000000

(End cutting path id: path237)

(Start cutting path id: path18)
(Change tool to Default tool)

G00 Z1.000000
G00 X90.597836 Y151.428909

G01 Z-2.000000 F1000.0(Penetrate)
G01 X90.758049 Y151.729300 Z-2.000000 F1000.000000
G03 X90.977509 Y152.445962 Z-2.000000 I-2.384336 J1.122076
G03 X91.078486 Y153.191207 Z-2.000000 I-18.779674 J2.924016
G02 X91.675348 Y152.407511 Z-2.000000 I-8.749413 J-7.282669
G02 X92.193674 Y151.570950 Z-2.000000 I-7.640454 J-5.312823
G01 X92.458976 Y151.091296 Z-2.000000
G01 X92.740627 Y150.577770 Z-2.000000
G03 X93.894641 Y148.517965 Z-2.000000 I219.387233 J121.559439
G03 X95.073628 Y146.472373 Z-2.000000 I137.633368 J77.963076
G02 X96.238767 Y144.476869 Z-2.000000 I-625.677623 J-366.659970
G02 X97.396616 Y142.477121 Z-2.000000 I-485.416840 J-282.390214
G01 X97.698841 Y141.952720 Z-2.000000
G02 X98.002043 Y141.426473 Z-2.000000 I-7377.038832 J-4258.050200
G02 X98.305207 Y140.900204 Z-2.000000 I-7448.883863 J-4283.889446
G03 X99.057253 Y139.595790 Z-2.000000 I2238.566780 J1289.770294
G03 X99.809721 Y138.291618 Z-2.000000 I20908.245043 J12061.073180
G01 X100.410494 Y137.250249 Z-2.000000
G01 X100.710880 Y136.729565 Z-2.000000
G01 X101.912465 Y134.646748 Z-2.000000
G01 X102.512847 Y133.606161 Z-2.000000
G02 X103.267043 Y132.298604 Z-2.000000 I-4590.232882 J-2648.531144
G02 X104.020763 Y130.990771 Z-2.000000 I-2939.786801 J-1695.096259
G03 X105.606669 Y128.247283 Z-2.000000 I975.316182 J561.963061
G03 X107.201731 Y125.509112 Z-2.000000 I708.844530 J411.088335
G02 X107.975500 Y124.176540 Z-2.000000 I-269.730909 J-157.512548
G02 X108.742462 Y122.840056 Z-2.000000 I-253.784299 J-146.526214
G01 X108.916840 Y122.534345 Z-2.000000
G02 X109.336756 Y121.796910 Z-2.000000 I-770.608617 J-439.293645
G02 X109.755914 Y121.059042 Z-2.000000 I-672.596530 J-382.568584
G03 X110.412444 Y119.918671 Z-2.000000 I110.389697 J62.793912
G03 X111.098619 Y118.795988 Z-2.000000 I26.999144 J15.730622
G02 X111.368335 Y118.249370 Z-2.000000 I-2.809992 J-1.726378
G02 X111.424660 Y117.944872 Z-2.000000 I-0.794852 J-0.304488
G01 X109.341937 Y117.944897 Z-2.000000
G01 X101.231464 Y132.003457 Z-2.000000
G01 X100.631082 Y133.044044 Z-2.000000
G02 X99.876886 Y134.351602 Z-2.000000 I4589.612596 J2648.125093
G02 X99.123166 Y135.659435 Z-2.000000 I2938.467210 J1694.354951
G03 X97.673229 Y138.169497 Z-2.000000 I-1143.334604 J-658.772986
G03 X96.215049 Y140.674778 Z-2.000000 I-572.933068 J-331.794374
G02 X95.326583 Y142.200605 Z-2.000000 I379.552925 J222.029727
G02 X94.446524 Y143.731297 Z-2.000000 I218.605739 J126.703926
G01 X94.283253 Y144.017554 Z-2.000000
G02 X93.876247 Y144.732497 Z-2.000000 I657.260353 J374.641827
G02 X93.470034 Y145.447889 Z-2.000000 I633.182917 J360.005618
G03 X92.690536 Y146.801594 Z-2.000000 I-117.606757 J-66.819742
G03 X91.889484 Y148.142721 Z-2.000000 I-66.136344 J-38.593240
G01 X91.592266 Y148.631724 Z-2.000000
G03 X91.314520 Y149.083049 Z-2.000000 I-68.938048 J-42.113441
G03 X91.033656 Y149.532440 Z-2.000000 I-61.805946 J-38.315527
G01 X90.787440 Y149.936330 Z-2.000000
G01 X90.569934 Y150.284561 Z-2.000000
G02 X90.488952 Y150.856725 Z-2.000000 I1.196494 J0.461159
G02 X90.597836 Y151.428909 Z-2.000000 I2.867018 J-0.249126
G01 X90.597836 Y151.428909 Z-2.000000
G00 Z1.000000

(End cutting path id: path18)

(Start cutting path id: path100)
(Change tool to Default tool)

G00 Z1.000000
G00 X86.752763 Y147.744138

G01 Z-2.000000 F1000.0(Penetrate)
G02 X87.293756 Y148.960866 Z-2.000000 I6.574402 J-2.194536 F1000.000000
G02 X87.954363 Y150.117226 Z-2.000000 I130.291618 J-73.666341
G01 X88.196560 Y150.546221 Z-2.000000
G01 X88.429995 Y150.951436 Z-2.000000
G01 X88.642465 Y151.322426 Z-2.000000
G01 X88.835533 Y151.589140 Z-2.000000
G01 X89.155952 Y151.589136 Z-2.000000
G02 X89.551644 Y150.726510 Z-2.000000 I-4.255764 J-2.474212
G02 X89.612158 Y150.272409 Z-2.000000 I-1.083832 J-0.375515
G02 X89.262355 Y149.401190 Z-2.000000 I-5.229861 J1.594002
G02 X88.815470 Y148.575199 Z-2.000000 I-14.885041 J7.519361
G01 X88.637734 Y148.238824 Z-2.000000
G02 X88.365053 Y147.808617 Z-2.000000 I-5.531496 J3.204542
G02 X88.034435 Y147.423703 Z-2.000000 I-1.993519 J1.377866
G02 X87.425287 Y147.387874 Z-2.000000 I-0.609084 J5.159217
G02 X86.912968 Y147.423717 Z-2.000000 I0.000045 J3.679987
G01 X86.752763 Y147.744138 Z-2.000000
G01 X86.752763 Y147.744138 Z-2.000000
G00 Z1.000000

(End cutting path id: path100)

(Start cutting path id: path380)
(Change tool to Default tool)

G00 Z1.000000
G00 X86.912951 Y145.981831

G01 Z-2.000000 F1000.0(Penetrate)
G02 X87.071159 Y146.318252 Z-2.000000 I7.063880 J-3.116521 F1000.000000
G02 X87.233378 Y146.622665 Z-2.000000 I5.945021 J-2.972601
G02 X87.500568 Y145.926490 Z-2.000000 I-1.912849 J-1.133509
G02 X87.553779 Y145.180776 Z-2.000000 I-2.899404 J-0.581643
G02 X87.198996 Y145.553485 Z-2.000000 I3.798121 J3.970666
G02 X86.912951 Y145.981831 Z-2.000000 I1.559459 J1.351070
G01 X86.912951 Y145.981831 Z-2.000000
G00 Z1.000000

(End cutting path id: path380)

(Start cutting path id: path13)
(Change tool to Default tool)

G00 Z1.000000
G00 X87.874204 Y145.661401

G01 Z-2.000000 F1000.0(Penetrate)
G02 X88.195297 Y147.259293 Z-2.000000 I4.667195 J-0.106656 F1000.000000
G02 X88.925616 Y148.715381 Z-2.000000 I8.332040 J-3.267841
G01 X89.178139 Y149.135615 Z-2.000000
G02 X89.485758 Y149.642472 Z-2.000000 I73.944010 J-44.531046
G02 X89.796772 Y150.147243 Z-2.000000 I76.977657 J-47.081507
G02 X90.405835 Y149.344499 Z-2.000000 I-8.377758 J-6.988849
G02 X90.934490 Y148.487559 Z-2.000000 I-8.279821 J-5.699439
G01 X91.209805 Y147.990382 Z-2.000000
G01 X91.498965 Y147.463713 Z-2.000000
G03 X92.472293 Y145.719053 Z-2.000000 I324.429611 J179.852020
G03 X93.471502 Y143.989146 Z-2.000000 I71.280594 J40.018760
G02 X94.458149 Y142.310085 Z-2.000000 I-196.451639 J-116.567911
G02 X95.434028 Y140.624723 Z-2.000000 I-392.691060 J-228.505956
G01 X95.743762 Y140.087180 Z-2.000000
G02 X96.058075 Y139.541495 Z-2.000000 I-6704.496094 J-3865.001443
G02 X96.372344 Y138.995784 Z-2.000000 I-6880.757905 J-3959.902878
G03 X97.129507 Y137.682308 Z-2.000000 I1890.486912 J1088.911334
G03 X97.887183 Y136.369128 Z-2.000000 I14874.031352 J8580.990495
G01 X98.487956 Y135.327759 Z-2.000000
G01 X98.788343 Y134.807075 Z-2.000000
G01 X99.989927 Y132.724258 Z-2.000000
G01 X100.590309 Y131.683672 Z-2.000000
G02 X101.344506 Y130.376113 Z-2.000000 I-4588.532239 J-2647.541420
G02 X102.098226 Y129.068281 Z-2.000000 I-2942.590681 J-1696.715019
G03 X103.410721 Y126.793660 Z-2.000000 I1821.726535 J1049.652087
G03 X104.731419 Y124.523789 Z-2.000000 I380.937931 J220.125068
G02 X105.004143 Y124.054950 Z-2.000000 I-143.729796 J-83.921329
G02 X105.275322 Y123.585213 Z-2.000000 I-141.000266 J-81.712619
G03 X105.969307 Y122.404455 Z-2.000000 I69.231349 J39.896134
G03 X106.690622 Y121.240464 Z-2.000000 I39.571963 J23.716892
G02 X107.066383 Y120.641812 Z-2.000000 I-46.017878 J-29.301692
G02 X107.437054 Y120.039994 Z-2.000000 I-150.030482 J-92.821581
G03 X107.619697 Y119.751905 Z-2.000000 I20.206964 J12.608935
G03 X107.806544 Y119.466525 Z-2.000000 I19.121749 J12.315707
G02 X108.335074 Y118.583281 Z-2.000000 I-9.132425 J-6.064572
G02 X108.701095 Y117.624486 Z-2.000000 I-3.553574 J-1.905840
G02 X108.395155 Y116.847154 Z-2.000000 I-4.292540 J1.240572
G02 X107.972468 Y116.126129 Z-2.000000 I-6.050578 J3.062631
G03 X107.786873 Y115.700280 Z-2.000000 I1.073545 J-0.721243
G03 X107.772155 Y115.272281 Z-2.000000 I1.070128 J-0.251051
G03 X108.044815 Y114.658058 Z-2.000000 I3.691065 J1.270870
G03 X108.390646 Y114.079855 Z-2.000000 I8.412596 J4.639157
G02 X108.769933 Y113.324300 Z-2.000000 I-3.287298 J-2.123198
G02 X108.861246 Y112.818199 Z-2.000000 I-1.356784 J-0.506083
G01 X109.181665 Y112.818195 Z-2.000000
G01 X109.070891 Y112.525315 Z-2.000000
G01 X108.931329 Y112.137308 Z-2.000000
G01 X108.790515 Y111.754310 Z-2.000000
G03 X108.744535 Y111.236930 Z-2.000000 I1.762948 J-0.417406
G03 X108.861220 Y110.735476 Z-2.000000 I1.489645 J0.082328
G01 X109.341845 Y110.415051 Z-2.000000
G01 X109.181629 Y109.934425 Z-2.000000
G01 X108.700999 Y109.774221 Z-2.000000
G02 X106.917581 Y112.772920 Z-2.000000 I143.300370 J87.254791
G02 X105.171927 Y115.793775 Z-2.000000 I701.210515 J407.221639
G03 X104.413676 Y117.109951 Z-2.000000 I-1065.279596 J-612.831919
G03 X103.654506 Y118.425595 Z-2.000000 I-8061.967596 J-4651.170034
G01 X103.053733 Y119.466964 Z-2.000000
G01 X102.753346 Y119.987648 Z-2.000000
G01 X91.938887 Y138.733269 Z-2.000000
G03 X91.641264 Y139.249078 Z-2.000000 I-5398.218421 J-3113.571527
G03 X91.343590 Y139.764859 Z-2.000000 I-5220.428522 J-3013.346660
G02 X90.635926 Y140.991867 Z-2.000000 I2082.556119 J1201.910062
G02 X89.929378 Y142.219517 Z-2.000000 I998.214983 J575.318615
G03 X89.593596 Y142.803440 Z-2.000000 I-1457.138979 J-837.534998
G03 X89.257665 Y143.387277 Z-2.000000 I-5270.081997 J-3031.898992
G02 X89.019072 Y143.802550 Z-2.000000 I512.163367 J294.537439
G02 X88.780684 Y144.217940 Z-2.000000 I2364.908275 J1357.468453
G01 X88.491249 Y144.720788 Z-2.000000
G01 X88.235060 Y145.166726 Z-2.000000
G03 X88.041673 Y145.472667 Z-2.000000 I-2.391999 J-1.297907
G03 X87.874204 Y145.661401 Z-2.000000 I-1.068541 J-0.779482
G01 X87.874204 Y145.661401 Z-2.000000
G00 Z1.000000

(End cutting path id: path13)

(Start cutting path id: path58)
(Change tool to Default tool)

G00 Z1.000000
G00 X86.752720 Y144.219529

G01 Z-2.000000 F1000.0(Penetrate)
G01 X87.233348 Y144.219523 Z-2.000000 F1000.000000
G01 X87.430516 Y143.873834 Z-2.000000
G03 X89.660869 Y139.975685 Z-2.000000 I1570.914237 J896.222096
G03 X91.901932 Y136.083671 Z-2.000000 I1292.597089 J741.700072
G02 X92.651820 Y134.784665 Z-2.000000 I-2170.009644 J-1253.577919
G02 X93.401282 Y133.485412 Z-2.000000 I-22654.875362 J-13067.763070
G01 X94.002055 Y132.444043 Z-2.000000
G01 X102.713653 Y117.343489 Z-2.000000
G03 X103.012062 Y116.826311 Z-2.000000 I6033.460893 J3476.709334
G03 X103.310515 Y116.309160 Z-2.000000 I5885.955237 J3400.520214
G02 X104.009172 Y115.097822 Z-2.000000 I-2329.685573 J-1344.485813
G02 X104.706793 Y113.885886 Z-2.000000 I-1018.025035 J-586.808192
G03 X104.952986 Y113.457801 Z-2.000000 I1427.089460 J820.405502
G03 X105.199273 Y113.029770 Z-2.000000 I3096.950202 J1781.843003
G02 X105.507630 Y112.493525 Z-2.000000 I-1030.252847 J-592.787201
G02 X105.815690 Y111.957110 Z-2.000000 I-909.333209 J-522.578282
G03 X106.439142 Y110.888801 Z-2.000000 I90.590087 J52.151189
G03 X107.087641 Y109.835570 Z-2.000000 I30.040355 J17.770284
G02 X107.362780 Y109.277681 Z-2.000000 I-2.918795 J-1.786280
G02 X107.419313 Y108.973189 Z-2.000000 I-0.791682 J-0.304482
G01 X106.938685 Y108.973195 Z-2.000000
G01 X106.738975 Y109.323968 Z-2.000000
G03 X104.863294 Y112.603411 Z-2.000000 I-937.651157 J-534.114465
G03 X102.968773 Y115.872031 Z-2.000000 I-409.451771 J-235.138550
G02 X101.496428 Y118.405500 Z-2.000000 I469.964052 J274.817758
G02 X100.032378 Y120.943775 Z-2.000000 I2185.619137 J1262.333050
G03 X99.280332 Y122.248190 Z-2.000000 I-2236.892433 J-1288.788618
G03 X98.527865 Y123.552361 Z-2.000000 I-21028.613404 J-12131.920738
G01 X97.927092 Y124.593730 Z-2.000000
G01 X97.626705 Y125.114415 Z-2.000000
G01 X91.618625 Y135.528731 Z-2.000000
G03 X91.320012 Y136.046294 Z-2.000000 I-9932.932219 J-5709.690478
G03 X91.021372 Y136.563841 Z-2.000000 I-9710.201814 J-5622.732192
G02 X90.325162 Y137.770815 Z-2.000000 I3903.857922 J2252.630173
G02 X89.629577 Y138.978148 Z-2.000000 I1663.024647 J958.929998
G03 X89.385211 Y139.402531 Z-2.000000 I-2308.336587 J-1328.790510
G03 X89.140789 Y139.826881 Z-2.000000 I-4953.761196 J-2853.501601
G02 X88.835618 Y140.356901 Z-2.000000 I1664.105841 J958.499956
G02 X88.530629 Y140.887025 Z-2.000000 I1457.036981 J838.610000
G03 X87.738272 Y142.242518 Z-2.000000 I-108.459615 J-62.490970
G03 X86.923912 Y143.584947 Z-2.000000 I-67.349737 J-39.938256
G02 X86.793792 Y143.909575 Z-2.000000 I1.307366 J0.712422
G02 X86.752720 Y144.219529 Z-2.000000 I1.148892 J0.309939
G01 X86.752720 Y144.219529 Z-2.000000
G00 Z1.000000

(End cutting path id: path58)

(Start cutting path id: path231)
(Change tool to Default tool)

G00 Z1.000000
G00 X85.471044 Y144.219545

G01 Z-2.000000 F1000.0(Penetrate)
G01 X86.111890 Y144.860375 Z-2.000000 F1000.000000
G01 X87.073123 Y142.937849 Z-2.000000
G01 X86.752704 Y142.937853 Z-2.000000
G01 X86.752708 Y143.258272 Z-2.000000
G01 X86.292107 Y143.378435 Z-2.000000
G02 X85.837087 Y143.634160 Z-2.000000 I0.739237 J1.848028
G02 X85.571171 Y143.919151 Z-2.000000 I0.666002 J0.887981
G01 X85.471044 Y144.219545 Z-2.000000
G01 X85.471044 Y144.219545 Z-2.000000
G00 Z1.000000

(End cutting path id: path231)

(Start cutting path id: path64)
(Change tool to Default tool)

G00 Z1.000000
G00 X86.592487 Y142.297017

G01 Z-2.000000 F1000.0(Penetrate)
G01 X87.073117 Y142.457221 Z-2.000000 F1000.000000
G01 X87.228708 Y142.179981 Z-2.000000
