%
(Header)
(Generated by gcodetools from Inkscape.)
(Using default header. To add your own header create file "header" in the output dir.)
M3
(Header end.)
G21 (All units in mm)

(Pass at depth -1.0)
(Start cutting path id: path130)
(Change tool to Default tool)

G00 Z1.000000
G00 X130.135463 Y88.322005

G01 Z-2.000000 F9998.0(Penetrate)
G02 X130.369224 Y87.282057 Z-2.000000 I-8.964668 J-2.561334 F9999.000000
G02 X131.903572 Y77.584428 Z-2.000000 I-692.482244 J-114.533973
G02 X132.835786 Y71.409953 Z-2.000000 I-2641.728507 J-402.001847
G03 X133.100729 Y69.664774 Z-2.000000 I439.628481 J65.849181
G02 X133.922959 Y63.836085 Z-2.000000 I-154.493704 J-24.766166
G02 X134.684660 Y56.790732 Z-2.000000 I-257.971633 J-31.454159
G03 X135.059874 Y54.532572 Z-2.000000 I16.455792 J1.574032
G03 X135.255612 Y54.378000 Z-2.000000 I0.195737 J0.046647
G03 X135.452680 Y54.580342 Z-2.000000 I0.000000 J0.197137
G03 X135.126687 Y59.258717 Z-2.000000 I-54.328221 J-1.435085
G03 X134.449773 Y64.657695 Z-2.000000 I-274.371083 J-31.658202
G03 X133.284907 Y72.795800 Z-2.000000 I-536.419553 J-72.629226
G03 X130.610627 Y88.304104 Z-2.000000 I-368.607480 J-55.578597
G03 X130.209134 Y88.635108 Z-2.000000 I-0.401493 J-0.077995
G03 X130.125229 Y88.569192 Z-2.000000 I0.000000 J-0.086360
G03 X130.135463 Y88.322005 Z-2.000000 I0.434322 J-0.105824
G01 X130.135463 Y88.322005 Z-2.000000
 

(End cutting path id: path130)

(Start cutting path id: path127)
(Change tool to Default tool)

G00 Z1.000000
G00 X148.866366 Y100.072562

G01 Z-2.000000 F9998.0(Penetrate)
G03 X148.690245 Y99.565790 Z-2.000000 I0.238462 J-0.366864 F9999.000000
G03 X149.179468 Y99.170090 Z-2.000000 I0.556553 J0.187818
G03 X149.471913 Y99.238632 Z-2.000000 I0.068557 J0.365638
G03 X149.584660 Y99.464774 Z-2.000000 I-0.170418 J0.226142
G03 X149.315826 Y100.036522 Z-2.000000 I-0.742404 J0.000000
G03 X148.866366 Y100.072562 Z-2.000000 I-0.250418 J-0.302332
G01 X148.866366 Y100.072562 Z-2.000000
 

(End cutting path id: path127)

(Start cutting path id: path126)
(Change tool to Default tool)

G00 Z1.000000
G00 X139.657466 Y111.767865

G01 Z-2.000000 F9998.0(Penetrate)
G03 X141.684824 Y110.052570 Z-2.000000 I15.582054 J16.361157 F9999.000000
G03 X141.978109 Y110.073427 Z-2.000000 I0.134617 J0.179524
G03 X141.978621 Y110.373214 Z-2.000000 I-0.150151 J0.150151
G03 X140.596774 Y111.510016 Z-2.000000 I-6.332785 J-6.289604
G03 X139.729063 Y111.897703 Z-2.000000 I-1.652701 J-2.534142
G03 X139.657466 Y111.767865 Z-2.000000 I-0.019810 J-0.073736
G01 X139.657466 Y111.767865 Z-2.000000
 

(End cutting path id: path126)

(Start cutting path id: path125)
(Change tool to Default tool)

G00 Z1.000000
G00 X128.790964 Y110.883810

G01 Z-2.000000 F9998.0(Penetrate)
G03 X128.174454 Y107.885128 Z-2.000000 I30.149547 J-7.761270 F9999.000000
G03 X128.054252 Y106.132018 Z-2.000000 I10.212516 J-1.580898
G01 X128.125987 Y106.123504 Z-2.000000
G03 X128.588368 Y108.342154 Z-2.000000 I-35.782531 J8.614811
G02 X129.116629 Y111.361412 Z-2.000000 I153.606696 J-25.319785
G02 X129.232991 Y111.896789 Z-2.000000 I8.701195 J-1.610831
G03 X129.316085 Y112.363550 Z-2.000000 I-2.716213 J0.724324
G01 X129.288244 Y112.394070 Z-2.000000
G03 X129.223856 Y112.347310 Z-2.000000 I0.000000 J-0.067711
G03 X128.790964 Y110.883810 Z-2.000000 I26.888762 J-8.749275
G01 X128.790964 Y110.883810 Z-2.000000
 

(End cutting path id: path125)

(Start cutting path id: path123)
(Change tool to Default tool)

G00 Z1.000000
G00 X129.730272 Y122.836963

G01 Z-2.000000 F9998.0(Penetrate)
G02 X127.946768 Y117.923246 Z-2.000000 I-86.950314 J28.779329 F9999.000000
G02 X127.004437 Y115.967123 Z-2.000000 I-13.992308 J5.535530
G03 X126.995741 Y115.660852 Z-2.000000 I0.268120 J-0.160872
G03 X127.170197 Y115.654021 Z-2.000000 I0.089196 J0.046851
G03 X128.060498 Y117.272166 Z-2.000000 I-12.440506 J7.898734
G03 X129.140902 Y119.853279 Z-2.000000 I-28.860106 J13.596961
G03 X130.529081 Y124.196001 Z-2.000000 I-37.794420 J14.474459
G03 X130.393312 Y124.641907 Z-2.000000 I-0.432679 J0.111881
G01 X130.345437 Y124.631306 Z-2.000000
G03 X129.730272 Y122.836963 Z-2.000000 I46.220207 J-16.848570
G01 X129.730272 Y122.836963 Z-2.000000
 

(End cutting path id: path123)

(Start cutting path id: path122)
(Change tool to Default tool)

G00 Z1.000000
G00 X131.443127 Y129.283193

G01 Z-2.000000 F9998.0(Penetrate)
G02 X128.354486 Y123.282756 Z-2.000000 I-48.276341 J21.054439 F9999.000000
G02 X125.346835 Y119.098149 Z-2.000000 I-26.438779 J15.829482
G03 X124.999048 Y118.251315 Z-2.000000 I1.148712 J-0.966599
G03 X125.273164 Y118.103588 Z-2.000000 I0.169552 J-0.013569
G03 X128.043271 Y121.042143 Z-2.000000 I-8.707397 J10.983194
G03 X130.264388 Y125.231277 Z-2.000000 I-15.720337 J11.018461
G03 X132.433286 Y131.148164 Z-2.000000 I-221.046622 J84.382943
G03 X132.400853 Y131.290733 Z-2.000000 I-0.129485 J0.045517
G01 X132.368501 Y131.290564 Z-2.000000
G03 X131.443127 Y129.283193 Z-2.000000 I46.791179 J-22.787161
G01 X131.443127 Y129.283193 Z-2.000000
 

(End cutting path id: path122)

(Start cutting path id: path117)
(Change tool to Default tool)

G00 Z1.000000
G00 X119.379468 Y137.276518

G01 Z-2.000000 F9998.0(Penetrate)
G03 X119.435336 Y137.150762 Z-2.000000 I0.169470 J0.000000 F9999.000000
G03 X119.655735 Y137.000251 Z-2.000000 I0.662147 J0.732985
G02 X119.849105 Y136.850199 Z-2.000000 I-0.144867 J-0.386312
G02 X119.950420 Y136.576641 Z-2.000000 I-0.473996 J-0.331089
G01 X120.006599 Y136.543475 Z-2.000000
G03 X120.116180 Y136.668730 Z-2.000000 I-0.117925 J0.213730
G02 X120.373116 Y136.958153 Z-2.000000 I0.614505 J-0.286769
G02 X120.779221 Y137.073922 Z-2.000000 I0.406105 J-0.654403
G01 X120.798015 Y137.160011 Z-2.000000
G03 X120.263522 Y137.313353 Z-2.000000 I-0.772909 J-1.685873
G03 X119.453980 Y137.354501 Z-2.000000 I-0.617765 J-4.169913
G03 X119.379468 Y137.276518 Z-2.000000 I0.003551 J-0.077983
G01 X119.379468 Y137.276518 Z-2.000000
 

(End cutting path id: path117)

(Start cutting path id: path116)
(Change tool to Default tool)

G00 Z1.000000
G00 X118.642756 Y146.540671

G01 Z-2.000000 F9998.0(Penetrate)
G03 X114.367439 Y145.602844 Z-2.000000 I4.586492 J-31.122622 F9999.000000
G03 X114.277737 Y145.251425 Z-2.000000 I0.059398 J-0.202320
G03 X114.356921 Y145.224899 Z-2.000000 I0.066217 J0.066217
G03 X116.082682 Y145.527692 Z-2.000000 I-3.488564 J24.952327
G02 X117.824844 Y145.842698 Z-2.000000 I15.049907 J-78.259515
G02 X118.955859 Y145.988137 Z-2.000000 I2.387882 J-14.099061
G02 X121.755691 Y145.971530 Z-2.000000 I1.331519 J-11.539832
G02 X124.204932 Y145.343514 Z-2.000000 I-1.289266 J-10.118070
G03 X124.428282 Y145.452404 Z-2.000000 I0.061394 J0.157579
G03 X124.315438 Y145.711870 Z-2.000000 I-0.209740 J0.063054
G03 X121.670792 Y146.533651 Z-2.000000 I-3.908843 J-7.913024
G03 X118.642756 Y146.540671 Z-2.000000 I-1.538675 J-10.631275
G01 X118.642756 Y146.540671 Z-2.000000
 

(End cutting path id: path116)

(Start cutting path id: path113)
(Change tool to Default tool)

G00 Z1.000000
G00 X116.082682 Y150.500498

G01 Z-2.000000 F9998.0(Penetrate)
G03 X116.103890 Y150.201533 Z-2.000000 I0.056248 J-0.146245 F9999.000000
G03 X119.397886 Y149.745368 Z-2.000000 I4.234346 J18.455321
G03 X124.376891 Y149.784379 Z-2.000000 I2.152378 J43.047564
G03 X125.144239 Y150.132142 Z-2.000000 I-0.078443 J1.193555
G03 X125.085175 Y150.293275 Z-2.000000 I-0.066877 J0.066877
G03 X121.020954 Y150.544240 Z-2.000000 I-7.999017 J-96.504682
G03 X116.840400 Y150.638246 Z-2.000000 I-4.677921 J-115.028879
G03 X116.082682 Y150.500498 Z-2.000000 I-0.009085 J-2.102908
G01 X116.082682 Y150.500498 Z-2.000000
 

(End cutting path id: path113)

(Start cutting path id: path112)
(Change tool to Default tool)

G00 Z1.000000
G00 X113.946217 Y156.873057

G01 Z-2.000000 F9998.0(Penetrate)
G02 X108.856524 Y156.337304 Z-2.000000 I-9.878647 J69.403828 F9999.000000
G02 X107.831507 Y156.467865 Z-2.000000 I-0.182092 J2.659335
G03 X106.267871 Y156.713765 Z-2.000000 I-1.516715 J-4.550146
G03 X105.602954 Y156.467865 Z-2.000000 I0.010269 J-1.049693
G03 X104.906578 Y155.339336 Z-2.000000 I1.481800 J-1.693485
G03 X105.216180 Y154.939188 Z-2.000000 I0.309602 J-0.080302
G03 X105.433980 Y154.987804 Z-2.000000 I0.000000 J0.512184
G03 X105.731878 Y155.197037 Z-2.000000 I-0.449422 J0.956554
G02 X106.195538 Y155.348841 Z-2.000000 I0.408114 J-0.462529
G02 X109.341767 Y154.865517 Z-2.000000 I-2.303590 J-25.477320
G03 X110.649634 Y154.621948 Z-2.000000 I7.345657 J35.810076
G03 X112.749060 Y154.312983 Z-2.000000 I8.847101 J52.828972
G03 X120.313483 Y153.560590 Z-2.000000 I14.434716 J106.722247
G03 X123.578726 Y153.631524 Z-2.000000 I1.219100 J19.070843
G02 X128.347639 Y154.117972 Z-2.000000 I47.634307 J-443.365475
G02 X129.170831 Y154.126503 Z-2.000000 I0.461117 J-4.774662
G02 X129.229598 Y153.923026 Z-2.000000 I-0.008530 J-0.112688
G02 X128.201594 Y153.281586 Z-2.000000 I-4.513191 J6.088577
G02 X125.628708 Y152.372659 Z-2.000000 I-4.604761 J8.938653
G02 X121.368590 Y151.863415 Z-2.000000 I-5.136022 J24.891981
G02 X115.802344 Y152.227809 Z-2.000000 I-0.928370 J28.514230
G02 X112.417540 Y153.355257 Z-2.000000 I1.840215 J11.169281
G03 X111.870059 Y153.587507 Z-2.000000 I-2.131051 J-4.262102
G01 X111.828170 Y153.557853 Z-2.000000
G03 X111.969794 Y153.337124 Z-2.000000 I0.242821 J0.000000
G03 X114.646093 Y152.287025 Z-2.000000 I10.710406 J23.361222
G03 X118.362226 Y151.538341 Z-2.000000 I4.819365 J14.324225
G03 X123.412966 Y151.623984 Z-2.000000 I2.050955 J28.021148
G03 X127.578775 Y152.566452 Z-2.000000 I-2.309208 J19.884844
G03 X130.190717 Y153.944627 Z-2.000000 I-3.071314 J8.984995
G02 X131.338502 Y154.518519 Z-2.000000 I2.104273 J-2.773814
G02 X133.027058 Y154.755010 Z-2.000000 I1.688556 J-5.909946
G02 X133.313460 Y154.684615 Z-2.000000 I0.000000 J-0.617811
G02 X133.929530 Y154.276147 Z-2.000000 I-1.659155 J-3.171242
G03 X134.500690 Y153.986418 Z-2.000000 I0.831431 J0.931202
G03 X134.795167 Y154.073551 Z-2.000000 I0.067055 J0.314555
G03 X134.910914 Y154.377562 Z-2.000000 I-0.281042 J0.281042
G03 X134.739913 Y154.957606 Z-2.000000 I-1.330523 J-0.077019
G03 X134.343774 Y155.491007 Z-2.000000 I-4.328068 J-2.800515
G03 X133.874277 Y155.915331 Z-2.000000 I-1.825193 J-1.547596
G03 X133.351042 Y156.138957 Z-2.000000 I-0.719305 J-0.959073
G03 X132.769209 Y156.081092 Z-2.000000 I-0.183632 J-1.107670
G02 X131.654860 Y155.930079 Z-2.000000 I-0.909939 J2.527607
G02 X128.201594 Y156.431030 Z-2.000000 I1.956755 J25.641634
G03 X125.547387 Y156.860388 Z-2.000000 I-5.509701 J-25.641303
G03 X123.983918 Y156.891475 Z-2.000000 I-0.955498 J-8.723696
G03 X122.421535 Y156.721877 Z-2.000000 I1.128123 J-17.673923
G03 X121.608022 Y156.541537 Z-2.000000 I0.964951 J-6.277932
G02 X120.795710 Y156.453405 Z-2.000000 I-0.643747 J2.145824
G02 X119.140037 Y156.725715 Z-2.000000 I0.720720 J9.551559
G03 X116.908769 Y157.044042 Z-2.000000 I-2.492156 J-9.489364
G03 X113.946217 Y156.873057 Z-2.000000 I-0.468878 J-17.626705
G01 X113.946217 Y156.873057 Z-2.000000
 

(Change tool to Default tool)

G00 Z1.000000
G00 X119.379468 Y155.657482

G01 Z-2.000000 F9998.0(Penetrate)
G01 X120.760803 Y155.289126 Z-2.000000 F9999.000000
G01 X122.123720 Y155.694318 Z-2.000000
G02 X123.500036 Y155.964784 Z-2.000000 I2.139704 J-7.251218
G02 X125.070568 Y155.989003 Z-2.000000 I0.926176 J-9.125640
G02 X126.639519 Y155.828709 Z-2.000000 I-1.319788 J-20.676677
G02 X127.391211 Y155.657482 Z-2.000000 I-0.639927 J-4.544887
G01 X128.127923 Y155.436469 Z-2.000000
G01 X127.391211 Y155.289126 Z-2.000000
G02 X123.986601 Y154.818888 Z-2.000000 I-7.486607 J41.644252
G02 X120.760803 Y154.662921 Z-2.000000 I-3.225798 J33.280974
G02 X112.473945 Y155.110762 Z-2.000000 I0.000000 J76.894013
G02 X112.270197 Y155.639064 Z-2.000000 I0.034328 J0.316679
G02 X112.676365 Y155.815929 Z-2.000000 I0.480928 J-0.549632
G02 X116.340531 Y156.025838 Z-2.000000 I4.146340 J-40.292717
G02 X117.988297 Y155.937999 Z-2.000000 I0.187279 J-11.985871
G02 X119.379468 Y155.657482 Z-2.000000 I-1.126309 J-9.175612
G01 X119.379468 Y155.657482 Z-2.000000
 

(End cutting path id: path112)

(Start cutting path id: path109)
(Change tool to Default tool)

G00 Z1.000000
G00 X119.674153 Y161.348582

G01 Z-2.000000 F9998.0(Penetrate)
G03 X119.385086 Y158.566596 Z-2.000000 I7.170110 J-2.151033 F9999.000000
G03 X119.968838 Y157.867618 Z-2.000000 I0.790406 J0.066858
G03 X121.486644 Y157.859282 Z-2.000000 I0.774885 J2.905817
G03 X122.142138 Y158.420152 Z-2.000000 I-0.240927 J0.945050
G03 X122.216645 Y158.957929 Z-2.000000 I-1.159004 J0.434626
G03 X121.939542 Y160.630288 Z-2.000000 I-10.468042 J-0.875376
G03 X121.506022 Y162.221327 Z-2.000000 I-26.313820 J-6.315317
G01 X121.460679 Y162.232637 Z-2.000000
G03 X121.433972 Y162.153223 Z-2.000000 I0.066594 J-0.066594
G03 X121.681693 Y160.722377 Z-2.000000 I20.618355 J2.832775
G02 X121.865647 Y159.262683 Z-2.000000 I-10.583500 J-2.075196
G02 X121.810618 Y158.714837 Z-2.000000 I-1.755511 J-0.100351
G02 X121.524322 Y158.329007 Z-2.000000 I-0.619626 J0.160644
G02 X120.834474 Y158.107050 Z-2.000000 I-0.805542 J1.320633
G02 X120.042440 Y158.151837 Z-2.000000 I-0.225296 J3.041501
G02 X119.655735 Y158.309645 Z-2.000000 I0.194808 J1.030079
G02 X119.500717 Y158.656524 Z-2.000000 I0.253823 J0.321510
G02 X119.803077 Y160.667124 Z-2.000000 I11.638272 J-0.722165
G03 X120.246119 Y162.730161 Z-2.000000 I-97.617746 J22.042717
G03 X120.208269 Y162.822006 Z-2.000000 I-0.087232 J0.017773
G01 X120.160778 Y162.811422 Z-2.000000
G03 X119.674153 Y161.348582 Z-2.000000 I28.208766 J-10.196220
G01 X119.674153 Y161.348582 Z-2.000000
 

(End cutting path id: path109)

(Start cutting path id: path108)
(Change tool to Default tool)

G00 Z1.000000
G00 X113.964635 Y166.837087

G01 Z-2.000000 F9998.0(Penetrate)
G01 X113.412101 Y166.413477 Z-2.000000 F9999.000000
G01 X113.946217 Y166.063539 Z-2.000000
G03 X114.520603 Y165.834922 Z-2.000000 I0.888264 J1.395844
G03 X115.787997 Y165.713601 Z-2.000000 I1.267394 J6.559333
G02 X117.022913 Y165.552834 Z-2.000000 I0.000000 J-4.823335
G02 X117.906044 Y165.142649 Z-2.000000 I-0.712301 J-2.689373
G03 X121.071942 Y164.042925 Z-2.000000 I3.551494 J5.117207
G03 X124.002336 Y164.755875 Z-2.000000 I0.315264 J5.082970
G02 X124.899843 Y165.173140 Z-2.000000 I2.811017 J-4.872429
G02 X125.936205 Y165.455752 Z-2.000000 I2.261585 J-6.251912
G03 X127.733863 Y166.000222 Z-2.000000 I-1.511994 J8.231967
G03 X127.998998 Y166.358224 Z-2.000000 I-0.175192 J0.406928
G03 X127.744323 Y166.937989 Z-2.000000 I-0.580697 J0.090734
G03 X126.617663 Y167.279114 Z-2.000000 I-1.126659 J-1.689989
G03 X125.451105 Y167.022037 Z-2.000000 I-0.000000 J-2.775326
G03 X123.799740 Y165.971450 Z-2.000000 I3.106668 J-6.706361
G02 X122.420755 Y165.125687 Z-2.000000 I-3.417555 J4.025121
G02 X121.221248 Y164.884800 Z-2.000000 I-1.199507 J2.866057
G02 X120.059837 Y165.116046 Z-2.000000 I-0.000000 J3.032158
G02 X118.532249 Y165.989868 Z-2.000000 I2.671010 J6.441527
G03 X115.678646 Y167.270362 Z-2.000000 I-4.017817 J-5.133877
G03 X113.964635 Y166.837087 Z-2.000000 I-0.381055 J-2.099470
G01 X113.964635 Y166.837087 Z-2.000000
 

(End cutting path id: path108)

(Start cutting path id: path106)
(Change tool to Default tool)

G00 Z1.000000
G00 X117.353510 Y169.341908

G01 Z-2.000000 F9998.0(Penetrate)
G03 X117.543901 Y168.632093 Z-2.000000 I1.418359 J-0.000000 F9999.000000
G03 X118.292818 Y167.739559 Z-2.000000 I2.913124 J1.683904
G03 X118.377988 Y167.785780 Z-2.000000 I0.034458 J0.038085
G03 X118.200729 Y168.292093 Z-2.000000 I-1.498314 J-0.240370
G03 X117.456905 Y169.378368 Z-2.000000 I-7.354633 J-4.238263
G03 X117.353510 Y169.341908 Z-2.000000 I-0.045269 J-0.036461
G01 X117.353510 Y169.341908 Z-2.000000
 

(End cutting path id: path106)

(Start cutting path id: path103)
(Change tool to Default tool)

G00 Z1.000000
G00 X115.530148 Y171.588879

G01 Z-2.000000 F9998.0(Penetrate)
G03 X115.429044 Y170.678068 Z-2.000000 I2.391249 J-0.726456 F9999.000000
G03 X115.603819 Y170.649571 Z-2.000000 I0.090806 J0.006717
G03 X116.218209 Y172.578383 Z-2.000000 I-9.927751 J4.224575
G03 X116.082682 Y172.878125 Z-2.000000 I-0.269452 J0.058679
G03 X115.990249 Y172.852739 Z-2.000000 I-0.036380 J-0.048507
G03 X115.530148 Y171.588879 Z-2.000000 I14.776429 J-6.094954
G01 X115.530148 Y171.588879 Z-2.000000
 

(End cutting path id: path103)

(Start cutting path id: path105)
(Change tool to Default tool)

G00 Z1.000000
G00 X112.951656 Y171.220523

G01 Z-2.000000 F9998.0(Penetrate)
G03 X111.616162 Y169.290195 Z-2.000000 I3.333265 J-3.733257 F9999.000000
G03 X111.330889 Y167.076518 Z-2.000000 I4.373170 J-1.688781
G03 X111.785190 Y165.767717 Z-2.000000 I3.362288 J0.433844
G03 X112.638553 Y164.903218 Z-2.000000 I2.200386 J1.318606
G03 X114.644102 Y164.129397 Z-2.000000 I3.010694 J4.817110
G03 X115.972175 Y164.295430 Z-2.000000 I0.397793 J2.212649
G03 X116.120578 Y164.636752 Z-2.000000 I-0.115777 J0.253261
G03 X115.751161 Y164.958471 Z-2.000000 I-0.457653 J-0.152551
G02 X113.310051 Y166.878435 Z-2.000000 I0.513684 J3.164955
G02 X113.412101 Y170.483811 Z-2.000000 I4.012296 J1.690565
G03 X114.024421 Y171.765896 Z-2.000000 I-82.160835 J40.027073
G03 X114.038306 Y171.828311 Z-2.000000 I-0.133341 J0.062415
G03 X113.900923 Y171.909647 Z-2.000000 I-0.092769 J0.000000
G03 X112.951656 Y171.220523 Z-2.000000 I2.240588 J-4.084776
G01 X112.951656 Y171.220523 Z-2.000000
 

(End cutting path id: path105)

(Start cutting path id: path107)
(Change tool to Default tool)

G00 Z1.000000
G00 X109.525945 Y167.426456

G01 Z-2.000000 F9998.0(Penetrate)
G03 X105.443660 Y162.586666 Z-2.000000 I74.767570 J-67.206805 F9999.000000
G03 X103.853263 Y160.261932 Z-2.000000 I15.971501 J-12.632805
G03 X102.841083 Y157.426799 Z-2.000000 I7.167444 J-4.157118
G03 X102.877119 Y154.110387 Z-2.000000 I9.614750 J-1.553929
G03 X103.108755 Y153.035824 Z-2.000000 I14.382604 J2.538107
G01 X103.155688 Y153.026039 Z-2.000000
G03 X103.192145 Y153.130552 Z-2.000000 I-0.136646 J0.106280
G03 X103.171804 Y154.497161 Z-2.000000 I-27.232629 J0.278118
G02 X103.377919 Y156.915531 Z-2.000000 I11.049472 J0.276237
G02 X104.055858 Y158.899015 Z-2.000000 I7.678868 J-1.516981
G02 X104.560676 Y159.794191 Z-2.000000 I5.920299 J-2.748710
G02 X106.836946 Y163.043020 Z-2.000000 I87.183695 J-58.662835
G03 X109.151300 Y166.269746 Z-2.000000 I-1623.641652 J1166.992437
G03 X109.710123 Y167.094936 Z-2.000000 I-15.616568 J11.177440
G02 X110.248046 Y167.926314 Z-2.000000 I83.940096 J-53.721662
G02 X110.409999 Y168.163168 Z-2.000000 I5.857092 J-3.831101
G01 X110.349173 Y168.220729 Z-2.000000
G03 X109.525945 Y167.426456 Z-2.000000 I4.943823 J-5.947807
G01 X109.525945 Y167.426456 Z-2.000000
 

(End cutting path id: path107)

(Start cutting path id: path95)
(Change tool to Default tool)

G00 Z1.000000
G00 X110.538924 Y180.503094

G01 Z-2.000000 F9998.0(Penetrate)
G02 X108.858751 Y179.170024 Z-2.000000 I-166.250394 J207.812992 F9999.000000
G02 X107.831507 Y178.385047 Z-2.000000 I-28.188820 J35.824104
G03 X107.735069 Y178.150894 Z-2.000000 I0.159418 J-0.202594
G03 X107.868343 Y178.090363 Z-2.000000 I0.085154 J0.010504
G03 X111.070773 Y180.435312 Z-2.000000 I-22.721542 J34.389361
G03 X112.178108 Y181.516073 Z-2.000000 I-5.237086 J6.473520
G03 X112.105752 Y181.597919 Z-2.000000 I-0.043127 J0.034780
G03 X110.538924 Y180.503094 Z-2.000000 I9.314388 J-14.998602
G01 X110.538924 Y180.503094 Z-2.000000
 

(End cutting path id: path95)

(Start cutting path id: path92)
(Change tool to Default tool)

G00 Z1.000000
G00 X109.341767 Y181.737087

G01 Z-2.000000 F9998.0(Penetrate)
G02 X105.203637 Y179.885115 Z-2.000000 I-34.602300 J71.767732 F9999.000000
G02 X103.963769 Y179.508533 Z-2.000000 I-2.545452 J6.151339
G03 X103.414542 Y179.351719 Z-2.000000 I1.042724 J-4.692257
G03 X103.355982 Y179.269102 Z-2.000000 I0.028999 J-0.082617
G01 X103.307750 Y179.219818 Z-2.000000
G02 X101.698380 Y179.250684 Z-2.000000 I-0.426180 J19.750697
G03 X100.104468 Y179.279103 Z-2.000000 I-1.134275 J-18.904587
G03 X100.040778 Y179.213848 Z-2.000000 I0.001584 J-0.065255
G03 X100.119441 Y179.128195 Z-2.000000 I0.085964 J0.000000
G03 X101.569455 Y179.066506 Z-2.000000 I1.450015 J17.010561
G02 X102.480752 Y178.929229 Z-2.000000 I-0.042749 J-3.377198
G02 X102.490345 Y178.790239 Z-2.000000 I-0.020988 J-0.071275
G03 X102.515166 Y178.674464 Z-2.000000 I0.023766 J-0.055453
G03 X103.411235 Y178.808657 Z-2.000000 I-0.060575 J3.463315
G03 X107.171122 Y180.090799 Z-2.000000 I-9.631809 J34.399317
G03 X108.715562 Y180.945122 Z-2.000000 I-2.740927 J6.778212
G02 X109.493530 Y181.462718 Z-2.000000 I12.869295 J-18.499611
G02 X110.336328 Y181.939683 Z-2.000000 I5.062146 J-7.961729
G03 X110.295628 Y182.056964 Z-2.000000 I-0.028329 J0.055871
G03 X109.341767 Y181.737087 Z-2.000000 I0.798182 J-3.962283
G01 X109.341767 Y181.737087 Z-2.000000
 

(End cutting path id: path92)

(Start cutting path id: path86)
(Change tool to Default tool)

G00 Z1.000000
G00 X113.485772 Y188.017557

G01 Z-2.000000 F9998.0(Penetrate)
G03 X113.514947 Y187.890878 Z-2.000000 I0.289612 J0.000000 F9999.000000
G03 X114.148813 Y186.673057 Z-2.000000 I22.704526 J11.043657
G02 X114.687884 Y185.430353 Z-2.000000 I-5.958438 J-3.322975
G02 X114.922360 Y184.223490 Z-2.000000 I-4.974726 J-1.592730
G02 X114.800469 Y183.011107 Z-2.000000 I-3.799815 J-0.230292
G02 X114.148813 Y181.350313 Z-2.000000 I-7.644346 J2.041218
G03 X113.871398 Y180.534617 Z-2.000000 I2.380396 J-1.264585
G03 X114.001470 Y180.484677 Z-2.000000 I0.070079 J-0.011836
G03 X115.319904 Y183.849701 Z-2.000000 I-7.676498 J4.948487
G03 X115.014449 Y186.249448 Z-2.000000 I-4.019821 J0.707647
G03 X113.807330 Y188.137635 Z-2.000000 I-7.025591 J-3.161516
G03 X113.485772 Y188.017557 Z-2.000000 I-0.138359 J-0.120078
G01 X113.485772 Y188.017557 Z-2.000000
 

(End cutting path id: path86)

(Start cutting path id: path82)
(Change tool to Default tool)

G00 Z1.000000
G00 X113.025327 Y191.222254

G01 Z-2.000000 F9998.0(Penetrate)
G03 X113.015120 Y191.094865 Z-2.000000 I0.123306 J-0.073984 F9999.000000
G03 X113.098998 Y191.038076 Z-2.000000 I0.083879 J0.033551
G03 X113.249229 Y191.098813 Z-2.000000 I-0.000000 J0.216165
G03 X113.301594 Y191.222254 Z-2.000000 I-0.119314 J0.123441
G03 X113.267141 Y191.381188 Z-2.000000 I-0.383811 J0.000000
G01 X113.227923 Y191.406432 Z-2.000000
G03 X113.148055 Y191.377449 Z-2.000000 I0.000000 J-0.124535
G03 X113.025327 Y191.222254 Z-2.000000 I0.310983 J-0.372050
G01 X113.025327 Y191.222254 Z-2.000000
 

(End cutting path id: path82)

(Start cutting path id: path80)
(Change tool to Default tool)

G00 Z1.000000
G00 X113.909381 Y192.677260

G01 Z-2.000000 F9998.0(Penetrate)
G02 X114.330591 Y191.809825 Z-2.000000 I-4.684357 J-2.810614 F9999.000000
G02 X114.425080 Y191.295925 Z-2.000000 I-1.350235 J-0.513900
G01 X114.443498 Y190.761809 Z-2.000000
G01 X114.572422 Y191.314343 Z-2.000000
G03 X114.485744 Y192.258368 Z-2.000000 I-1.498603 J0.338394
G03 X113.725203 Y193.285048 Z-2.000000 I-2.549519 J-1.093591
G01 X113.662299 Y193.242699 Z-2.000000
G03 X113.909381 Y192.677260 Z-2.000000 I2.410747 J0.716732
G01 X113.909381 Y192.677260 Z-2.000000
 

(End cutting path id: path80)

(Start cutting path id: path79)
(Change tool to Default tool)

G00 Z1.000000
G00 X112.564882 Y193.303465

G01 Z-2.000000 F9998.0(Penetrate)
G03 X112.605373 Y193.113985 Z-2.000000 I0.463589 J0.000000 F9999.000000
G03 X113.098998 Y192.106308 Z-2.000000 I14.865917 J6.657546
G03 X113.609732 Y191.094729 Z-2.000000 I129.878366 J64.939183
G02 X113.706786 Y190.835480 Z-2.000000 I-1.091299 J-0.556337
G03 X113.880803 Y190.845575 Z-2.000000 I0.085541 J0.030353
G03 X113.854128 Y191.516939 Z-2.000000 I-1.251253 J0.286496
G03 X112.939602 Y193.426780 Z-2.000000 I-5.442412 J-1.432214
G03 X112.564882 Y193.303465 Z-2.000000 I-0.167069 J-0.123315
G01 X112.564882 Y193.303465 Z-2.000000
 

(End cutting path id: path79)

(Start cutting path id: path81)
(Change tool to Default tool)

G00 Z1.000000
G00 X114.830271 Y191.222254

G01 Z-2.000000 F9998.0(Penetrate)
G03 X114.912196 Y190.908285 Z-2.000000 I0.986173 J0.089652 F9999.000000
G03 X114.996032 Y190.853898 Z-2.000000 I0.083835 J0.037421
G03 X115.216178 Y191.082317 Z-2.000000 I0.000000 J0.220296
G03 X114.977614 Y191.498521 Z-2.000000 I-0.515526 J-0.019021
G03 X114.874540 Y191.463581 Z-2.000000 I-0.034243 J-0.068487
G03 X114.830271 Y191.222254 Z-2.000000 I0.410352 J-0.199998
G01 X114.830271 Y191.222254 Z-2.000000
 

(End cutting path id: path81)

(Start cutting path id: path72)
(Change tool to Default tool)

G00 Z1.000000
G00 X118.753263 Y196.747594

G01 Z-2.000000 F9998.0(Penetrate)
G02 X117.757329 Y191.426887 Z-2.000000 I-35.083936 J3.813471 F9999.000000
G02 X116.708887 Y189.012118 Z-2.000000 I-8.633059 J2.313304
G03 X116.302963 Y188.255705 Z-2.000000 I6.760659 J-4.115184
G03 X116.322113 Y188.146481 Z-2.000000 I0.087408 J-0.040966
G03 X116.796068 Y188.203584 Z-2.000000 I0.214566 J0.214566
G03 X118.108640 Y191.038076 Z-2.000000 I-11.953805 J7.256617
G03 X118.853814 Y194.351696 Z-2.000000 I-20.780870 J6.413849
G03 X118.974276 Y197.152786 Z-2.000000 I-13.890115 J2.000485
G01 X118.919023 Y198.128929 Z-2.000000
G01 X118.753263 Y196.747594 Z-2.000000
 

(End cutting path id: path72)

(Start cutting path id: path73)
(Change tool to Default tool)

G00 Z1.000000
G00 X123.541891 Y196.489745

G01 Z-2.000000 F9998.0(Penetrate)
G03 X123.381372 Y193.037473 Z-2.000000 I18.723066 J-2.600426 F9999.000000
G03 X123.799740 Y190.411871 Z-2.000000 I11.784271 J0.531593
G03 X124.482334 Y189.107798 Z-2.000000 I3.550556 J1.027793
G03 X125.070568 Y188.827940 Z-2.000000 I0.588234 J0.478278
G03 X125.119954 Y188.896156 Z-2.000000 I0.000000 J0.051985
G03 X124.794301 Y189.619905 Z-2.000000 I-3.588022 J-1.179300
G02 X124.238319 Y191.124034 Z-2.000000 I4.282803 J2.437903
G02 X123.818158 Y194.721636 Z-2.000000 I23.932168 J4.618358
G03 X123.639857 Y196.491053 Z-2.000000 I-15.432204 J-0.661380
G01 X123.541891 Y196.489745 Z-2.000000
G01 X123.541891 Y196.489745 Z-2.000000
 

(End cutting path id: path73)

(Start cutting path id: path78)
(Change tool to Default tool)

G00 Z1.000000
G00 X127.777985 Y193.395554

G01 Z-2.000000 F9998.0(Penetrate)
G03 X126.789389 Y191.308834 Z-2.000000 I7.484593 J-4.823405 F9999.000000
G03 X126.912348 Y190.798645 Z-2.000000 I0.478577 J-0.154571
G03 X127.067507 Y190.774787 Z-2.000000 I0.093843 J0.093843
G03 X127.225451 Y190.964405 Z-2.000000 I-0.147786 J0.283689
G03 X127.356533 Y191.301273 Z-2.000000 I-17.825468 J7.130187
G03 X127.796403 Y192.474664 Z-2.000000 I-193.981083 J73.386888
G03 X127.954381 Y193.344208 Z-2.000000 I-2.115907 J0.833539
G03 X127.777985 Y193.395554 Z-2.000000 I-0.096114 J-0.001522
G01 X127.777985 Y193.395554 Z-2.000000
 

(End cutting path id: path78)

(Start cutting path id: path76)
(Change tool to Default tool)

G00 Z1.000000
G00 X130.835340 Y194.169102

G01 Z-2.000000 F9998.0(Penetrate)
G03 X129.321569 Y193.577964 Z-2.000000 I0.346902 J-3.122121 F9999.000000
G03 X128.238430 Y192.253651 Z-2.000000 I2.037561 J-2.771594
G03 X127.701435 Y190.774468 Z-2.000000 I8.376690 J-3.878097
G03 X127.754963 Y190.646698 Z-2.000000 I0.109144 J-0.029374
G03 X127.881642 Y190.674042 Z-2.000000 I0.047971 J0.084872
G03 X128.680457 Y191.995802 Z-2.000000 I-7.130311 J5.211520
G02 X129.401903 Y193.299814 Z-2.000000 I15.991684 J-7.995842
G02 X129.564511 Y193.469226 Z-2.000000 I0.463897 J-0.282522
G02 X129.740247 Y193.412982 Z-2.000000 I0.065448 J-0.098172
G02 X129.693436 Y193.119287 Z-2.000000 I-0.279074 J-0.106097
G03 X128.785925 Y191.628161 Z-2.000000 I6.464172 J-4.955865
G03 X128.588368 Y190.743391 Z-2.000000 I1.882462 J-0.884769
G03 X128.813035 Y190.532077 Z-2.000000 I0.211711 J0.000000
G03 X135.218776 Y191.148583 Z-2.000000 I-5.673259 J92.534748
G03 X137.278518 Y191.505806 Z-2.000000 I-4.956798 J34.697589
G03 X137.447330 Y191.609028 Z-2.000000 I-0.058197 J0.284828
G02 X137.583218 Y191.678495 Z-2.000000 I0.115127 J-0.057564
G02 X138.257713 Y191.480103 Z-2.000000 I-0.458219 J-2.803633
G03 X138.673080 Y191.415918 Z-2.000000 I0.343618 J0.847591
G03 X138.718158 Y191.516939 Z-2.000000 I-0.004940 J0.062772
G02 X138.776441 Y191.669579 Z-2.000000 I0.069578 J0.060880
G02 X140.559938 Y191.737952 Z-2.000000 I1.297012 J-10.537000
G03 X142.194295 Y191.759223 Z-2.000000 I0.652554 J12.659550
G03 X142.217540 Y191.866877 Z-2.000000 I-0.004451 J0.057297
G03 X141.732096 Y192.056103 Z-2.000000 I-1.268605 J-2.537210
G03 X140.375760 Y192.382575 Z-2.000000 I-4.427689 J-15.414212
G02 X137.659085 Y193.229519 Z-2.000000 I3.237533 J15.165284
G02 X136.857960 Y193.855999 Z-2.000000 I0.733116 J1.762955
G03 X135.982468 Y194.331509 Z-2.000000 I-0.930922 J-0.670263
G03 X130.835340 Y194.169102 Z-2.000000 I-1.559189 J-32.229621
G01 X130.835340 Y194.169102 Z-2.000000
 

(Change tool to Default tool)

G00 Z1.000000
G00 X130.890593 Y193.285048

G01 Z-2.000000 F9998.0(Penetrate)
G03 X130.698723 Y193.139235 Z-2.000000 I1.081544 J-1.622316 F9999.000000
G03 X129.988121 Y192.511500 Z-2.000000 I26.062435 J-30.218987
G01 X129.251409 Y191.866877 Z-2.000000
G01 X129.859196 Y192.658842 Z-2.000000
G02 X130.506489 Y193.337581 Z-2.000000 I3.788227 J-2.964699
G02 X130.761668 Y193.432390 Z-2.000000 I0.255179 J-0.296004
G02 X130.892780 Y193.374279 Z-2.000000 I-0.000000 J-0.176963
G02 X130.890593 Y193.285048 Z-2.000000 I-0.047951 J-0.043467
G01 X130.890593 Y193.285048 Z-2.000000
 

(Change tool to Default tool)

G00 Z1.000000
G00 X133.376996 Y193.174541

G01 Z-2.000000 F9998.0(Penetrate)
G02 X133.332343 Y193.105752 Z-2.000000 I-0.075312 J0.000000 F9999.000000
G02 X132.271928 Y192.677260 Z-2.000000 I-6.606102 J14.822148
G03 X131.234241 Y192.197664 Z-2.000000 I2.708577 J-7.222871
G03 X130.448566 Y191.664281 Z-2.000000 I2.585168 J-4.653302
G02 X129.626812 Y191.112746 Z-2.000000 I-2.558329 J2.923804
G02 X129.509258 Y191.185418 Z-2.000000 I-0.036313 J0.072673
G02 X129.802729 Y191.722362 Z-2.000000 I0.637940 J-0.000000
G02 X132.143003 Y192.898274 Z-2.000000 I6.760770 J-10.538400
G02 X133.304772 Y193.232303 Z-2.000000 I3.439564 J-9.775602
G02 X133.376996 Y193.174541 Z-2.000000 I0.013014 J-0.057762
G01 X133.376996 Y193.174541 Z-2.000000
 

(Change tool to Default tool)

G00 Z1.000000
G00 X133.745352 Y192.622007

G01 Z-2.000000 F9998.0(Penetrate)
G02 X133.574097 Y192.308207 Z-2.000000 I-0.373123 J0.000000 F9999.000000
G02 X131.977243 Y191.480103 Z-2.000000 I-5.225918 J8.123588
G02 X131.558143 Y191.394080 Z-2.000000 I-0.419100 J0.977900
G02 X131.516798 Y191.480103 Z-2.000000 I0.000000 J0.052947
G02 X131.785537 Y191.713073 Z-2.000000 I0.974678 J-0.852843
G02 X132.695537 Y192.216815 Z-2.000000 I4.001303 J-6.154447
G02 X133.697884 Y192.654388 Z-2.000000 I6.233570 J-12.912395
G01 X133.745352 Y192.622007 Z-2.000000
G01 X133.745352 Y192.622007 Z-2.000000
 

(Change tool to Default tool)

G00 Z1.000000
G00 X136.323844 Y192.179980

G01 Z-2.000000 F9998.0(Penetrate)
G02 X135.839155 Y191.550834 Z-2.000000 I-0.650672 J0.000000 F9999.000000
G02 X134.574153 Y191.737952 Z-2.000000 I-0.414141 J1.569767
G01 X134.576347 Y191.814363 Z-2.000000
G02 X135.218776 Y192.069473 Z-2.000000 I1.531590 J-2.920466
G02 X136.236339 Y192.258370 Z-2.000000 I1.786671 J-6.789351
G02 X136.323844 Y192.179980 Z-2.000000 I0.008640 J-0.078391
G01 X136.323844 Y192.179980 Z-2.000000
 

(End cutting path id: path76)

(Start cutting path id: path74)
(Change tool to Default tool)

G00 Z1.000000
G00 X138.184042 Y194.703218

G01 Z-2.000000 F9998.0(Penetrate)
G03 X137.189365 Y194.508571 Z-2.000000 I2.965464 J-17.792785 F9999.000000
G03 X137.097392 Y194.445369 Z-2.000000 I0.032966 J-0.146495
G03 X137.144353 Y194.094486 Z-2.000000 I0.144739 J-0.159213
G03 X140.338924 Y192.806185 Z-2.000000 I8.865710 J17.379195
G02 X141.918396 Y192.260602 Z-2.000000 I-8.390854 J-26.850733
G02 X142.401718 Y192.032637 Z-2.000000 I-1.208742 J-3.189077
G03 X142.883300 Y191.765847 Z-2.000000 I2.276333 J3.540962
G03 X143.543622 Y191.461685 Z-2.000000 I17.606817 J37.354718
G02 X144.227301 Y190.932365 Z-2.000000 I-0.651834 J-1.548106
G02 X144.096156 Y190.743391 Z-2.000000 I-0.096095 J-0.073305
G03 X143.790248 Y190.794609 Z-2.000000 I-0.637715 J-2.869716
G03 X142.309629 Y190.945987 Z-2.000000 I-7.482445 J-65.868709
G02 X140.837900 Y191.064154 Z-2.000000 I4.170002 J61.160036
G02 X140.099493 Y191.148583 Z-2.000000 I1.577403 J17.067037
G03 X139.669624 Y191.128819 Z-2.000000 I-0.149115 J-1.441444
G01 X139.657466 Y191.056494 Z-2.000000
G03 X140.924263 Y190.573844 Z-2.000000 I1.828213 J2.894671
G03 X144.225080 Y190.301364 Z-2.000000 I3.300817 J19.856779
G02 X145.764355 Y190.044255 Z-2.000000 I0.000000 J-4.736262
G02 X146.361545 Y189.564652 Z-2.000000 I-0.367388 J-1.069067
G01 X146.323548 Y189.504699 Z-2.000000
G02 X145.845847 Y189.638323 Z-2.000000 I0.289561 J1.955873
G03 X145.187622 Y189.795324 Z-2.000000 I-0.861634 J-2.154084
G03 X144.519765 Y189.748830 Z-2.000000 I-0.187355 J-2.128673
G03 X144.364534 Y189.544769 Z-2.000000 I0.042137 J-0.193127
G03 X144.538183 Y189.380474 Z-2.000000 I0.173649 J0.009620
G02 X145.420925 Y189.264548 Z-2.000000 I-0.146197 J-4.532099
G02 X146.324709 Y188.938447 Z-2.000000 I-0.930934 J-3.995537
G03 X146.980078 Y188.769990 Z-2.000000 I0.735839 J1.503671
G03 X147.079839 Y188.901611 Z-2.000000 I0.004811 J0.099971
G03 X146.601141 Y189.948539 Z-2.000000 I-4.232091 J-1.302182
G03 X146.048442 Y190.559213 Z-2.000000 I-1.989441 J-1.245117
G02 X145.541983 Y191.088811 Z-2.000000 I1.210835 J1.664899
G02 X145.385402 Y191.516939 Z-2.000000 I0.821691 J0.543219
G03 X144.851688 Y192.751994 Z-2.000000 I-2.041547 J-0.149381
G03 X142.898999 Y194.242773 Z-2.000000 I-5.168090 J-4.745149
G03 X140.952953 Y194.814201 Z-2.000000 I-2.454951 J-4.761117
G03 X138.184042 Y194.703218 Z-2.000000 I-0.976538 J-10.232618
G01 X138.184042 Y194.703218 Z-2.000000
 

(Change tool to Default tool)

G00 Z1.000000
G00 X139.012843 Y193.948088

G01 Z-2.000000 F9998.0(Penetrate)
G01 X138.983739 Y193.880263 Z-2.000000 F9999.000000
G02 X138.699740 Y193.892835 Z-2.000000 I-0.113401 J0.652314
G02 X138.360633 Y194.115963 Z-2.000000 I0.186469 J0.652643
G02 X138.423473 Y194.224355 Z-2.000000 I0.051835 J0.042361
G02 X138.881565 Y194.068858 Z-2.000000 I-0.366362 J-1.831808
G02 X139.012843 Y193.948088 Z-2.000000 I-0.139221 J-0.283069
G01 X139.012843 Y193.948088 Z-2.000000
 

(Change tool to Default tool)

G00 Z1.000000
G00 X142.493807 Y193.542897

G01 Z-2.000000 F9998.0(Penetrate)
G02 X143.367635 Y193.034756 Z-2.000000 I-2.315609 J-4.987466 F9999.000000
G02 X144.059320 Y192.419411 Z-2.000000 I-2.483984 J-3.488570
G02 X143.987185 Y192.309094 Z-2.000000 I-0.049815 J-0.046170
G02 X143.101594 Y192.750931 Z-2.000000 I1.274643 J3.663239
G03 X142.011239 Y193.334670 Z-2.000000 I-3.122429 J-4.522138
G03 X140.707280 Y193.708657 Z-2.000000 I-2.525899 J-6.346684
G01 X139.362781 Y193.948088 Z-2.000000
G01 X140.467849 Y193.966506 Z-2.000000
G02 X141.556554 Y193.861728 Z-2.000000 I0.104954 J-4.617997
G02 X142.493807 Y193.542897 Z-2.000000 I-0.932587 J-4.278492
G01 X142.493807 Y193.542897 Z-2.000000
 

(End cutting path id: path74)

(Start cutting path id: path85)
(Change tool to Default tool)

G00 Z1.000000
G00 X144.446094 Y188.938447

G01 Z-2.000000 F9998.0(Penetrate)
G03 X144.595886 Y188.826671 Z-2.000000 I0.459427 J0.459427 F9999.000000
G03 X145.956353 Y188.109646 Z-2.000000 I31.343458 J57.821193
G03 X147.159174 Y187.620953 Z-2.000000 I3.460683 J6.793192
G03 X147.245599 Y187.704454 Z-2.000000 I0.020299 J0.065467
G03 X146.721706 Y188.373558 Z-2.000000 I-1.098388 J-0.320363
G03 X145.109135 Y188.938447 Z-2.000000 I-2.282100 J-3.930520
G03 X144.473523 Y188.993306 Z-2.000000 I-0.635611 J-3.654765
G01 X144.446094 Y188.938447 Z-2.000000
G01 X144.446094 Y188.938447 Z-2.000000
 

(End cutting path id: path85)

(Start cutting path id: path88)
(Change tool to Default tool)

G00 Z1.000000
G00 X145.827429 Y187.372934

G01 Z-2.000000 F9998.0(Penetrate)
G02 X146.566525 Y186.980892 Z-2.000000 I-2.152385 J-4.950484 F9999.000000
G02 X146.711483 Y186.820400 Z-2.000000 I-0.216414 J-0.341178
G03 X146.969742 Y186.716099 Z-2.000000 I0.203324 J0.131563
G03 X147.061421 Y186.894071 Z-2.000000 I-0.029801 J0.127951
G03 X146.571362 Y187.459810 Z-2.000000 I-0.959113 J-0.335689
G03 X145.495908 Y187.722872 Z-2.000000 I-1.075453 J-2.066812
G03 X145.458137 Y187.634612 Z-2.000000 I0.000000 J-0.052212
G03 X145.827429 Y187.372934 Z-2.000000 I0.856715 J0.817617
G01 X145.827429 Y187.372934 Z-2.000000
 

(End cutting path id: path88)

(Start cutting path id: path99)
(Change tool to Default tool)

G00 Z1.000000
G00 X141.591335 Y178.827075

G01 Z-2.000000 F9998.0(Penetrate)
G02 X142.646699 Y177.983194 Z-2.000000 I-8.697235 J-11.958698 F9999.000000
G02 X143.672546 Y177.022130 Z-2.000000 I-14.224994 J-16.211905
G03 X144.071446 Y176.715494 Z-2.000000 I1.371874 J1.371874
G01 X144.114573 Y176.764281 Z-2.000000
G03 X143.072861 Y177.899116 Z-2.000000 I-8.279809 J-6.554849
G03 X141.683424 Y179.048088 Z-2.000000 I-9.629894 J-10.230705
G03 X140.769089 Y179.625680 Z-2.000000 I-5.409264 J-7.550431
G01 X140.718792 Y179.607529 Z-2.000000
G03 X140.734224 Y179.539929 Z-2.000000 I0.057394 J-0.022459
G03 X141.591335 Y178.827075 Z-2.000000 I6.886554 J7.408437
G01 X141.591335 Y178.827075 Z-2.000000
 

(End cutting path id: path99)

(Start cutting path id: path93)
(Change tool to Default tool)

G00 Z1.000000
G00 X131.166860 Y181.497656

G01 Z-2.000000 F9998.0(Penetrate)
G03 X132.393999 Y180.838797 Z-2.000000 I9.931596 J17.025593 F9999.000000
G03 X133.745352 Y180.226827 Z-2.000000 I10.184199 J20.690777
G03 X138.577554 Y178.537197 Z-2.000000 I15.248119 J35.853686
G03 X139.510123 Y178.569225 Z-2.000000 I0.415410 J1.497312
G01 X139.516709 Y178.637264 Z-2.000000
G03 X138.902336 Y178.863910 Z-2.000000 I-1.264131 J-2.480677
G02 X135.363372 Y179.975596 Z-2.000000 I9.305640 J35.812613
G02 X132.548195 Y181.202971 Z-2.000000 I9.418613 J25.445286
G03 X130.767016 Y182.030369 Z-2.000000 I-13.802437 J-27.382253
G03 X130.338059 Y182.165301 Z-2.000000 I-0.900167 J-2.112373
G01 X130.306365 Y182.100078 Z-2.000000
G03 X131.166860 Y181.497656 Z-2.000000 I3.875377 J4.619783
G01 X131.166860 Y181.497656 Z-2.000000
 

(End cutting path id: path93)

(Start cutting path id: path90)
(Change tool to Default tool)

G00 Z1.000000
G00 X126.359814 Y185.936345

G01 Z-2.000000 F9998.0(Penetrate)
G03 X125.792927 Y184.130532 Z-2.000000 I3.141803 J-1.978172 F9999.000000
G03 X126.194054 Y182.363292 Z-2.000000 I3.397808 J-0.157911
G03 X127.633089 Y179.873692 Z-2.000000 I24.646643 J12.585520
G03 X127.777985 Y179.858471 Z-2.000000 I0.078611 J0.051064
G01 X127.785313 Y179.896738 Z-2.000000
G03 X127.151780 Y181.276642 Z-2.000000 I-29.750361 J-12.823426
G02 X126.456268 Y183.663706 Z-2.000000 I6.751811 J3.262111
G02 X126.617663 Y185.660078 Z-2.000000 I5.065531 J0.595190
G03 X126.863463 Y186.586942 Z-2.000000 I-10.986106 J3.409481
G01 X126.838677 Y186.617804 Z-2.000000
G03 X126.785882 Y186.590435 Z-2.000000 I-0.000000 J-0.064606
G03 X126.359814 Y185.936345 Z-2.000000 I8.638204 J-6.092653
G01 X126.359814 Y185.936345 Z-2.000000
 

(End cutting path id: path90)

(Start cutting path id: path89)
(Change tool to Default tool)

G00 Z1.000000
G00 X124.941644 Y187.041413

G01 Z-2.000000 F9998.0(Penetrate)
G03 X124.355160 Y185.694346 Z-2.000000 I2.872650 J-2.051893 F9999.000000
G03 X123.781322 Y181.368731 Z-2.000000 I30.955756 J-6.307475
G03 X123.739633 Y175.959672 Z-2.000000 I47.610410 J-3.071639
G03 X124.112843 Y174.535727 Z-2.000000 I3.571474 J0.175187
G02 X124.466471 Y173.778318 Z-2.000000 I-5.871238 J-3.202493
G02 X125.162657 Y171.828311 Z-2.000000 I-30.726813 J-12.069278
G02 X125.610152 Y169.497838 Z-2.000000 I-7.874316 J-2.720218
G02 X125.328417 Y168.421018 Z-2.000000 I-1.864902 J-0.087341
G03 X125.385776 Y168.181229 Z-2.000000 I0.146672 J-0.091670
G03 X125.696773 Y168.200004 Z-2.000000 I0.141862 J0.235268
G03 X126.388415 Y169.171406 Z-2.000000 I-1.288610 J1.649421
G03 X126.507157 Y170.520647 Z-2.000000 I-2.672520 J0.915044
G03 X125.848790 Y172.761489 Z-2.000000 I-10.244961 J-1.792868
G03 X124.481199 Y175.272439 Z-2.000000 I-13.140450 J-5.529051
G02 X124.275886 Y175.824382 Z-2.000000 I0.902706 J0.649948
G02 X124.241767 Y177.943020 Z-2.000000 I14.646017 J1.295453
G02 X124.854193 Y184.816464 Z-2.000000 I113.488963 J-6.647889
G02 X125.254746 Y186.396790 Z-2.000000 I6.290878 J-0.753576
G03 X125.558287 Y187.439166 Z-2.000000 I-5.196613 J2.078645
G03 X125.475760 Y187.538694 Z-2.000000 I-0.082528 J0.015549
G03 X125.336795 Y187.484275 Z-2.000000 I-0.000000 J-0.204640
G03 X124.941644 Y187.041413 Z-2.000000 I2.107263 J-2.277966
G01 X124.941644 Y187.041413 Z-2.000000
 

(End cutting path id: path89)

(Start cutting path id: path83)
(Change tool to Default tool)

G00 Z1.000000
G00 X131.277367 Y188.735851

G01 Z-2.000000 F9998.0(Penetrate)
G03 X129.999773 Y187.976392 Z-2.000000 I1.819657 J-4.515446 F9999.000000
G03 X128.293683 Y186.267866 Z-2.000000 I7.968287 J-9.663014
G03 X127.765253 Y185.370848 Z-2.000000 I2.527552 J-2.093129
G03 X127.906909 Y185.273305 Z-2.000000 I0.082245 J-0.032191
G02 X130.036113 Y186.958226 Z-2.000000 I10.773221 J-11.426144
G02 X132.087750 Y188.054392 Z-2.000000 I6.954857 J-10.548982
G02 X134.506767 Y188.568414 Z-2.000000 I2.619245 J-6.377292
G02 X137.797268 Y188.201735 Z-2.000000 I0.344481 J-11.856155
G02 X140.831719 Y186.847979 Z-2.000000 I-2.453929 J-9.578240
G02 X142.622732 Y184.978620 Z-2.000000 I-3.317044 J-4.970679
G03 X144.453397 Y183.167047 Z-2.000000 I4.498905 J2.715555
G03 X145.716922 Y183.155258 Z-2.000000 I0.641981 J1.089231
G03 X146.048825 Y183.378294 Z-2.000000 I-0.870309 J1.653587
G01 X146.030025 Y183.413107 Z-2.000000
G02 X145.688611 Y183.312477 Z-2.000000 I-0.705101 J1.762753
G02 X144.961792 Y183.192093 Z-2.000000 I-2.466512 J12.637363
G02 X144.352624 Y183.247085 Z-2.000000 I-0.203147 J1.151167
G02 X144.077738 Y183.523614 Z-2.000000 I0.161157 J0.435090
G03 X143.151174 Y185.408182 Z-2.000000 I-10.171345 J-3.830766
G03 X142.033362 Y186.820400 Z-2.000000 I-6.626981 J-4.096950
G03 X140.922864 Y187.680450 Z-2.000000 I-3.938725 J-3.938725
G03 X139.454870 Y188.330659 Z-2.000000 I-3.533573 J-5.995565
G03 X134.298706 Y189.261864 Z-2.000000 I-6.135619 J-19.232807
G03 X131.277367 Y188.735851 Z-2.000000 I-0.339528 J-6.989863
G01 X131.277367 Y188.735851 Z-2.000000
 

(End cutting path id: path83)

(Start cutting path id: path87)
(Change tool to Default tool)

G00 Z1.000000
G00 X134.482064 Y187.962303

G01 Z-2.000000 F9998.0(Penetrate)
G03 X133.167007 Y187.545549 Z-2.000000 I0.775402 J-4.729950 F9999.000000
G03 X130.522237 Y186.046852 Z-2.000000 I10.326034 J-21.305464
G03 X128.070349 Y184.039064 Z-2.000000 I7.951661 J-12.211479
G03 X128.072670 Y183.560449 Z-2.000000 I0.242800 J-0.238135
G03 X128.363146 Y183.432464 Z-2.000000 I0.310038 J0.310038
G03 X129.509258 Y183.505196 Z-2.000000 I0.237659 J5.321576
G02 X132.007463 Y183.613009 Z-2.000000 I1.674762 J-9.809323
G02 X134.371557 Y183.118422 Z-2.000000 I-0.811915 J-9.778307
G03 X137.170199 Y182.648353 Z-2.000000 I2.798641 J8.096070
G03 X139.675884 Y183.118422 Z-2.000000 I-0.000000 J6.913259
G02 X141.146627 Y183.216357 Z-2.000000 I0.899785 J-2.420112
G02 X142.604314 Y182.455381 Z-2.000000 I-0.712169 J-3.140818
G03 X145.055083 Y180.954996 Z-2.000000 I5.083433 J5.551644
G03 X146.269456 Y181.092464 Z-2.000000 I0.471880 J1.264010
G03 X146.272586 Y181.195047 Z-2.000000 I-0.034937 J0.052405
G03 X146.030025 Y181.276642 Z-2.000000 I-0.242561 J-0.319737
G02 X144.884447 Y181.677149 Z-2.000000 I-0.000000 J1.838614
G02 X142.070198 Y184.444504 Z-2.000000 I11.805924 J14.820627
G03 X139.972758 Y186.469092 Z-2.000000 I-9.679047 J-7.928581
G03 X138.073535 Y187.520276 Z-2.000000 I-4.537584 J-5.956961
G03 X136.087074 Y188.006090 Z-2.000000 I-3.183332 J-8.712278
G03 X134.482064 Y187.962303 Z-2.000000 I-0.663908 J-5.102210
G01 X134.482064 Y187.962303 Z-2.000000
 

(Change tool to Default tool)

G00 Z1.000000
G00 X133.008640 Y186.267866

G01 Z-2.000000 F9998.0(Penetrate)
G03 X132.801877 Y185.404771 Z-2.000000 I1.526633 J-0.822033 F9999.000000
G03 X133.045476 Y184.591846 Z-2.000000 I1.605115 J0.038023
G02 X133.202928 Y184.258419 Z-2.000000 I-0.895132 J-0.626592
G02 X133.174400 Y184.149819 Z-2.000000 I-0.107255 J-0.029873
G02 X133.000503 Y184.086903 Z-2.000000 I-0.144944 J0.128839
G02 X131.576656 Y184.350112 Z-2.000000 I3.282933 J21.742034
G02 X130.216222 Y184.700047 Z-2.000000 I4.172600 J19.041160
G02 X130.172299 Y184.812860 Z-2.000000 I0.021734 J0.073418
G02 X130.289137 Y184.929809 Z-2.000000 I0.469148 J-0.351861
G02 X131.314202 Y185.678496 Z-2.000000 I27.967914 J-37.216236
G02 X132.859570 Y186.446195 Z-2.000000 I3.780308 J-5.670462
G02 X133.008640 Y186.267866 Z-2.000000 I0.040755 J-0.117402
G01 X133.008640 Y186.267866 Z-2.000000
 

(Change tool to Default tool)

G00 Z1.000000
G00 X135.789728 Y186.120523

G01 Z-2.000000 F9998.0(Penetrate)
G02 X136.135883 Y185.336960 Z-2.000000 I-0.375878 J-0.634295 F9999.000000
G02 X135.550296 Y184.923366 Z-2.000000 I-0.513886 J0.106238
G02 X134.700009 Y185.467857 Z-2.000000 I0.172139 J1.204974
G02 X134.776749 Y186.138941 Z-2.000000 I0.447071 J0.288806
G02 X135.162284 Y186.300382 Z-2.000000 I0.376239 J-0.357427
G02 X135.789728 Y186.120523 Z-2.000000 I-0.022634 J-1.263321
G01 X135.789728 Y186.120523 Z-2.000000
 

(Change tool to Default tool)

G00 Z1.000000
G00 X139.915315 Y185.144380

G01 Z-2.000000 F9998.0(Penetrate)
G01 X140.615191 Y184.426086 Z-2.000000 F9999.000000
G01 X139.620630 Y183.947223 Z-2.000000
G02 X138.137696 Y183.435942 Z-2.000000 I-3.124975 J6.657555
G02 X137.981446 Y183.560449 Z-2.000000 I-0.028519 J0.124507
G02 X138.011346 Y183.646995 Z-2.000000 I0.140202 J-0.000000
G02 X138.441891 Y184.149819 Z-2.000000 I6.083609 J-4.773369
G03 X138.805759 Y184.673648 Z-2.000000 I-1.659786 J1.541230
G03 X139.012843 Y185.254887 Z-2.000000 I-2.235956 J1.124137
G02 X139.139883 Y185.865383 Z-2.000000 I6.344048 J-1.001692
G01 X139.160185 Y185.881092 Z-2.000000
G01 X139.188382 Y185.869455 Z-2.000000
G02 X139.915315 Y185.144380 Z-2.000000 I-282.959374 J-284.411381
G01 X139.915315 Y185.144380 Z-2.000000
 

(Change tool to Default tool)

G00 Z1.000000
G00 X129.693436 Y184.407668

G01 Z-2.000000 F9998.0(Penetrate)
G02 X129.641071 Y184.284227 Z-2.000000 I-0.171678 J-0.000000 F9999.000000
G02 X129.490840 Y184.223490 Z-2.000000 I-0.150231 J0.155428
G02 X129.406962 Y184.280279 Z-2.000000 I0.000000 J0.090340
G02 X129.417169 Y184.407668 Z-2.000000 I0.133514 J0.053406
G02 X129.539897 Y184.562863 Z-2.000000 I0.433711 J-0.216856
G02 X129.619765 Y184.591846 Z-2.000000 I0.079868 J-0.095551
G01 X129.658983 Y184.566602 Z-2.000000
G02 X129.693436 Y184.407668 Z-2.000000 I-0.349358 J-0.158934
G01 X129.693436 Y184.407668 Z-2.000000
 

(End cutting path id: path87)

(Start cutting path id: path91)
(Change tool to Default tool)

G00 Z1.000000
G00 X117.298257 Y183.855134

G01 Z-2.000000 F9998.0(Penetrate)
G03 X117.423379 Y182.849162 Z-2.000000 I20.950875 J2.095088 F9999.000000
G03 X117.464017 Y182.768484 Z-2.000000 I0.142541 J0.021225
G03 X117.654283 Y182.847819 Z-2.000000 I0.081821 J0.071594
G03 X117.353510 Y184.407668 Z-2.000000 I-6.661331 J-0.475529
G01 X117.295262 Y184.400079 Z-2.000000
G03 X117.298257 Y183.855134 Z-2.000000 I2.582897 J-0.258290
G01 X117.298257 Y183.855134 Z-2.000000
 

(End cutting path id: path91)

(Start cutting path id: path97)
(Change tool to Default tool)

G00 Z1.000000
G00 X118.421742 Y178.053527

G01 Z-2.000000 F9998.0(Penetrate)
G02 X118.352926 Y175.687628 Z-2.000000 I-18.537059 J-0.644767 F9999.000000
G02 X118.108640 Y174.683070 Z-2.000000 I-3.546929 J0.330553
G03 X118.094922 Y174.375443 Z-2.000000 I0.433640 J-0.173456
G03 X118.200729 Y174.369967 Z-2.000000 I0.053881 J0.016160
G03 X118.518682 Y175.502573 Z-2.000000 I-4.662278 J1.919761
G03 X118.661174 Y177.316815 Z-2.000000 I-11.478481 J1.814242
G03 X118.583863 Y179.159676 Z-2.000000 I-38.832866 J-0.706052
G03 X118.495414 Y179.803218 Z-2.000000 I-4.574294 J-0.300847
G01 X118.429505 Y179.797367 Z-2.000000
G03 X118.421742 Y178.053527 Z-2.000000 I20.776765 J-0.964420
G01 X118.421742 Y178.053527 Z-2.000000
 

(End cutting path id: path97)

(Start cutting path id: path104)
(Change tool to Default tool)

G00 Z1.000000
G00 X127.022855 Y172.049324

G01 Z-2.000000 F9998.0(Penetrate)
G03 X127.018720 Y171.835720 Z-2.000000 I0.173163 J-0.110194 F9999.000000
G03 X127.980581 Y170.410140 Z-2.000000 I11.341674 J6.615121
G02 X128.918577 Y168.580944 Z-2.000000 I-4.869546 J-3.652159
G02 X129.030395 Y167.094936 Z-2.000000 I-3.131009 J-0.982810
G02 X128.414603 Y165.920121 Z-2.000000 I-2.094563 J0.349094
G02 X126.801841 Y164.940053 Z-2.000000 I-2.954264 J3.044440
G03 X125.907883 Y164.340742 Z-2.000000 I0.683868 J-1.986474
G03 X125.973040 Y163.982328 Z-2.000000 I0.174494 J-0.153408
G03 X127.659931 Y163.922588 Z-2.000000 I0.905739 J1.729139
G03 X129.619765 Y165.584676 Z-2.000000 I-1.788169 J4.095003
G03 X129.857095 Y166.111692 Z-2.000000 I-1.465054 J0.976703
G03 X130.043374 Y167.168607 Z-2.000000 I-6.198554 J1.637354
G01 X130.153881 Y168.273675 Z-2.000000
G01 X131.700976 Y165.695183 Z-2.000000
G03 X133.281124 Y163.155073 Z-2.000000 I481.640678 J297.856735
G03 X134.168961 Y161.772192 Z-2.000000 I60.007019 J37.549263
G02 X135.903075 Y158.643028 Z-2.000000 I-17.657124 J-11.830273
G02 X136.434351 Y156.725715 Z-2.000000 I-6.014838 J-2.698939
G03 X136.734146 Y155.403644 Z-2.000000 I6.438408 J0.764959
G03 X136.876378 Y155.282220 Z-2.000000 I0.173224 J0.058893
G03 X136.997612 Y155.365275 Z-2.000000 I0.017864 J0.103934
G03 X137.097392 Y156.615208 Z-2.000000 I-5.148993 J1.039982
G03 X136.585345 Y158.663870 Z-2.000000 I-5.214649 J-0.215037
G03 X133.450667 Y164.184924 Z-2.000000 I-42.251904 J-20.338870
G02 X130.785053 Y168.319334 Z-2.000000 I212.098247 J139.674456
G02 X130.227552 Y169.323490 Z-2.000000 I8.651902 J5.460319
G03 X129.660473 Y170.277243 Z-2.000000 I-6.824809 J-3.412405
G03 X128.993560 Y171.091599 Z-2.000000 I-5.611576 J-3.915322
G03 X127.481193 Y172.186899 Z-2.000000 I-3.928674 J-3.832853
G03 X127.022855 Y172.049324 Z-2.000000 I-0.154955 J-0.316036
G01 X127.022855 Y172.049324 Z-2.000000
 

(End cutting path id: path104)

(Start cutting path id: path110)
(Change tool to Default tool)

G00 Z1.000000
G00 X141.425575 Y157.204577

G01 Z-2.000000 F9998.0(Penetrate)
G02 X140.959312 Y154.399658 Z-2.000000 I-12.002479 J0.553961 F9999.000000
G02 X139.344363 Y150.076889 Z-2.000000 I-29.879862 J8.699809
G03 X138.206031 Y147.537758 Z-2.000000 I60.103495 J-28.470076
G03 X138.220877 Y147.461561 Z-2.000000 I0.063961 J-0.027082
G03 X138.460397 Y147.485029 Z-2.000000 I0.111782 J0.093152
G03 X140.541520 Y151.679237 Z-2.000000 I-52.970873 J28.897027
G03 X141.390922 Y154.258307 Z-2.000000 I-11.751494 J5.299693
G03 X141.701842 Y157.057235 Z-2.000000 I-13.515635 J2.918122
G03 X141.680710 Y158.981484 Z-2.000000 I-34.094078 J0.587829
G03 X141.628170 Y159.101611 Z-2.000000 I-0.179715 J-0.007049
G01 X141.574307 Y159.076417 Z-2.000000
G03 X141.425575 Y157.204577 Z-2.000000 I32.770286 J-3.545688
G01 X141.425575 Y157.204577 Z-2.000000
 

(End cutting path id: path110)

(Start cutting path id: path115)
(Change tool to Default tool)

G00 Z1.000000
G00 X132.419270 Y146.301240

G01 Z-2.000000 F9998.0(Penetrate)
G03 X131.073445 Y145.164850 Z-2.000000 I3.228436 J-5.188557 F9999.000000
G03 X131.074771 Y144.827816 Z-2.000000 I0.189392 J-0.167775
G03 X131.168126 Y144.824283 Z-2.000000 I0.048583 J0.048583
G03 X131.443127 Y145.122501 Z-2.000000 I-1.140795 J1.327886
G02 X131.782292 Y145.478430 Z-2.000000 I1.673526 J-1.255145
G02 X132.640284 Y146.117062 Z-2.000000 I6.580498 J-7.945127
G03 X133.534818 Y146.728416 Z-2.000000 I-10.396136 J16.171767
G03 X133.561174 Y146.780103 Z-2.000000 I-0.037504 J0.051687
G03 X133.462477 Y146.845051 Z-2.000000 I-0.070719 J0.000000
G03 X132.419270 Y146.301240 Z-2.000000 I3.157342 J-7.329312
G01 X132.419270 Y146.301240 Z-2.000000
 

(End cutting path id: path115)

(Start cutting path id: path114)
(Change tool to Default tool)

G00 Z1.000000
G00 X106.321248 Y146.338075

G01 Z-2.000000 F9998.0(Penetrate)
G03 X107.199797 Y145.114337 Z-2.000000 I7.353983 J4.352357 F9999.000000
G03 X107.463151 Y144.993576 Z-2.000000 I0.263354 J0.226778
G01 X107.507000 Y145.053498 Z-2.000000
G03 X107.389480 Y145.233007 Z-2.000000 I-0.380174 J-0.120666
G02 X107.149002 Y145.466517 Z-2.000000 I0.792724 J1.056965
G02 X106.597515 Y146.245986 Z-2.000000 I6.535991 J5.209143
G03 X106.380125 Y146.411711 Z-2.000000 I-0.352986 J-0.237587
G03 X106.321248 Y146.338075 Z-2.000000 I-0.015993 J-0.047569
G01 X106.321248 Y146.338075 Z-2.000000
 

(End cutting path id: path114)

(Start cutting path id: path120)
(Change tool to Default tool)

G00 Z1.000000
G00 X101.237935 Y137.994812

G01 Z-2.000000 F9998.0(Penetrate)
G03 X101.548934 Y137.483220 Z-2.000000 I7.715466 J4.339950 F9999.000000
G03 X101.624709 Y137.442278 Z-2.000000 I0.075774 J0.049649
G01 X101.646692 Y137.472063 Z-2.000000
G03 X101.422113 Y137.994812 Z-2.000000 I-2.554485 J-0.787823
G03 X101.109161 Y138.508737 Z-2.000000 I-4.428965 J-2.344746
G03 X101.035339 Y138.547346 Z-2.000000 I-0.073822 J-0.051271
G01 X101.014894 Y138.519105 Z-2.000000
G03 X101.237935 Y137.994812 Z-2.000000 I3.199896 J1.051689
G01 X101.237935 Y137.994812 Z-2.000000
 

(End cutting path id: path120)

(Start cutting path id: path121)
(Change tool to Default tool)

G00 Z1.000000
G00 X102.029900 Y136.668730

G01 Z-2.000000 F9998.0(Penetrate)
G02 X102.391489 Y136.057245 Z-2.000000 I-20.858471 J-12.746843 F9999.000000
G02 X103.171804 Y134.679608 Z-2.000000 I-166.459007 J-95.194818
G03 X105.571020 Y130.921903 Z-2.000000 I38.674444 J22.048048
G03 X108.678726 Y126.888879 Z-2.000000 I54.309299 J38.634970
G03 X112.923854 Y122.729397 Z-2.000000 I24.157580 J20.408990
G03 X116.948318 Y120.184799 Z-2.000000 I12.810412 J15.805801
G03 X118.649192 Y119.419333 Z-2.000000 I12.485099 J25.469601
G03 X118.753263 Y119.429670 Z-2.000000 I0.042322 J0.102959
G03 X118.735406 Y119.507169 Z-2.000000 I-0.045489 J0.030326
G03 X117.058825 Y120.424231 Z-2.000000 I-16.452486 J-28.087492
G02 X113.961241 Y122.313808 Z-2.000000 I10.741084 J21.091584
G02 X111.165129 Y124.678743 Z-2.000000 I13.815091 J19.169290
G02 X107.076668 Y129.281973 Z-2.000000 I30.751675 J31.430021
G02 X103.134968 Y135.103217 Z-2.000000 I45.708788 J35.195617
G03 X101.830698 Y137.215975 Z-2.000000 I-61.871208 J-36.736030
G03 X101.753633 Y137.258100 Z-2.000000 I-0.077065 J-0.049431
G01 X101.734347 Y137.229122 Z-2.000000
G03 X102.029900 Y136.668730 Z-2.000000 I3.288614 J1.376295
G01 X102.029900 Y136.668730 Z-2.000000
 

(End cutting path id: path121)

(Start cutting path id: path111)
(Change tool to Default tool)

G00 Z1.000000
G00 X98.088491 Y158.567495

G01 Z-2.000000 F9998.0(Penetrate)
G02 X98.188894 Y158.059398 Z-2.000000 I-3.822259 J-1.019269 F9999.000000
G02 X98.383176 Y156.357359 Z-2.000000 I-53.328368 J-6.949358
G03 X98.613328 Y154.666175 Z-2.000000 I22.634711 J2.219089
G03 X98.935710 Y153.281586 Z-2.000000 I12.517233 J2.184636
G03 X100.733499 Y148.235072 Z-2.000000 I40.316277 J11.518936
G03 X101.090593 Y148.253527 Z-2.000000 I0.175131 J0.075318
G03 X101.091537 Y148.451848 Z-2.000000 I-0.301801 J0.100600
G03 X100.335463 Y150.555752 Z-2.000000 I-32.466411 J-10.479563
G02 X99.149033 Y154.124409 Z-2.000000 I31.341101 J12.401155
G02 X98.567354 Y157.057235 Z-2.000000 I20.819539 J5.653320
G03 X98.288874 Y158.691012 Z-2.000000 I-16.661933 J-1.999432
G03 X98.162162 Y158.899015 Z-2.000000 I-0.368066 J-0.081623
G01 X98.088823 Y158.878785 Z-2.000000
G03 X98.088491 Y158.567495 Z-2.000000 I0.619609 J-0.156305
G01 X98.088491 Y158.567495 Z-2.000000
 

(End cutting path id: path111)

(Start cutting path id: path102)
(Change tool to Default tool)

G00 Z1.000000
G00 X89.192694 Y173.080721

G01 Z-2.000000 F9998.0(Penetrate)
G03 X89.274352 Y172.885502 Z-2.000000 I1.349966 J0.449989 F9999.000000
G03 X90.463522 Y170.594318 Z-2.000000 I141.125348 J71.792675
G02 X91.626331 Y168.269856 Z-2.000000 I-67.614577 J-35.277170
G02 X92.250049 Y166.910758 Z-2.000000 I-40.724497 J-19.511973
G03 X92.797620 Y165.758770 Z-2.000000 I19.451171 J8.539538
G01 X92.857836 Y165.768854 Z-2.000000
G03 X92.555541 Y167.247633 Z-2.000000 I-3.768119 J0.000000
G03 X90.518775 Y171.238941 Z-2.000000 I-30.078478 J-12.833719
G03 X89.272009 Y173.123113 Z-2.000000 I-21.952410 J-13.171446
G01 X89.192694 Y173.080721 Z-2.000000
G01 X89.192694 Y173.080721 Z-2.000000
 

(End cutting path id: path102)

(Start cutting path id: path119)
(Change tool to Default tool)

G00 Z1.000000
G00 X83.280580 Y167.113354

G01 Z-2.000000 F9998.0(Penetrate)
G03 X83.343876 Y166.940203 Z-2.000000 I0.268484 J-0.000000 F9999.000000
G03 X83.962039 Y166.284553 Z-2.000000 I6.257484 J5.280478
G03 X84.654447 Y165.811032 Z-2.000000 I1.943730 J2.099229
G03 X84.882929 Y165.842526 Z-2.000000 I0.090705 J0.186492
G03 X84.974688 Y166.056747 Z-2.000000 I-0.154276 J0.192845
G03 X84.827675 Y166.560820 Z-2.000000 I-1.335566 J-0.116043
G03 X84.513606 Y167.014855 Z-2.000000 I-1.750624 J-0.875312
G03 X84.330395 Y167.094936 Z-2.000000 I-0.183212 J-0.169539
G02 X84.123761 Y167.114014 Z-2.000000 I0.000000 J1.128563
G02 X83.704189 Y167.205443 Z-2.000000 I1.292385 J6.939258
G03 X83.363193 Y167.216063 Z-2.000000 I-0.191543 J-0.670399
G03 X83.280580 Y167.113354 Z-2.000000 I0.022540 J-0.102709
G01 X83.280580 Y167.113354 Z-2.000000
 

(End cutting path id: path119)

(Start cutting path id: path118)
(Change tool to Default tool)

G00 Z1.000000
G00 X81.733485 Y180.595183

G01 Z-2.000000 F9998.0(Penetrate)
G03 X81.690697 Y179.170638 Z-2.000000 I11.318467 J-1.052881 F9999.000000
G03 X81.788738 Y178.237705 Z-2.000000 I6.516199 J0.213167
G01 X81.871898 Y178.239110 Z-2.000000
G03 X81.972916 Y179.674293 Z-2.000000 I-11.679952 J1.543266
G03 X81.951230 Y181.980412 Z-2.000000 I-122.626953 J0.000000
G01 X81.917663 Y182.013354 Z-2.000000
G01 X81.879960 Y181.980571 Z-2.000000
G03 X81.733485 Y180.595183 Z-2.000000 I20.274379 J-2.844020
G01 X81.733485 Y180.595183 Z-2.000000
 

(End cutting path id: path118)

(Start cutting path id: path96)
(Change tool to Default tool)

G00 Z1.000000
G00 X94.478602 Y180.411005

G01 Z-2.000000 F9998.0(Penetrate)
G03 X94.712615 Y180.374683 Z-2.000000 I0.187863 J0.438347 F9999.000000
G03 X94.828541 Y180.429423 Z-2.000000 I-0.018380 J0.189046
G01 X94.822033 Y180.484306 Z-2.000000
G03 X94.589109 Y180.521512 Z-2.000000 I-0.189605 J-0.439298
G03 X94.465735 Y180.470409 Z-2.000000 I0.000000 J-0.174477
G01 X94.478602 Y180.411005 Z-2.000000
G01 X94.478602 Y180.411005 Z-2.000000
 

(End cutting path id: path96)

(Start cutting path id: path94)
(Change tool to Default tool)

G00 Z1.000000
G00 X94.754869 Y181.884429

G01 Z-2.000000 F9998.0(Penetrate)
G03 X95.245155 Y181.851888 Z-2.000000 I0.490286 J3.677142 F9999.000000
G03 X95.767848 Y181.884429 Z-2.000000 I0.000000 J4.214089
G01 X95.768074 Y181.920623 Z-2.000000
G03 X95.252150 Y181.958101 Z-2.000000 I-0.515924 J-3.532373
G03 X94.754424 Y181.921035 Z-2.000000 I-0.000000 J-3.360287
G01 X94.754869 Y181.884429 Z-2.000000
G01 X94.754869 Y181.884429 Z-2.000000
 

(End cutting path id: path94)

(Start cutting path id: path98)
(Change tool to Default tool)

G00 Z1.000000
G00 X98.125327 Y179.158595

G01 Z-2.000000 F9998.0(Penetrate)
G03 X97.315453 Y178.485099 Z-2.000000 I17.337920 J-21.672400 F9999.000000
G03 X97.278108 Y178.403465 Z-2.000000 I0.070550 J-0.081634
G03 X97.379043 Y178.352584 Z-2.000000 I0.063292 J0.000000
G03 X99.027799 Y179.655876 Z-2.000000 I-19.563425 J26.443655
G01 X98.985548 Y179.715005 Z-2.000000
G03 X98.125327 Y179.158595 Z-2.000000 I4.398487 J-7.743312
G01 X98.125327 Y179.158595 Z-2.000000
 

(End cutting path id: path98)

(Start cutting path id: path100)
(Change tool to Default tool)

G00 Z1.000000
G00 X96.633485 Y177.850931

G01 Z-2.000000 F9998.0(Penetrate)
G03 X96.481729 Y177.518115 Z-2.000000 I1.395650 J-0.837390 F9999.000000
G01 X96.522978 Y177.482575 Z-2.000000
G03 X97.154962 Y178.120157 Z-2.000000 I-1.089275 J1.711718
G03 X97.038677 Y178.329794 Z-2.000000 I-0.116285 J0.072567
G03 X96.961426 Y178.291897 Z-2.000000 I0.000000 J-0.097685
G03 X96.633485 Y177.850931 Z-2.000000 I11.318643 J-8.759954
G01 X96.633485 Y177.850931 Z-2.000000
 

(End cutting path id: path100)

(Start cutting path id: path101)
(Change tool to Default tool)

G00 Z1.000000
G00 X99.746093 Y177.298397

G01 Z-2.000000 F9998.0(Penetrate)
G03 X98.698938 Y176.623842 Z-2.000000 I8.722710 J-14.690880 F9999.000000
G03 X98.291087 Y176.267000 Z-2.000000 I1.410675 J-2.023823
G03 X98.440757 Y176.068936 Z-2.000000 I0.085744 J-0.090788
G03 X100.869579 Y177.795678 Z-2.000000 I-9.470090 J15.892113
G01 X100.825409 Y177.861816 Z-2.000000
G03 X99.746093 Y177.298397 Z-2.000000 I4.009436 J-8.996207
G01 X99.746093 Y177.298397 Z-2.000000
 

(End cutting path id: path101)

(Start cutting path id: path84)
(Change tool to Default tool)

G00 Z1.000000
G00 X105.971310 Y188.791104

G01 Z-2.000000 F9998.0(Penetrate)
G03 X100.580392 Y187.535057 Z-2.000000 I2.435459 J-22.649770 F9999.000000
G03 X98.180580 Y185.954763 Z-2.000000 I2.150126 J-5.877456
G03 X96.575001 Y183.917093 Z-2.000000 I9.912503 J-9.461935
G03 X96.615067 Y183.542031 Z-2.000000 I0.252423 J-0.162705
G03 X96.714897 Y183.538395 Z-2.000000 I0.051871 J0.051871
G03 X97.904313 Y184.628682 Z-2.000000 I-17.959643 J20.786462
G02 X99.149458 Y185.759234 Z-2.000000 I9.687007 J-9.417924
G02 X100.132867 Y186.415208 Z-2.000000 I4.267091 J-5.331917
G02 X100.644798 Y186.549309 Z-2.000000 I0.511931 J-0.910100
G02 X100.685401 Y186.415208 Z-2.000000 I0.000000 J-0.073197
G03 X100.090323 Y185.907718 Z-2.000000 I1.647131 J-2.534048
G03 X98.806785 Y184.370832 Z-2.000000 I18.996186 J-17.169173
G02 X97.534678 Y182.839319 Z-2.000000 I-16.051361 J12.038521
G02 X96.928170 Y182.308039 Z-2.000000 I-2.738534 J2.514471
G03 X96.505977 Y181.897568 Z-2.000000 I1.385805 J-1.847740
G03 X96.541396 Y181.810758 Z-2.000000 I0.042088 J-0.033458
G01 X96.565267 Y181.762208 Z-2.000000
G02 X96.412471 Y181.644998 Z-2.000000 I-0.297083 J0.229079
G03 X96.079184 Y181.417456 Z-2.000000 I0.315220 J-0.819573
G03 X95.988862 Y181.184553 Z-2.000000 I0.255121 J-0.232903
G02 X95.902963 Y180.991762 Z-2.000000 I-0.259300 J-0.000000
G02 X95.675759 Y180.889868 Z-2.000000 I-0.272145 J0.302576
G03 X95.571059 Y180.841646 Z-2.000000 I-0.000000 J-0.137775
G01 X95.583670 Y180.779361 Z-2.000000
G03 X95.805097 Y180.780667 Z-2.000000 I0.109215 J0.254835
G03 X96.412471 Y181.129300 Z-2.000000 I-1.359899 J3.072551
G02 X97.032384 Y181.533535 Z-2.000000 I2.733549 J-3.514563
G02 X97.499122 Y181.718669 Z-2.000000 I1.020810 J-1.892639
G03 X97.953414 Y181.920736 Z-2.000000 I-0.222297 J1.111485
G03 X98.806785 Y182.657977 Z-2.000000 I-4.622234 J6.212847
G01 X99.598751 Y183.486778 Z-2.000000
G01 X100.685401 Y183.118422 Z-2.000000
G03 X103.032652 Y182.759901 Z-2.000000 I2.156006 J6.252416
G03 X106.947453 Y183.302600 Z-2.000000 I-0.526105 J18.186298
G02 X109.168260 Y183.710805 Z-2.000000 I4.123603 J-16.188961
G02 X111.128294 Y183.781463 Z-2.000000 I1.431369 J-12.485134
G03 X112.681128 Y184.124981 Z-2.000000 I0.126422 J3.109988
G03 X112.730642 Y184.610264 Z-2.000000 I-0.133430 J0.258781
G03 X109.411838 Y186.918987 Z-2.000000 I-16.990352 J-20.883974
G03 X107.039542 Y187.925468 Z-2.000000 I-4.993967 J-8.471870
G02 X106.644489 Y188.136029 Z-2.000000 I0.301502 J1.041551
G02 X106.671186 Y188.238570 Z-2.000000 I0.037669 J0.044939
G02 X108.153125 Y188.058845 Z-2.000000 I0.426218 J-2.685175
G02 X111.865006 Y186.028434 Z-2.000000 I-8.087277 J-19.192822
G03 X112.586289 Y185.743205 Z-2.000000 I1.025096 J1.537644
G03 X112.749060 Y185.881092 Z-2.000000 I0.022981 J0.137887
G03 X112.350098 Y186.692345 Z-2.000000 I-1.024286 J-0.000000
G03 X109.525945 Y188.385913 Z-2.000000 I-8.647071 J-11.218120
G03 X108.034734 Y188.789773 Z-2.000000 I-2.048680 J-4.609530
G03 X105.971310 Y188.791104 Z-2.000000 I-1.037733 J-9.332463
G01 X105.971310 Y188.791104 Z-2.000000
 

(Change tool to Default tool)

G00 Z1.000000
G00 X108.899740 Y186.120523

G01 Z-2.000000 F9998.0(Penetrate)
G02 X110.313861 Y185.238603 Z-2.000000 I-17.723003 J-29.992774 F9999.000000
G02 X110.354746 Y185.162798 Z-2.000000 I-0.049833 J-0.075805
G02 X109.741683 Y184.347451 Z-2.000000 I-0.848719 J0.000000
G02 X106.818528 Y184.039312 Z-2.000000 I-2.326246 J8.048584
G01 X106.785405 Y184.082923 Z-2.000000
G02 X107.002706 Y184.647099 Z-2.000000 I3.038209 J-0.846277
G03 X107.222191 Y185.244364 Z-2.000000 I-2.093269 J1.108201
G03 X107.315809 Y186.102106 Z-2.000000 I-3.882564 J0.857742
G02 X107.354939 Y186.954651 Z-2.000000 I9.306891 J0.000000
G01 X107.389480 Y186.986160 Z-2.000000
G02 X107.451925 Y186.969648 Z-2.000000 I0.000000 J-0.126332
G02 X108.899740 Y186.120523 Z-2.000000 I-30.938488 J-54.411087
G01 X108.899740 Y186.120523 Z-2.000000
 

(Change tool to Default tool)

G00 Z1.000000
G00 X105.381940 Y185.696914

G01 Z-2.000000 F9998.0(Penetrate)
G02 X105.275970 Y185.211320 Z-2.000000 I-1.165570 J-0.000000 F9999.000000
G02 X105.068837 Y184.997038 Z-2.000000 I-0.407692 J0.186837
G02 X104.274233 Y184.921016 Z-2.000000 I-0.495810 J0.991620
G02 X103.650667 Y185.383811 Z-2.000000 I0.292703 J1.045876
G02 X103.642661 Y185.956808 Z-2.000000 I0.460408 J0.292987
G02 X104.295290 Y186.452044 Z-2.000000 I0.941127 J-0.562590
G02 X105.060538 Y186.311795 Z-2.000000 I0.228191 J-0.912764
G02 X105.381940 Y185.696914 Z-2.000000 I-0.427469 J-0.614881
G01 X105.381940 Y185.696914 Z-2.000000
 

(Change tool to Default tool)

G00 Z1.000000
G00 X102.029900 Y183.707792

G01 Z-2.000000 F9998.0(Penetrate)
G02 X100.667163 Y183.712643 Z-2.000000 I-0.675367 J1.688417 F9999.000000
G02 X100.224956 Y184.370832 Z-2.000000 I0.268727 J0.658190
G02 X100.255368 Y184.461343 Z-2.000000 I0.149890 J0.000000
G02 X100.722237 Y184.997038 Z-2.000000 I4.135038 J-3.132474
G01 X101.219517 Y185.512736 Z-2.000000
G01 X101.698380 Y184.647099 Z-2.000000
G02 X102.067653 Y183.802108 Z-2.000000 I-6.173718 J-3.201187
G02 X102.029900 Y183.707792 Z-2.000000 I-0.071955 J-0.025912
G01 X102.029900 Y183.707792 Z-2.000000
 

(End cutting path id: path84)

(Start cutting path id: path75)
(Change tool to Default tool)

G00 Z1.000000
G00 X103.171804 Y193.800746

G01 Z-2.000000 F9998.0(Penetrate)
G02 X101.585030 Y193.269692 Z-2.000000 I-11.807246 J32.643562 F9999.000000
G02 X99.856600 Y192.787767 Z-2.000000 I-9.807230 J31.833274
G03 X97.729636 Y191.913001 Z-2.000000 I2.490911 J-9.079772
G03 X95.252150 Y190.190857 Z-2.000000 I7.815601 J-13.886701
G03 X93.084013 Y187.985729 Z-2.000000 I11.671537 J-13.644191
G03 X93.207774 Y187.722872 Z-2.000000 I0.123761 J-0.102293
G03 X93.356090 Y187.762692 Z-2.000000 I-0.000000 J0.296127
G03 X93.484041 Y187.888632 Z-2.000000 I-0.179690 J0.310525
G02 X94.642965 Y189.061865 Z-2.000000 I3.297891 J-2.098658
G02 X95.712595 Y189.380474 Z-2.000000 I1.069630 J-1.636170
G01 X95.728075 Y189.340340 Z-2.000000
G02 X94.939047 Y188.662180 Z-2.000000 I-13.300045 J14.676270
G03 X93.075432 Y186.944660 Z-2.000000 I11.336546 J-14.170683
G03 X93.078850 Y186.709893 Z-2.000000 I0.122560 J-0.115624
G03 X93.184810 Y186.699365 Z-2.000000 I0.059406 J0.059406
G03 X94.552274 Y187.686036 Z-2.000000 I-12.396920 J18.622287
G02 X96.505791 Y188.951558 Z-2.000000 I7.174258 J-8.933982
G02 X97.167601 Y189.030536 Z-2.000000 I0.437651 J-0.855018
G03 X97.810836 Y189.093578 Z-2.000000 I0.217918 J1.089588
G03 X98.014820 Y189.398892 Z-2.000000 I-0.126497 J0.305314
G03 X97.928120 Y189.494024 Z-2.000000 I-0.095542 J0.000000
G03 X97.057094 Y189.490981 Z-2.000000 I-0.419743 J-4.515876
G01 X96.080951 Y189.398892 Z-2.000000
G01 X97.149183 Y189.601488 Z-2.000000
G03 X97.276759 Y189.839225 Z-2.000000 I-0.029983 J0.169188
G03 X96.965005 Y190.025097 Z-2.000000 I-0.285290 J-0.124122
G01 X95.712595 Y189.933008 Z-2.000000
G01 X96.633485 Y190.209275 Z-2.000000
G02 X97.566848 Y190.375389 Z-2.000000 I1.276779 J-4.468727
G02 X98.825203 Y190.356617 Z-2.000000 I0.523850 J-7.070022
G03 X99.919959 Y190.353553 Z-2.000000 I0.563469 J5.747380
G03 X99.967107 Y190.448706 Z-2.000000 I-0.005737 J0.062100
G03 X99.780122 Y190.591189 Z-2.000000 I-0.261754 J-0.149573
G03 X99.156724 Y190.669720 Z-2.000000 I-0.623398 J-2.435081
G02 X98.502419 Y190.726361 Z-2.000000 I0.000000 J3.807489
G02 X98.217416 Y190.835480 Z-2.000000 I0.136749 J0.783921
G02 X98.300507 Y191.127794 Z-2.000000 I0.086120 J0.133486
G02 X102.913955 Y190.945987 Z-2.000000 I0.753485 J-39.505186
G03 X105.990824 Y190.707936 Z-2.000000 I6.015660 J57.750336
G03 X107.113213 Y190.743391 Z-2.000000 I0.346055 J6.828379
G02 X108.224196 Y190.860152 Z-2.000000 I4.224302 J-34.850494
G02 X109.433856 Y190.964405 Z-2.000000 I19.024376 J-213.672342
G03 X110.609108 Y191.135834 Z-2.000000 I-1.918601 J17.267405
G03 X110.833609 Y191.240672 Z-2.000000 I-0.086513 J0.478054
G02 X111.385111 Y191.353578 Z-2.000000 I0.391504 J-0.508955
G02 X111.643992 Y191.019658 Z-2.000000 I-0.085914 J-0.333920
G03 X111.711381 Y190.936842 Z-2.000000 I0.084582 J0.000000
G03 X112.067601 Y190.927569 Z-2.000000 I0.203782 J0.981577
G03 X112.368707 Y191.070159 Z-2.000000 I-0.100100 J0.600598
G03 X112.454375 Y191.259090 Z-2.000000 I-0.165500 J0.188931
G02 X112.532349 Y191.422082 Z-2.000000 I0.173149 J0.017315
G02 X112.767478 Y191.461685 Z-2.000000 I0.162895 J-0.249332
G03 X112.933825 Y191.626349 Z-2.000000 I0.036884 J0.129094
G03 X112.472793 Y192.566753 Z-2.000000 I-2.706300 J-0.743547
G03 X111.746774 Y193.324628 Z-2.000000 I-3.494246 J-2.620684
G03 X111.312472 Y193.542897 Z-2.000000 I-0.703530 J-0.858643
G02 X110.818325 Y193.655661 Z-2.000000 I1.843501 J9.217503
G03 X109.397020 Y194.003342 Z-2.000000 I-15.942154 J-62.091974
G03 X106.111839 Y194.354848 Z-2.000000 I-2.886489 J-11.449740
G03 X103.171804 Y193.800746 Z-2.000000 I0.332465 J-9.840926
G01 X103.171804 Y193.800746 Z-2.000000
 

(Change tool to Default tool)

G00 Z1.000000
G00 X109.636452 Y193.045616

G01 Z-2.000000 F9998.0(Penetrate)
G02 X110.455743 Y192.469790 Z-2.000000 I-6.233543 J-9.739911 F9999.000000
G02 X110.833609 Y192.106308 Z-2.000000 I-1.455685 J-1.891441
G01 X110.797900 Y192.057743 Z-2.000000
G02 X110.188986 Y192.419411 Z-2.000000 I1.558114 J3.316706
G03 X109.158999 Y193.044174 Z-2.000000 I-7.815408 J-11.723111
G03 X108.255117 Y193.450808 Z-2.000000 I-2.996735 J-5.453356
G02 X108.013557 Y193.618579 Z-2.000000 I0.192671 J0.535198
G01 X108.052521 Y193.690239 Z-2.000000
G02 X108.763028 Y193.489449 Z-2.000000 I-0.692083 J-3.806455
G02 X109.636452 Y193.045616 Z-2.000000 I-1.793813 J-4.611390
G01 X109.636452 Y193.045616 Z-2.000000
 

(Change tool to Default tool)

G00 Z1.000000
G00 X111.312472 Y192.861438

G01 Z-2.000000 F9998.0(Penetrate)
G02 X111.940293 Y192.277010 Z-2.000000 I-3.908433 J-4.828065 F9999.000000
G02 X111.938677 Y192.179980 Z-2.000000 I-0.050967 J-0.047680
G02 X111.842282 Y192.180211 Z-2.000000 I-0.048024 J0.072037
G02 X111.091458 Y192.769349 Z-2.000000 I3.680427 J5.463513
G02 X111.111647 Y192.888274 Z-2.000000 I0.047667 J0.053084
G02 X111.312472 Y192.861438 Z-2.000000 I0.077417 J-0.185502
G01 X111.312472 Y192.861438 Z-2.000000
 

(Change tool to Default tool)

G00 Z1.000000
G00 X107.094795 Y193.137705

G01 Z-2.000000 F9998.0(Penetrate)
G02 X107.110842 Y192.946924 Z-2.000000 I-0.013710 J-0.097219 F9999.000000
G02 X106.063399 Y192.806185 Z-2.000000 I-0.923215 J2.902845
G02 X104.276807 Y192.975083 Z-2.000000 I0.728390 J17.238563
G01 X104.276872 Y193.064034 Z-2.000000
G02 X105.832667 Y193.205543 Z-2.000000 I1.876933 J-12.012369
G02 X107.094795 Y193.137705 Z-2.000000 I0.208584 J-7.894162
G01 X107.094795 Y193.137705 Z-2.000000
 

(Change tool to Default tool)

G00 Z1.000000
G00 X109.157589 Y192.179980

G01 Z-2.000000 F9998.0(Penetrate)
G02 X109.058133 Y192.158686 Z-2.000000 I-0.066176 J0.066176 F9999.000000
G02 X108.826069 Y192.308904 Z-2.000000 I0.234782 J0.617065
G02 X108.831385 Y192.385401 Z-2.000000 I0.039642 J0.035678
G02 X108.936575 Y192.400993 Z-2.000000 I0.065252 J-0.077596
G02 X109.159527 Y192.260431 Z-2.000000 I-0.141426 J-0.471420
G02 X109.157589 Y192.179980 Z-2.000000 I-0.043181 J-0.039209
G01 X109.157589 Y192.179980 Z-2.000000
 

(Change tool to Default tool)

G00 Z1.000000
G00 X105.750296 Y191.885295

G01 Z-2.000000 F9998.0(Penetrate)
G01 X107.684165 Y191.609028 Z-2.000000 F9999.000000
G01 X105.013584 Y191.737952 Z-2.000000
G03 X101.499150 Y191.807113 Z-2.000000 I-3.240571 J-75.343266
G03 X100.077614 Y191.719535 Z-2.000000 I0.044690 J-12.306135
G02 X99.067182 Y191.696414 Z-2.000000 I-0.660361 J6.768705
G02 X99.027799 Y191.774788 Z-2.000000 I0.002597 J0.050387
G02 X99.177126 Y191.895697 Z-2.000000 I0.207701 J-0.103850
G02 X99.672422 Y191.958966 Z-2.000000 I0.495296 J-1.907071
G03 X100.164278 Y192.033586 Z-2.000000 I-0.000000 J1.658351
G03 X100.335463 Y192.161562 Z-2.000000 I-0.094820 J0.305313
G02 X100.700783 Y192.354216 Z-2.000000 I0.345623 J-0.212691
G02 X105.750296 Y191.885295 Z-2.000000 I-2.795110 J-57.520724
G01 X105.750296 Y191.885295 Z-2.000000
 

(Change tool to Default tool)

G00 Z1.000000
G00 X109.894301 Y191.811624

G01 Z-2.000000 F9998.0(Penetrate)
G02 X109.794845 Y191.790330 Z-2.000000 I-0.066176 J0.066176 F9999.000000
G02 X109.562781 Y191.940548 Z-2.000000 I0.234782 J0.617065
G02 X109.568097 Y192.017045 Z-2.000000 I0.039642 J0.035678
G02 X109.673287 Y192.032637 Z-2.000000 I0.065252 J-0.077596
G02 X109.896239 Y191.892075 Z-2.000000 I-0.141426 J-0.471420
G02 X109.894301 Y191.811624 Z-2.000000 I-0.043181 J-0.039209
G01 X109.894301 Y191.811624 Z-2.000000
 

(End cutting path id: path75)

(Start cutting path id: path71)
(Change tool to Default tool)

G00 Z1.000000
G00 X109.710123 Y202.659708

G01 Z-2.000000 F9998.0(Penetrate)
G03 X110.451152 Y202.502431 Z-2.000000 I5.854341 J25.759099 F9999.000000
G03 X112.196526 Y202.162427 Z-2.000000 I71.556788 J362.679346
G02 X113.919161 Y201.804261 Z-2.000000 I-4.463730 J-25.790442
G02 X115.566983 Y201.352044 Z-2.000000 I-6.910731 J-28.410159
G03 X117.107582 Y200.917175 Z-2.000000 I8.598195 J27.514223
G01 X117.169332 Y200.965270 Z-2.000000
G03 X116.933996 Y201.290150 Z-2.000000 I-0.341916 J0.000000
G03 X112.841149 Y202.346605 Z-2.000000 I-10.239043 J-31.211078
G03 X109.732076 Y202.800730 Z-2.000000 I-6.070058 J-30.687514
G03 X109.710123 Y202.659708 Z-2.000000 I-0.006767 J-0.071167
G01 X109.710123 Y202.659708 Z-2.000000
 

(End cutting path id: path71)

(Start cutting path id: path67)
(Change tool to Default tool)

G00 Z1.000000
G00 X117.629777 Y209.069102

G01 Z-2.000000 F9998.0(Penetrate)
G03 X108.971153 Y208.648821 Z-2.000000 I6.319082 J-219.588093 F9999.000000
G03 X107.039542 Y208.332390 Z-2.000000 I0.709833 J-10.386936
G01 X107.040440 Y208.280022 Z-2.000000
G03 X107.407898 Y208.258719 Z-2.000000 I0.256852 J1.250664
G02 X112.334124 Y208.577647 Z-2.000000 I8.394047 J-91.450931
G02 X122.878850 Y208.848089 Z-2.000000 I16.420568 J-434.541876
G03 X130.428909 Y209.033965 Z-2.000000 I-6.979990 J436.947358
G01 X130.430148 Y209.105938 Z-2.000000
G03 X127.054424 Y209.224208 Z-2.000000 I-3.218463 J-43.628053
G03 X117.629777 Y209.069102 Z-2.000000 I1.317353 J-366.457307
G01 X117.629777 Y209.069102 Z-2.000000
 

(End cutting path id: path67)

(Start cutting path id: path69)
(Change tool to Default tool)

G00 Z1.000000
G00 X124.536452 Y205.477631

G01 Z-2.000000 F9998.0(Penetrate)
G02 X124.260337 Y205.410327 Z-2.000000 I-0.417901 J1.114402 F9999.000000
G02 X122.786761 Y205.238200 Z-2.000000 I-28.222394 J235.217471
G03 X122.316524 Y205.132254 Z-2.000000 I0.192228 J-1.949743
G01 X122.326316 Y205.072440 Z-2.000000
G03 X123.327803 Y205.108260 Z-2.000000 I0.000000 J14.017944
G03 X125.273164 Y205.311871 Z-2.000000 I-2.131828 J29.763232
G03 X126.021432 Y205.477928 Z-2.000000 I-0.506280 J4.050242
G01 X126.009876 Y205.551302 Z-2.000000
G03 X124.807708 Y205.518552 Z-2.000000 I0.000000 J-22.080002
G03 X124.536452 Y205.477631 Z-2.000000 I0.078520 J-1.440026
G01 X124.536452 Y205.477631 Z-2.000000
 

(End cutting path id: path69)

(Start cutting path id: path70)
(Change tool to Default tool)

G00 Z1.000000
G00 X130.853757 Y203.009646

G01 Z-2.000000 F9998.0(Penetrate)
G03 X128.454722 Y202.463241 Z-2.000000 I2.122996 J-14.860973 F9999.000000
G03 X126.322979 Y201.591475 Z-2.000000 I4.224209 J-13.371805
G03 X126.241059 Y201.404208 Z-2.000000 I0.071390 J-0.142781
G03 X126.396650 Y201.333626 Z-2.000000 I0.108024 J0.031346
G02 X129.121914 Y202.269391 Z-2.000000 I5.673746 J-12.087547
G02 X133.653263 Y202.991228 Z-2.000000 I7.838334 J-34.621561
G01 X135.310865 Y203.138571 Z-2.000000
G01 X133.561174 Y203.138571 Z-2.000000
G03 X131.826019 Y203.098805 Z-2.000000 I-0.000000 J-37.876108
G03 X130.853757 Y203.009646 Z-2.000000 I0.490394 J-10.693413
G01 X130.853757 Y203.009646 Z-2.000000
 

(End cutting path id: path70)

(Start cutting path id: path68)
(Change tool to Default tool)

G00 Z1.000000
G00 X132.603448 Y208.774417

G01 Z-2.000000 F9998.0(Penetrate)
G03 X133.004747 Y208.741205 Z-2.000000 I0.401299 J2.407791 F9999.000000
G03 X133.340160 Y208.774417 Z-2.000000 I0.000000 J1.710280
G01 X133.336955 Y208.819684 Z-2.000000
G03 X132.916551 Y208.848089 Z-2.000000 I-0.335478 J-1.839963
G03 X132.601951 Y208.811056 Z-2.000000 I0.000000 J-1.354813
G01 X132.603448 Y208.774417 Z-2.000000
G01 X132.603448 Y208.774417 Z-2.000000
 

(End cutting path id: path68)

(Start cutting path id: path66)
(Change tool to Default tool)

G00 Z1.000000
G00 X117.537688 Y235.130289

G01 Z-2.000000 F9998.0(Penetrate)
G03 X113.902898 Y234.456775 Z-2.000000 I1.765506 J-19.672782 F9999.000000
G03 X107.150049 Y232.165023 Z-2.000000 I19.410055 J-68.288269
G03 X101.373805 Y229.455576 Z-2.000000 I18.601871 J-47.169030
G03 X96.633485 Y226.400252 Z-2.000000 I19.117935 J-34.866330
G02 X94.201669 Y224.660368 Z-2.000000 I-44.249824 J59.278066
G02 X92.913089 Y223.840178 Z-2.000000 I-12.705722 J18.539312
G03 X89.465411 Y221.309509 Z-2.000000 I9.699424 J-16.827916
G03 X86.006414 Y217.486037 Z-2.000000 I19.016438 J-20.680048
G03 X83.542685 Y213.108428 Z-2.000000 I16.527993 J-12.184098
G03 X82.912224 Y209.916321 Z-2.000000 I7.765798 J-3.192107
G02 X82.852409 Y208.819513 Z-2.000000 I-10.085744 J0.000000
G02 X82.525450 Y206.509028 Z-2.000000 I-36.693999 J4.014217
G03 X82.063940 Y202.796276 Z-2.000000 I44.498314 J-7.416386
G03 X81.622978 Y195.550437 Z-2.000000 I168.980316 J-13.920011
G03 X81.599195 Y189.628315 Z-2.000000 I78.976805 J-3.278282
G03 X81.899245 Y187.078249 Z-2.000000 I15.352978 J0.513804
G02 X81.779459 Y186.653906 Z-2.000000 I-0.468289 J-0.096887
G02 X81.070444 Y186.194195 Z-2.000000 I-1.288558 J1.210736
G03 X80.221846 Y185.746486 Z-2.000000 I1.081365 J-3.077731
G03 X79.597020 Y185.107544 Z-2.000000 I1.624065 J-2.213165
G03 X78.994999 Y183.658646 Z-2.000000 I2.699835 J-1.971308
G03 X78.712966 Y179.545369 Z-2.000000 I23.048516 J-3.646666
G01 X78.768219 Y176.211747 Z-2.000000
G01 X79.541767 Y174.001611 Z-2.000000
G02 X80.231593 Y171.764242 Z-2.000000 I-30.500167 J-10.628846
G02 X80.794177 Y169.305072 Z-2.000000 I-32.128414 J-8.643954
G03 X81.723659 Y166.017229 Z-2.000000 I21.466143 J4.293229
G03 X83.151655 Y162.914095 Z-2.000000 I20.653830 J7.624324
G03 X85.208767 Y159.815840 Z-2.000000 I23.211413 J13.179361
G03 X86.337935 Y158.806926 Z-2.000000 I3.249267 J2.500216
G03 X88.211203 Y158.248377 Z-2.000000 I1.909534 J2.983647
G03 X89.855735 Y158.770090 Z-2.000000 I0.028294 J2.763591
G01 X90.426686 Y159.175282 Z-2.000000
G01 X90.739789 Y158.125467 Z-2.000000
G03 X91.854277 Y154.376385 Z-2.000000 I94.108958 J25.935540
G03 X92.323720 Y153.134244 Z-2.000000 I12.087196 J3.858335
G02 X92.515830 Y152.315241 Z-2.000000 I-1.887855 J-0.874860
G02 X92.452644 Y148.529794 Z-2.000000 I-43.476657 J-1.167549
G01 X92.213213 Y144.717309 Z-2.000000
G01 X90.684536 Y144.606802 Z-2.000000
G03 X89.237230 Y144.293179 Z-2.000000 I0.401020 J-5.346939
G03 X88.419146 Y143.778001 Z-2.000000 I0.799088 J-2.176056
G03 X87.543182 Y142.716269 Z-2.000000 I4.417055 J-4.536435
G03 X82.856971 Y135.324231 Z-2.000000 I230.132201 J-151.074633
G02 X78.348866 Y128.512540 Z-2.000000 I-89.078186 J54.055993
G02 X77.497391 Y127.846604 Z-2.000000 I-1.569776 J1.129816
G03 X56.289973 Y118.449984 Z-2.000000 I117.780132 J-294.450330
G03 X38.893682 Y108.968359 Z-2.000000 I95.746297 J-196.368935
G03 X37.186792 Y107.873887 Z-2.000000 I15.935591 J-26.730668
G03 X35.210122 Y106.445121 Z-2.000000 I29.903560 J-43.452705
G03 X30.456554 Y102.310214 Z-2.000000 I30.208403 J-39.528016
G03 X27.143126 Y98.488631 Z-2.000000 I23.036324 J-23.320400
G01 X26.185400 Y97.199385 Z-2.000000
G01 X26.185400 Y95.744379 Z-2.000000
G01 X26.185400 Y94.289373 Z-2.000000
G01 X27.106290 Y95.707543 Z-2.000000
G02 X29.648966 Y99.169614 Z-2.000000 I33.741468 J-22.116256
G02 X32.023843 Y101.711746 Z-2.000000 I20.815362 J-17.065473
G02 X35.426615 Y104.677299 Z-2.000000 I41.780606 J-44.505429
G02 X38.156970 Y106.684552 Z-2.000000 I23.198993 J-28.695704
G02 X41.362447 Y108.569305 Z-2.000000 I20.057607 J-30.444582
G02 X51.233608 Y113.517556 Z-2.000000 I161.116549 J-309.087974
G03 X55.185260 Y115.424155 Z-2.000000 I-146.229100 J308.125603
G03 X60.129405 Y117.864157 Z-2.000000 I-489.876630 J998.859920
G02 X65.057088 Y120.298949 Z-2.000000 I610.474037 J-1229.310731
G02 X65.120629 Y120.313724 Z-2.000000 I0.063542 J-0.129250
G03 X65.184112 Y120.328068 Z-2.000000 I0.000000 J0.147651
G03 X68.656847 Y121.989744 Z-2.000000 I-447.036385 J938.720644
G02 X76.488569 Y125.698999 Z-2.000000 I287.491463 J-596.887037
G02 X77.534226 Y126.096913 Z-2.000000 I3.275127 J-7.033652
G02 X77.785894 Y126.007056 Z-2.000000 I0.068501 J-0.205503
G02 X78.123596 Y125.157605 Z-2.000000 I-2.103556 J-1.328129
G03 X78.365270 Y124.086417 Z-2.000000 I82.010264 J17.939745
G03 X78.786637 Y122.339682 Z-2.000000 I105.813472 J24.601292
G02 X79.202667 Y120.599700 Z-2.000000 I-84.379611 J-21.094903
G02 X79.228664 Y120.368977 Z-2.000000 I-1.010818 J-0.230723
G02 X79.071883 Y120.125025 Z-2.000000 I-0.268186 J0.000000
G02 X73.850666 Y117.900992 Z-2.000000 I-45.868097 J100.440769
G03 X70.491264 Y116.552881 Z-2.000000 I146.965430 J-371.087711
G03 X65.949430 Y114.677877 Z-2.000000 I172.620461 J-424.578024
G02 X57.917045 Y111.427011 Z-2.000000 I-137.513100 J328.224698
G02 X54.898750 Y110.368112 Z-2.000000 I-16.637866 J42.593570
G03 X50.679509 Y108.888669 Z-2.000000 I18.379107 J-59.171760
G03 X47.273781 Y107.366011 Z-2.000000 I14.451214 J-36.893138
G03 X39.001122 Y101.685854 Z-2.000000 I16.149849 J-32.385147
G03 X30.274152 Y91.821387 Z-2.000000 I42.115874 J-46.051946
G03 X28.308384 Y87.854542 Z-2.000000 I11.483045 J-8.160906
G03 X26.572174 Y79.960324 Z-2.000000 I45.018173 J-14.039080
G03 X26.024231 Y74.037888 Z-2.000000 I70.718079 J-9.529387
G03 X26.277489 Y73.919286 Z-2.000000 I0.150825 J-0.007634
G03 X26.321398 Y74.028250 Z-2.000000 I-0.240161 J0.160107
G03 X26.903694 Y77.547592 Z-2.000000 I-123.989695 J22.322662
G02 X28.794314 Y87.462034 Z-2.000000 I155.036358 J-24.426950
G02 X29.224337 Y87.806307 Z-2.000000 I0.430023 J-0.096428
G02 X29.323427 Y87.748230 Z-2.000000 I-0.000000 J-0.113571
G02 X31.968589 Y82.833501 Z-2.000000 I-145.222153 J-81.329381
G03 X34.604963 Y77.876866 Z-2.000000 I654.089002 J344.722582
G03 X37.365005 Y72.795800 Z-2.000000 I511.469588 J274.540738
G02 X40.151117 Y67.723003 Z-2.000000 I-467.282572 J-259.945272
G02 X43.719146 Y61.100497 Z-2.000000 I-1245.809669 J-675.481274
G03 X47.422141 Y54.652268 Z-2.000000 I124.675136 J67.309276
G03 X47.789479 Y54.414836 Z-2.000000 I0.429771 J0.262034
G03 X48.228807 Y54.420551 Z-2.000000 I0.200171 J1.501283
G03 X48.286760 Y54.488507 Z-2.000000 I-0.010867 J0.067956
G03 X47.967933 Y55.794098 Z-2.000000 I-2.832601 J0.000000
G03 X39.446216 Y71.322376 Z-2.000000 I-343.479272 J-178.394517
G02 X36.033228 Y77.422866 Z-2.000000 I233.502259 J134.640415
G02 X33.147328 Y82.925590 Z-2.000000 I193.741464 J105.115705
G03 X31.559337 Y85.942087 Z-2.000000 I-91.983476 J-46.497141
G03 X30.624090 Y87.566876 Z-2.000000 I-38.811654 J-21.258874
G01 X29.647946 Y89.169224 Z-2.000000
G01 X31.084535 Y91.213600 Z-2.000000
G02 X32.524529 Y93.186462 Z-2.000000 I50.565214 J-35.395650
G02 X32.631630 Y93.239558 Z-2.000000 I0.107101 J-0.081470
G02 X32.719960 Y93.180318 Z-2.000000 I0.000000 J-0.095473
G02 X32.907897 Y92.558099 Z-2.000000 I-3.139016 J-1.287609
G03 X33.780243 Y89.702206 Z-2.000000 I12.304064 J2.197154
G03 X37.143991 Y82.925590 Z-2.000000 I77.694495 J34.342521
G02 X38.111960 Y81.183995 Z-2.000000 I-600.562782 J-334.929244
G02 X39.630394 Y78.413229 Z-2.000000 I-306.370554 J-169.698531
G03 X49.243867 Y61.503280 Z-2.000000 I848.145459 J470.991415
G03 X51.141519 Y58.724601 Z-2.000000 I20.155304 J11.727400
G03 X51.416794 Y58.457955 Z-2.000000 I0.902734 J0.656534
G03 X51.509875 Y58.466752 Z-2.000000 I0.041224 J0.060653
G03 X51.527208 Y58.576422 Z-2.000000 I-0.066755 J0.066755
G03 X50.515314 Y60.419038 Z-2.000000 I-30.898119 J-15.768909
G02 X49.456529 Y62.265661 Z-2.000000 I145.096518 J84.419792
G02 X48.544609 Y63.900003 Z-2.000000 I153.196522 J86.551239
G03 X47.659125 Y65.514341 Z-2.000000 I-153.381277 J-83.081525
G03 X46.113460 Y68.283439 Z-2.000000 I-651.928181 J-362.079631
G02 X36.870912 Y85.160210 Z-2.000000 I759.971828 J427.167075
G02 X34.970691 Y89.187642 Z-2.000000 I39.987492 J21.328879
G03 X34.316946 Y90.762976 Z-2.000000 I-86.028291 J-34.777394
G03 X33.681445 Y92.244997 Z-2.000000 I-291.996081 J-124.332775
G01 X33.036822 Y93.755256 Z-2.000000
G01 X34.252396 Y95.283934 Z-2.000000
G02 X37.596572 Y99.109018 Z-2.000000 I35.723763 J-27.857981
G02 X40.919640 Y102.135355 Z-2.000000 I27.915618 J-27.315120
G02 X45.105143 Y104.997582 Z-2.000000 I19.450053 J-23.950891
G02 X51.417786 Y108.121140 Z-2.000000 I30.030794 J-52.750934
G02 X56.403366 Y109.799822 Z-2.000000 I13.331567 J-31.351157
G02 X58.711235 Y109.962920 Z-2.000000 I1.609985 J-6.371631
G02 X63.414299 Y108.465386 Z-2.000000 I-1.316657 J-12.268853
G02 X69.632990 Y103.848211 Z-2.000000 I-14.681973 J-26.271016
G02 X76.219929 Y96.391375 Z-2.000000 I-46.273848 J-47.513326
G02 X81.438800 Y88.229916 Z-2.000000 I-48.591461 J-36.821309
G03 X82.478541 Y86.414923 Z-2.000000 I28.528066 J15.137341
G01 X82.525450 Y86.427274 Z-2.000000
G03 X82.491362 Y86.604491 Z-2.000000 I-0.399358 J0.015070
G03 X81.457218 Y88.782450 Z-2.000000 I-43.170700 J-19.163933
G03 X76.968268 Y96.172806 Z-2.000000 I-48.728636 J-24.539601
G03 X71.309010 Y102.835232 Z-2.000000 I-44.915301 J-32.417580
G03 X65.211350 Y107.878697 Z-2.000000 I-28.513263 J-28.265321
G03 X61.087131 Y109.723489 Z-2.000000 I-7.380171 J-10.966671
G03 X59.284130 Y110.128204 Z-2.000000 I-7.056205 J-27.216789
G03 X58.692817 Y110.183934 Z-2.000000 I-0.591313 J-3.109140
G02 X58.509342 Y110.413591 Z-2.000000 I0.000000 J0.188118
G02 X58.821742 Y110.754886 Z-2.000000 I0.455229 J-0.103065
G03 X62.100256 Y111.949234 Z-2.000000 I-14.220454 J44.132444
G03 X68.546340 Y114.733131 Z-2.000000 I-64.045089 J157.150642
G02 X73.335514 Y116.863005 Z-2.000000 I82.854947 J-179.855861
G02 X77.110617 Y118.416691 Z-2.000000 I54.399308 J-126.814834
G03 X78.751694 Y119.100698 Z-2.000000 I-9.943907 J26.168175
G03 X79.007650 Y119.263909 Z-2.000000 I-0.447034 J0.983367
G02 X79.300958 Y119.200734 Z-2.000000 I0.120905 J-0.151132
G02 X79.781198 Y117.753650 Z-2.000000 I-4.504570 J-2.298149
G03 X80.057894 Y116.385723 Z-2.000000 I22.571368 J3.853648
G03 X81.715067 Y109.557729 Z-2.000000 I425.530033 J99.662231
G03 X86.565818 Y94.706042 Z-2.000000 I107.266684 J26.816671
G03 X88.198133 Y93.607914 Z-2.000000 I1.632315 J0.664114
G03 X88.387036 Y93.695422 Z-2.000000 I0.000000 J0.247647
G03 X90.021495 Y95.744379 Z-2.000000 I-33.507777 J28.405634
G02 X93.713845 Y100.018910 Z-2.000000 I32.297529 J-24.166682
G02 X97.259690 Y103.019410 Z-2.000000 I19.177155 J-19.067232
G02 X102.077365 Y106.198566 Z-2.000000 I54.560278 J-77.440394
G02 X102.545599 Y106.279360 Z-2.000000 I0.334685 J-0.542435
G02 X102.743962 Y106.158996 Z-2.000000 I-0.120756 J-0.422647
G02 X104.847824 Y103.829793 Z-2.000000 I-48.077404 J-45.540849
G03 X108.685317 Y99.672783 Z-2.000000 I75.786541 J66.111664
G03 X112.656971 Y95.836468 Z-2.000000 I67.778004 J66.195044
G02 X122.141242 Y87.068224 Z-2.000000 I-598.349519 J-656.725082
G02 X123.412966 Y85.761931 Z-2.000000 I-13.757338 J-14.665458
G03 X124.073221 Y85.143677 Z-2.000000 I3.214153 J2.770821
G03 X124.168096 Y85.190979 Z-2.000000 I0.035646 J0.047302
G03 X123.808105 Y86.077278 Z-2.000000 I-1.271028 J0.000000
G03 X115.051285 Y94.565640 Z-2.000000 I-149.045891 J-144.998636
G02 X109.446331 Y99.968795 Z-2.000000 I100.051891 J109.397397
G02 X105.658207 Y104.106060 Z-2.000000 I55.391889 J54.520249
G03 X103.994973 Y106.020629 Z-2.000000 I-252.348598 J-217.541895
G03 X103.650667 Y106.371449 Z-2.000000 I-3.248625 J-2.843931
G02 X103.594384 Y106.686301 Z-2.000000 I0.176345 J0.193980
G02 X104.037441 Y107.126579 Z-2.000000 I0.910310 J-0.472990
G02 X105.308987 Y107.076548 Z-2.000000 I0.590818 J-1.167568
G02 X108.420877 Y104.455998 Z-2.000000 I-6.953050 J-11.414664
G03 X113.247616 Y99.528836 Z-2.000000 I46.622485 J40.844485
G03 X115.972175 Y97.567741 Z-2.000000 I9.766772 J10.695855
G02 X117.896968 Y96.391304 Z-2.000000 I-14.251780 J-25.480456
G02 X119.176872 Y95.449694 Z-2.000000 I-9.365578 J-14.071038
G03 X120.390658 Y94.444214 Z-2.000000 I172.278604 J206.734325
G03 X121.755364 Y93.350065 Z-2.000000 I42.518372 J51.633986
G02 X123.053484 Y92.197169 Z-2.000000 I-15.173090 J-18.391625
G02 X124.536452 Y90.697902 Z-2.000000 I-25.806206 J-27.008712
G01 X125.973040 Y89.150806 Z-2.000000
G01 X125.641520 Y88.377259 Z-2.000000
G03 X125.363342 Y87.615252 Z-2.000000 I4.825081 J-2.193218
G03 X124.923226 Y85.780349 Z-2.000000 I23.901976 J-6.703321
G03 X124.079429 Y77.658010 Z-2.000000 I42.140232 J-8.482774
G03 X124.720630 Y62.481832 Z-2.000000 I150.123764 J-1.258836
G02 X125.044250 Y58.694338 Z-2.000000 I-625.207519 J-55.328099
G02 X125.199493 Y56.551300 Z-2.000000 I-108.205391 J-8.915578
G01 X125.328417 Y54.378000 Z-2.000000
G01 X126.065129 Y54.378000 Z-2.000000
G01 X126.801841 Y54.378000 Z-2.000000
G01 X126.691335 Y56.551300 Z-2.000000
G03 X126.537947 Y58.693400 Z-2.000000 I-118.218211 J-7.388638
G03 X126.194054 Y62.647592 Z-2.000000 I-319.009199 J-25.751896
G02 X125.530279 Y73.031722 Z-2.000000 I186.389270 J17.127663
G02 X125.604684 Y79.002599 Z-2.000000 I61.548749 J2.218921
G02 X126.643290 Y85.900587 Z-2.000000 I41.727632 J-2.755598
G02 X128.625204 Y91.674045 Z-2.000000 I30.434658 J-7.220709
G03 X129.603105 Y93.911250 Z-2.000000 I-76.408698 J34.731226
G03 X130.227552 Y95.541783 Z-2.000000 I-25.319997 J10.631666
G02 X131.183720 Y97.990365 Z-2.000000 I65.183822 J-24.043213
G01 X131.258949 Y98.009768 Z-2.000000
G02 X131.361823 Y97.524888 Z-2.000000 I-0.374381 J-0.332783
G02 X129.361916 Y92.042401 Z-2.000000 I-67.390025 J21.476596
G03 X128.481708 Y89.825833 Z-2.000000 I107.035603 J-43.787292
G03 X127.575389 Y87.364280 Z-2.000000 I82.095079 J-31.624207
G03 X126.850269 Y84.887632 Z-2.000000 I20.889917 J-7.460684
G03 X126.783424 Y83.920151 Z-2.000000 I3.009786 J-0.694002
G03 X126.970520 Y82.961158 Z-2.000000 I4.911339 J0.460438
G03 X127.188615 Y82.575652 Z-2.000000 I0.959155 J0.288185
G03 X128.898795 Y82.403134 Z-2.000000 I0.951148 J0.865970
G03 X130.061792 Y84.693699 Z-2.000000 I-1.674176 J2.290565
G03 X129.738835 Y86.406672 Z-2.000000 I-4.704305 J-0.000000
G03 X129.140902 Y87.069595 Z-2.000000 I-1.176369 J-0.459925
G01 X128.625204 Y87.345862 Z-2.000000
G01 X129.140902 Y88.764033 Z-2.000000
G02 X129.664714 Y90.190648 Z-2.000000 I44.152237 J-15.401943
G02 X130.595908 Y92.594935 Z-2.000000 I874.272937 J-337.228613
G03 X131.496312 Y94.998393 Z-2.000000 I-69.430649 J27.381101
G03 X132.087750 Y96.831029 Z-2.000000 I-31.208803 J11.083616
G02 X133.372320 Y99.877975 Z-2.000000 I15.106250 J-4.574428
G02 X134.242633 Y100.754020 Z-2.000000 I1.968858 J-1.085642
G02 X136.354678 Y101.609409 Z-2.000000 I4.536090 J-8.164962
G02 X141.204561 Y102.632636 Z-2.000000 I11.786188 J-43.858746
G03 X143.441805 Y103.159926 Z-2.000000 I-2.140579 J14.092145
G03 X144.630272 Y103.756122 Z-2.000000 I-1.341618 J4.157056
G01 X145.109135 Y104.087642 Z-2.000000
G01 X145.514326 Y102.485294 Z-2.000000
G02 X145.862120 Y100.876085 Z-2.000000 I-24.863454 J-6.215864
G02 X146.066860 Y99.354268 Z-2.000000 I-16.076959 J-2.937618
G03 X146.293563 Y97.839303 Z-2.000000 I18.913508 J2.055816
G03 X146.398381 Y97.641412 Z-2.000000 I0.374216 J0.071507
G03 X147.445379 Y97.040740 Z-2.000000 I1.632230 J1.632230
G03 X149.787256 Y96.738940 Z-2.000000 I2.341877 J8.935235
G03 X151.030466 Y97.338121 Z-2.000000 I0.000000 J1.589327
G03 X153.654994 Y101.638075 Z-2.000000 I-15.858350 J12.630264
G03 X154.100658 Y104.585256 Z-2.000000 I-4.982988 J2.260800
G03 X152.752522 Y108.710510 Z-2.000000 I-11.393819 J-1.440597
G03 X150.361849 Y112.793313 Z-2.000000 I-78.723343 J-43.354885
G03 X147.521866 Y117.127445 Z-2.000000 I-91.642770 J-56.952299
G02 X147.693863 Y117.356063 Z-2.000000 I0.125584 J0.084528
G02 X151.518529 Y115.838199 Z-2.000000 I-9.537821 J-29.610652
G03 X155.402442 Y114.004538 Z-2.000000 I557.139798 J1175.058482
G03 X156.399246 Y113.554391 Z-2.000000 I15.239624 J32.417900
G02 X159.554388 Y111.921223 Z-2.000000 I-12.853498 J-28.696181
G02 X162.532373 Y109.944503 Z-2.000000 I-17.563148 J-29.690947
G02 X164.028594 Y108.803704 Z-2.000000 I-129.580773 J-171.503964
G02 X164.134722 Y108.710510 Z-2.000000 I-0.665033 J-0.864355
G03 X164.250150 Y108.593245 Z-2.000000 I0.492632 J0.369474
G03 X166.160680 Y107.144997 Z-2.000000 I68.864950 J88.862365
G02 X170.676723 Y103.545362 Z-2.000000 I-61.275035 J-81.507358
G02 X171.759691 Y102.393205 Z-2.000000 I-4.442886 J-5.261126
G02 X172.461054 Y101.200960 Z-2.000000 I-5.695129 J-4.152698
G02 X173.767231 Y98.028186 Z-2.000000 I-36.276814 J-16.789799
G02 X175.560836 Y92.559155 Z-2.000000 I-83.788717 J-30.507687
G02 X177.690223 Y84.693699 Z-2.000000 I-193.253113 J-56.539693
G02 X179.401153 Y76.198494 Z-2.000000 I-101.503374 J-24.862624
G02 X179.955612 Y70.364650 Z-2.000000 I-46.325020 J-7.346085
G03 X180.284005 Y65.356496 Z-2.000000 I84.228569 J3.008163
G03 X180.600235 Y63.771078 Z-2.000000 I7.931877 J0.757858
G02 X181.543530 Y60.296521 Z-2.000000 I-46.125544 J-14.387784
G02 X182.349926 Y56.311869 Z-2.000000 I-70.347192 J-16.310471
G01 X182.663029 Y54.470089 Z-2.000000
G01 X183.547083 Y54.414836 Z-2.000000
G03 X184.230465 Y54.509448 Z-2.000000 I0.118519 J1.659272
G03 X184.320631 Y54.691103 Z-2.000000 I-0.049790 J0.137919
G02 X184.254541 Y55.031255 Z-2.000000 I30.930217 J6.186043
G02 X184.118035 Y55.943513 Z-2.000000 I11.968558 J2.257265
G03 X183.391839 Y59.976443 Z-2.000000 I-50.222118 J-6.961482
G03 X182.349926 Y63.881585 Z-2.000000 I-46.814523 J-10.398799
G02 X181.957088 Y65.740805 Z-2.000000 I8.967207 J2.865808
G02 X181.631632 Y70.585664 Z-2.000000 I60.283428 J6.482937
G03 X181.104666 Y76.300141 Z-2.000000 I-46.541695 J-1.410354
G03 X179.495167 Y84.399014 Z-2.000000 I-95.900385 J-14.849029
G03 X175.960977 Y96.975546 Z-2.000000 I-178.435669 J-43.358200
G03 X173.748814 Y102.374787 Z-2.000000 I-35.066044 J-11.214369
G03 X172.493695 Y104.068822 Z-2.000000 I-5.446049 J-2.723025
G03 X167.486762 Y108.323736 Z-2.000000 I-41.319505 J-43.548978
G03 X161.166586 Y112.798012 Z-2.000000 I-74.594883 J-98.668686
G03 X157.596403 Y114.862055 Z-2.000000 I-18.811585 J-28.418761
G03 X148.004805 Y119.468326 Z-2.000000 I-170.235943 J-342.191442
G03 X145.993189 Y120.258471 Z-2.000000 I-7.635766 J-16.484030
G02 X145.524902 Y120.529120 Z-2.000000 I0.376242 J1.191433
G02 X144.924957 Y121.253032 Z-2.000000 I2.334509 J2.545297
G03 X139.957617 Y128.974973 Z-2.000000 I-686.759783 J-436.317469
G03 X139.086514 Y130.185665 Z-2.000000 I-13.465986 J-8.770159
G02 X138.236836 Y131.345024 Z-2.000000 I9.830140 J8.095409
G02 X138.165624 Y131.585418 Z-2.000000 I0.370148 J0.240394
G02 X138.210367 Y132.001058 Z-2.000000 I1.952902 J-0.000000
G02 X139.694301 Y138.639435 Z-2.000000 I609.735153 J-132.814342
G03 X140.147601 Y140.682442 Z-2.000000 I-140.481010 J32.241543
G03 X140.375760 Y141.880968 Z-2.000000 I-25.974074 J5.565565
G02 X140.760172 Y143.013807 Z-2.000000 I3.718960 J-0.630332
G02 X141.757095 Y144.496295 Z-2.000000 I7.490534 J-3.960686
G03 X144.596061 Y148.283205 Z-2.000000 I-36.920063 J30.635797
G03 X146.527305 Y151.605566 Z-2.000000 I-23.642550 J15.965585
G03 X147.262080 Y153.424821 Z-2.000000 I-11.008052 J5.504026
G03 X148.276996 Y157.204577 Z-2.000000 I-44.751443 J14.042516
G01 X148.774277 Y159.377878 Z-2.000000
G01 X149.271557 Y158.972686 Z-2.000000
G03 X151.180636 Y158.422741 Z-2.000000 I1.649197 J2.136460
G03 X153.526069 Y159.396296 Z-2.000000 I-0.417768 J4.318482
G03 X154.491348 Y160.527472 Z-2.000000 I-2.693610 J3.276012
G03 X156.270321 Y164.111252 Z-2.000000 I-24.870282 J14.578928
G03 X157.290894 Y167.318394 Z-2.000000 I-17.350462 J7.287194
G03 X157.872670 Y171.386283 Z-2.000000 I-26.247873 J5.829432
G02 X158.189331 Y174.438210 Z-2.000000 I44.331548 J-3.057348
G02 X158.535711 Y176.174911 Z-2.000000 I14.887722 J-2.066419
G03 X159.507460 Y180.737530 Z-2.000000 I-45.844274 J12.148733
G03 X159.769703 Y183.855134 Z-2.000000 I-20.145668 J3.264424
G03 X159.659102 Y186.308160 Z-2.000000 I-19.856428 J0.333721
G03 X159.419765 Y187.059831 Z-2.000000 I-1.961083 J-0.210482
G03 X158.486347 Y188.110494 Z-2.000000 I-2.420029 J-1.210015
G03 X157.320136 Y188.459584 Z-2.000000 I-1.166211 J-1.773448
G01 X156.859691 Y188.459584 Z-2.000000
G01 X156.859691 Y192.935109 Z-2.000000
G03 X156.687670 Y197.366065 Z-2.000000 I-64.692998 J-0.292728
G03 X156.417664 Y198.957730 Z-2.000000 I-8.490797 J-0.621625
G02 X156.093701 Y200.542545 Z-2.000000 I12.363706 J3.352869
G02 X155.901965 Y202.733379 Z-2.000000 I21.294591 J2.967449
G03 X155.756838 Y204.937427 Z-2.000000 I-31.139786 J-0.943630
G03 X155.570445 Y205.956494 Z-2.000000 I-6.473041 J-0.657373
G02 X155.324214 Y206.967262 Z-2.000000 I23.217308 J6.191282
G02 X155.017911 Y208.534986 Z-2.000000 I32.027487 J7.071347
G03 X154.076574 Y212.114080 Z-2.000000 I-25.338868 J-4.751038
G03 X152.660433 Y215.441661 Z-2.000000 I-23.354548 J-7.974022
G03 X150.793695 Y218.085769 Z-2.000000 I-10.960173 J-5.756858
G03 X148.129654 Y220.322378 Z-2.000000 I-10.120880 J-9.350171
G02 X145.655311 Y222.105077 Z-2.000000 I16.917155 J26.089106
G02 X142.991088 Y224.429547 Z-2.000000 I25.062690 J31.415002
G03 X138.984363 Y227.656404 Z-2.000000 I-21.800980 J-22.968889
G03 X132.953387 Y231.262551 Z-2.000000 I-34.185130 J-50.325512
G03 X127.699906 Y233.588561 Z-2.000000 I-21.202290 J-40.791363
G03 X123.523473 Y234.761933 Z-2.000000 I-9.369970 J-25.331578
G03 X120.258816 Y235.159537 Z-2.000000 I-4.904423 J-26.667802
